zelongjiang123/UMAP-research/panda_RRTstar_combined.csv
horse_idx,layer_idx,panda-panda_joint1,panda-panda_joint2,panda-panda_joint3,panda-panda_joint4,panda-panda_joint5,panda-panda_joint6,panda-panda_joint7
1,0,2.730666130398469e-07,-0.7853985712430547,-3.73099296090224e-07,-2.3561951131837056,-4.092834960994522e-06,1.5707983199647275,0.7853928251175617
1,1,0.0006823216835853887,-0.7864172623552693,-0.0009322770624311245,-2.357751181833866,-0.010226918663305828,1.5757767342479556,0.7720592052615096
1,2,0.0013605212801064907,-0.7874302046647934,-0.0018589219907650517,-2.359298469086471,-0.02039205378646677,1.5807270537327864,0.7588008313252321
1,3,0.002041421011799167,-0.7884471798300884,-0.0027892561966735892,-2.360851916597431,-0.030597659648641192,1.585697082064128,0.7454896714510585
1,4,0.0027207561439483866,-0.7894618181478195,-0.003717452642195281,-2.3624017945325004,-0.04077981464789199,1.5906556900589706,0.7322090985101624
1,5,0.003401726516697996,-0.7904788988208673,-0.004647883367148471,-2.363955403208415,-0.0509864793073477,1.5956262340140348,0.7188965576479243
1,6,0.004927076639297446,-0.7927571244110099,-0.0067320160653848,-2.3674354329998866,-0.07384905573158931,1.60676008085179,0.6890769257682982
1,7,0.006571805077224239,-0.7952136505295736,-0.008979259020569931,-2.3711878199948875,-0.09850092355662578,1.6187652947671172,0.6569235231925353
1,8,0.008608602524996864,-0.7982557613202061,-0.011762197899778278,-2.3758346979099474,-0.1290292833216907,1.633632301683788,0.6171054190038155
1,9,0.010824721702973104,-0.801565702655817,-0.014790149563844682,-2.380890691708712,-0.16224539109986144,1.649808215092934,0.5737816882029073
1,10,0.013381017323698908,-0.8053837231960337,-0.018282894744494595,-2.386722785458292,-0.20056020363103322,1.6684671468958714,0.5238077227138308
1,11,0.016172956534957882,-0.8095536952325999,-0.022097606996758896,-2.39309249132923,-0.24240693943518202,1.6888460901285935,0.4692270738014641
1,12,0.019196054092140015,-0.8140689197140012,-0.026228157993237328,-2.399989576402124,-0.28771837181716514,1.7109123060606428,0.41012742516621087
1,13,0.022452652919430875,-0.8189328959744274,-0.03067774894316853,-2.4074193859716995,-0.33652961749048665,1.7346828961814726,0.34646297411942917
1,14,0.025944574787244188,-0.8241483449655569,-0.035448868987394126,-2.41538607633966,-0.388867981901086,1.7601711579710908,0.2781981061996901
1,15,0.029646233608147804,-0.8296770519337563,-0.040506559069204945,-2.423831273795477,-0.4443499702233174,1.787190333271861,0.20583301326272768
1,16,0.03354762685905331,-0.8355040773554838,-0.045837152434244376,-2.432732157953311,-0.5028256605178466,1.815667411593662,0.12956323831990973
1,17,0.03763459091782117,-0.8416082667915523,-0.05142129689078334,-2.4420564150340045,-0.5640827625774538,1.8454990097215627,0.04966567124197875
1,18,0.04193443496168953,-0.8480304085603344,-0.057296305806028965,-2.4518663499136384,-0.6285305976080969,1.8768844630029895,-0.03439356514464783
1,19,0.04637284851988753,-0.8546595143624109,-0.06336064650255833,-2.461992426006304,-0.6950553696412639,1.9092813639029467,-0.12116174805170127
1,20,0.05082612447467884,-0.8613108182760869,-0.06944529414780416,-2.4721524101061547,-0.7618029054012158,1.941786748517469,-0.20822048142890257
1,21,0.05527442028787841,-0.8679546839722357,-0.07552313727271108,-2.4823010321974754,-0.8284757967460543,1.974255782045843,-0.29518185618215675
1,22,0.059723962190115006,-0.8746004107964559,-0.08160268296732215,-2.4924524971947672,-0.8951673649870481,2.0067339110364846,-0.3821675911893766
1,23,0.0641756420389729,-0.8812493308053954,-0.08768514980403333,-2.5026088398380657,-0.961890977653316,2.0392276453428337,-0.469195121703268
1,24,0.0686261077807999,-0.8878964374538048,-0.09376595776903714,-2.5127624125411554,-1.0285963927829203,2.071712517630211,-0.556198917191222
1,25,0.07307439573069836,-0.8945402914055197,-0.09984379015007437,-2.5229110166926456,-1.0952691662693603,2.1041814937627197,-0.6431601382219042
1,26,0.07752747303242014,-0.9011912986158356,-0.10592816636953295,-2.5330705475728785,-1.1620137245352162,2.1366854283672954,-0.7302149880570138
1,27,0.08197616104638575,-0.9078357500934443,-0.11200654537038644,-2.543220064455716,-1.2286924943468112,2.1691573246503864,-0.8171840300876314
1,28,0.08642426603056569,-0.9144793307720426,-0.1180841277597457,-2.5533682511776985,-1.2953625254676389,2.2016249652781767,-0.9041416742540302
1,29,0.09087835425569732,-0.9211318478728078,-0.12416988523489285,-2.5635300884422363,-1.362122235870289,2.234136278822343,-0.9912162870035643
1,30,0.09533300520410355,-0.927785205443276,-0.1302564115761248,-2.5736932095390777,-1.4288903806013478,2.266651699800376,-1.078301900637847
1,31,0.09977930696036624,-0.9344260928648147,-0.13633153015982458,-2.583837282263375,-1.495533384198817,2.299106178293685,-1.1652242928369163
1,32,0.10423648400715721,-0.9410832233539709,-0.14242150798682662,-2.5940061665600904,-1.5623393911337853,2.3316400377876336,-1.2523592900997886
1,33,0.10868935627022219,-0.94773392432357,-0.14850560405567412,-2.6041652296522244,-1.6290808761957316,2.364142475772537,-1.339410131558608
1,34,0.11313784032975693,-0.9543780711798353,-0.1545837043873276,-2.614314281220584,-1.6957565890542412,2.396612883349946,-1.426375186408867
1,35,0.11757827587159432,-0.961010196967161,-0.16065080778217503,-2.6244449703940096,-1.7623116674117068,2.4290245431277606,-1.5131828978195074
1,36,0.12202880142243185,-0.9676573929448438,-0.16673169746606595,-2.634598679549141,-1.8290179789834156,2.4615098519735072,-1.6001878625358577
1,37,0.12647888933884466,-0.9743039352824666,-0.1728119891966077,-2.644751390257546,-1.8957177311099627,2.4939919664348404,-1.6871842717755003
1,38,0.13093143627670717,-0.9809541503543101,-0.1788956407636441,-2.6549097111322837,-1.962454340063667,2.526492029803632,-1.7742287533320025
1,39,0.13537925835267972,-0.9875973084881376,-0.1849728366068348,-2.6650572524096727,-2.0291201308396616,2.558957605425754,-1.861180866821559
1,40,0.13982751040693076,-0.9942411088269926,-0.19105061994254702,-2.675205774666573,-2.0957923663073403,2.591426319548489,-1.9481413861149963
1,41,0.14428124201403206,-1.0008930932918008,-0.19713589015953173,-2.685366798320288,-2.1625467315719455,2.6239350300637043,-2.0352090272071854
1,42,0.14867371467901436,-1.007453582900777,-0.203137460403351,-2.6953880619671624,-2.228382922559633,2.655996598857888,-2.1210790946562756
1,43,0.1528665644626206,-1.0137159206625206,-0.2088662797762534,-2.7049538934060764,-2.2912270835118096,2.686601078847591,-2.203046660804719
1,44,0.15682106935966897,-1.0196222723383221,-0.21426944121385766,-2.7139759498168337,-2.3504988330526513,2.715465830087691,-2.2803547348980313
1,45,0.16053937917691957,-1.0251758488269136,-0.21934988206313544,-2.7224591359039074,-2.4062303933720806,2.742606544463508,-2.3530453443011083
1,46,0.16405198411200428,-1.03042218954083,-0.22414926201710994,-2.7304730139235533,-2.458878764121011,2.768245776249931,-2.42171455312792
1,47,0.16731633585515263,-1.0352977453665266,-0.22860944601397895,-2.737920511483417,-2.5078062136931467,2.7920729565112303,-2.4855305687849762
1,48,0.17033748520007783,-1.0398100600458091,-0.23273733510824382,-2.744813151782227,-2.5530884454667215,2.8141249520380396,-2.544592131100594
1,49,0.17310776400962588,-1.0439476806368024,-0.23652245208871198,-2.7511334402491654,-2.5946105262410786,2.8343457915072254,-2.598749332834628
1,50,0.17563234991219143,-1.0477183403184867,-0.23997187130800354,-2.756893189451587,-2.632450060444941,2.852773267502061,-2.6481033933533396
1,51,0.177976901935219,-1.051220105806386,-0.2431753047109397,-2.7622421980279825,-2.6675911726479087,2.86988663887876,-2.693937905189986
1,52,0.17990889946472893,-1.0541056900054553,-0.2458150522446414,-2.766649978812296,-2.6965487480369563,2.8839886894609745,-2.7317072371412325
1,53,0.18170129794066853,-1.0567827724766319,-0.24826406130598966,-2.770739269527943,-2.7234139552649395,2.8970717776042583,-2.766747495729888
1,54,0.18302751708523682,-1.0587635809143325,-0.25007611523594997,-2.7737649893707106,-2.7432918745037784,2.9067521261420475,-2.792674242708702
1,55,0.18435379031907007,-1.0607444701384345,-0.25188824306973345,-2.7767908326161317,-2.763170604454817,2.9164328694885966,-2.818602047098497
1,56,0.18529545127276048,-1.0621509118793506,-0.25317486333819617,-2.778939197194045,-2.777284607004463,2.9233062480501144,-2.837010924233284
1,57,0.1859747796587499,-1.0631655401211828,-0.25410305056623267,-2.7804890597380005,-2.7874666608894896,2.9282648068033374,-2.850291365291015
1,58,0.18665416388908324,-1.0641802517707593,-0.2550313140961105,-2.782039049688758,-2.7976495517925635,2.9332237731760067,-2.863572898070413
1,59,0.1873337068885549,-1.0651952005540328,-0.2559597945571361,-2.7835894018654224,-2.8078348223929317,2.9381838984375386,-2.876857534686228
1,60,0.18801289637702473,-1.066209621341931,-0.2568877920052276,-2.7851389475198336,-2.8180147944246774,2.943141443348965,-2.8901352603851422
1,61,0.1883793910258141,-1.0667570087745941,-0.25738854489464874,-2.7859750914826558,-2.8235079672988133,2.94581656378592,-2.8972999993856074
1,62,0.1883793910258141,-1.0667570087745941,-0.25738854489464874,-2.7859750914826558,-2.8235079672988133,2.94581656378592,-2.8972999993856074
1,63,0.1883793910258141,-1.0667570087745941,-0.25738854489464874,-2.7859750914826558,-2.8235079672988133,2.94581656378592,-2.8972999993856074
1,64,0.1883793910258141,-1.0667570087745941,-0.25738854489464874,-2.7859750914826558,-2.8235079672988133,2.94581656378592,-2.8972999993856074
1,65,0.1883793910258141,-1.0667570087745941,-0.25738854489464874,-2.7859750914826558,-2.8235079672988133,2.94581656378592,-2.8972999993856074
1,66,0.1883793910258141,-1.0667570087745941,-0.25738854489464874,-2.7859750914826558,-2.8235079672988133,2.94581656378592,-2.8972999993856074
1,67,0.1883793910258141,-1.0667570087745941,-0.25738854489464874,-2.7859750914826558,-2.8235079672988133,2.94581656378592,-2.8972999993856074
1,68,0.1883793910258141,-1.0667570087745941,-0.25738854489464874,-2.7859750914826558,-2.8235079672988133,2.94581656378592,-2.8972999993856074
1,69,0.1883793910258141,-1.0667570087745941,-0.25738854489464874,-2.7859750914826558,-2.8235079672988133,2.94581656378592,-2.8972999993856074
1,70,0.1883793910258141,-1.0667570087745941,-0.25738854489464874,-2.7859750914826558,-2.8235079672988133,2.94581656378592,-2.8972999993856074
1,71,0.1883793910258141,-1.0667570087745941,-0.25738854489464874,-2.7859750914826558,-2.8235079672988133,2.94581656378592,-2.8972999993856074
1,72,0.1883793910258141,-1.0667570087745941,-0.25738854489464874,-2.7859750914826558,-2.8235079672988133,2.94581656378592,-2.8972999993856074
1,73,0.1883793910258141,-1.0667570087745941,-0.25738854489464874,-2.7859750914826558,-2.8235079672988133,2.94581656378592,-2.8972999993856074
1,74,0.1883793910258141,-1.0667570087745941,-0.25738854489464874,-2.7859750914826558,-2.8235079672988133,2.94581656378592,-2.8972999993856074
1,75,0.1883793910258141,-1.0667570087745941,-0.25738854489464874,-2.7859750914826558,-2.8235079672988133,2.94581656378592,-2.8972999993856074
1,76,0.18838442381482573,-1.0667487521988988,-0.25739163679753796,-2.785971197433386,-2.823509224021627,2.945811079185491,-2.897299999385566
1,77,0.1923726710532047,-1.0602058065004605,-0.25984182358854807,-2.782885347577449,-2.824505117408122,2.9414647927697986,-2.8972999993523176
1,78,0.1963516997492855,-1.0536779843432849,-0.2622863469516859,-2.7798066304381472,-2.8254987088597674,2.9371285524778212,-2.8972999993191464
1,79,0.20033100434382456,-1.0471497095590472,-0.26473103981353274,-2.776727699826318,-2.8264923692051984,2.932792011518997,-2.8972999992859725
1,80,0.20430912798312817,-1.0406233721988245,-0.26717500715342823,-2.773649682961888,-2.8274857346578006,2.9284567575339713,-2.897299999252809
1,81,0.20828987570209967,-1.034092729887141,-0.2696205866013393,-2.7705696357529535,-2.828479755361552,2.924118643896288,-2.8972999992196233
1,82,0.21226813126169597,-1.0275661761041992,-0.2720646349867015,-2.7674915168170644,-2.8294731537555795,2.9197832461480147,-2.8972999991864583
1,83,0.21877256830986225,-1.0171715799801229,-0.27620660265690655,-2.762357890951433,-2.831069966150762,2.913087251438541,-2.897299999131778
1,84,0.22890525610629128,-1.0012224139860328,-0.28278771890848287,-2.7542716813861103,-2.8335333440605877,2.903002163853647,-2.897299999046194
1,85,0.23903891575662686,-0.9852717182636426,-0.28936946637298777,-2.7461846962502277,-2.8359969582397517,2.8929161089803133,-2.8972999989606025
1,86,0.2518947828022859,-0.9657943873051087,-0.2980566614877473,-2.7357292317346937,-2.8390303690090075,2.881110685128021,-2.897299998862275
1,87,0.26552974628113735,-0.9453090002715024,-0.3073470004012164,-2.724595579978811,-2.842226701861354,2.868814832927117,-2.89729999876032
1,88,0.2816536139839883,-0.9220749201431218,-0.3187112484205407,-2.7112629795717016,-2.84587015681039,2.8554722612692793,-2.8972999986724783
1,89,0.2988083873925673,-0.8977816685170106,-0.3309557780409966,-2.697020710475766,-2.8496857119468024,2.841776575511476,-2.8972999985977954
1,90,0.3183066016760926,-0.8714949359830596,-0.34531339126372773,-2.6807149124705583,-2.853824344180763,2.827699877569602,-2.8972999985906793
1,91,0.3372051271406888,-0.8469831990006622,-0.3595130169678716,-2.6648933380745237,-2.8576828359608717,2.815069354376453,-2.897299999113252
1,92,0.35571963893781555,-0.823581819252364,-0.3736017065983553,-2.6493866162819657,-2.8613656945764663,2.8033327512958857,-2.8972999998745235
1,93,0.3729551940671682,-0.8031446668521353,-0.3870706243273546,-2.635014792435389,-2.8645728928022423,2.7937258514222045,-2.897299999566548
1,94,0.38940329889360253,-0.7836884341003084,-0.3999630506958342,-2.6211692752530813,-2.8677251500397145,2.7847847276345483,-2.8970631694952864
1,95,0.4036275339574078,-0.7670038737711797,-0.4112285528539354,-2.6088062061574426,-2.870724998328976,2.7777306654252634,-2.89615038267329
1,96,0.4172280390103967,-0.750535579334375,-0.4219504536685941,-2.596608420291756,-2.873897139138244,2.770952749490867,-2.8947384813449664
1,97,0.425874114134508,-0.7354800593107361,-0.4283250361399862,-2.585500439025657,-2.8786177024441724,2.766348688807773,-2.8890428407304114
1,98,0.43452073553246606,-0.7204235880535351,-0.43470002136842556,-2.574391755938261,-2.883338564003382,2.7617443372322326,-2.8833468402555193
1,99,0.44024136206827513,-0.7104210373100976,-0.4389601630622874,-2.566920163652349,-2.886478899224895,2.7588272970908676,-2.8794652259470137
1,100,0.4437315555447758,-0.7042710115590484,-0.4416081846907788,-2.562221097470098,-2.888414422537083,2.757196424352717,-2.876966720164049
1,101,0.4472286116958178,-0.6981088931760479,-0.4442614130537211,-2.5575127916390783,-2.8903537516172464,2.7555623448729065,-2.8744633016356618
1,102,0.45071251282547387,-0.6919699550897339,-0.4469046606573193,-2.5528221972376794,-2.8922857854426516,2.7539344123777525,-2.8719693003207407
1,103,0.454207938197394,-0.6858107102819838,-0.4495566517426107,-2.5481160870267807,-2.894224210157189,2.75230109491679,-2.8694670492093155
1,104,0.45769394934058866,-0.6796680541675191,-0.4522015002206373,-2.5434226517819356,-2.8961574141126802,2.7506721764695454,-2.866971537410502
1,105,0.459754039049967,-0.6760379961643017,-0.4537644972704558,-2.5406490239154804,-2.897299858416856,2.7497095524294193,-2.8654967922174452
1,106,0.459754039049967,-0.6760379961643017,-0.4537644972704558,-2.5406490239154804,-2.897299858416856,2.7497095524294193,-2.8654967922174452
1,107,0.459754039049967,-0.6760379961643017,-0.4537644972704558,-2.5406490239154804,-2.897299858416856,2.7497095524294193,-2.8654967922174452
1,108,0.459754039049967,-0.6760379961643017,-0.4537644972704558,-2.5406490239154804,-2.897299858416856,2.7497095524294193,-2.8654967922174452
1,109,0.459754039049967,-0.6760379961643017,-0.4537644972704558,-2.5406490239154804,-2.897299858416856,2.7497095524294193,-2.8654967922174452
1,110,0.459754039049967,-0.6760379961643017,-0.4537644972704558,-2.5406490239154804,-2.897299858416856,2.7497095524294193,-2.8654967922174452
1,111,0.459754039049967,-0.6760379961643017,-0.4537644972704558,-2.5406490239154804,-2.897299858416856,2.7497095524294193,-2.8654967922174452
1,112,0.459754039049967,-0.6760379961643017,-0.4537644972704558,-2.5406490239154804,-2.897299858416856,2.7497095524294193,-2.8654967922174452
1,113,0.459754039049967,-0.6760379961643017,-0.4537644972704558,-2.5406490239154804,-2.897299858416856,2.7497095524294193,-2.8654967922174452
1,114,0.459754039049967,-0.6760379961643017,-0.4537644972704558,-2.5406490239154804,-2.897299858416856,2.7497095524294193,-2.8654967922174452
1,115,0.459754039049967,-0.6760379961643017,-0.4537644972704558,-2.5406490239154804,-2.897299858416856,2.7497095524294193,-2.8654967922174452
1,116,0.459754039049967,-0.6760379961643017,-0.4537644972704558,-2.5406490239154804,-2.897299858416856,2.7497095524294193,-2.8654967922174452
1,117,0.459754039049967,-0.6760379961643017,-0.4537644972704558,-2.5406490239154804,-2.897299858416856,2.7497095524294193,-2.8654967922174452
1,118,0.459754039049967,-0.6760379961643017,-0.4537644972704558,-2.5406490239154804,-2.897299858416856,2.7497095524294193,-2.8654967922174452
1,119,0.459754039049967,-0.6760379961643017,-0.4537644972704558,-2.5406490239154804,-2.897299858416856,2.7497095524294193,-2.8654967922174452
1,120,0.45975332716322265,-0.6760381051068342,-0.4537636768562611,-2.5406474242713393,-2.8972985059981506,2.7497114126237467,-2.86549778744017
1,121,0.4561108430047268,-0.6765955272694721,-0.4495658943698319,-2.532462585194019,-2.890378636019888,2.7592293990489702,-2.8705900061642957
1,122,0.45247622917996955,-0.6771517450072554,-0.4453771820530156,-2.524295431139428,-2.8834737178392955,2.768726819913322,-2.875671222105957
1,123,0.4488349953209525,-0.6777089758321664,-0.44118084047477607,-2.5161134015458524,-2.8765562231383024,2.7782415392458284,-2.880761692902531
1,124,0.4452085987779534,-0.6782639360504192,-0.43700159816797207,-2.507964712123067,-2.8696669158756625,2.7877174879574342,-2.885831421025931
1,125,0.4415746447214133,-0.6788200528215516,-0.43281364620133067,-2.4997990405997514,-2.8627632511007346,2.797213184815679,-2.8909117146069385
1,126,0.42766723993850747,-0.6767615394259954,-0.4188803500899033,-2.4818378886934678,-2.8524421548182284,2.817422731909369,-2.89351143410768
1,127,0.41370355676952575,-0.6746890616890101,-0.4048934891503951,-2.463821938151325,-2.842100958341355,2.8376923519735806,-2.896099007960201
1,128,0.3958786269325863,-0.6712244484525554,-0.38774934144658707,-2.4418773701384757,-2.831103586472636,2.8616865198230212,-2.8973
1,129,0.3746771482356772,-0.6665469468346327,-0.3678403398749817,-2.416491560952007,-2.819520318678609,2.8889480147666218,-2.8973
1,130,0.3510869363178117,-0.6605453081853613,-0.3466104354689736,-2.3873993068950683,-2.806954145877388,2.919069817669695,-2.8972999998857745
1,131,0.32613283649155206,-0.6537593417124339,-0.324665792867677,-2.3561798996098995,-2.793841631542369,2.950793259651829,-2.8972999996438995
1,132,0.2985716545361822,-0.6452062277347083,-0.3017212747897172,-2.3207705425998313,-2.779821838977073,2.98530588679852,-2.8972999986299497
1,133,0.26933647291382,-0.6354232835745754,-0.2783165791772891,-2.2827521836697335,-2.765291976403361,3.02134849128195,-2.8972999989208326
1,134,0.23840750784296955,-0.6244043792510989,-0.25447572054269896,-2.2421911950679516,-2.750261029150745,3.0588234946914334,-2.897299999439963
1,135,0.20561418241652757,-0.6120233692053583,-0.23021600861112645,-2.198964229464514,-2.7347071142397357,3.097695447781271,-2.897299998645263
1,136,0.17001439972863414,-0.5977769667265499,-0.2052650217008122,-2.1522208841045676,-2.718366609006388,3.138301680976409,-2.8972999989218455
1,137,0.13600859605630464,-0.5837945753574132,-0.18228790410334111,-2.108080142612567,-2.703119909989867,3.175762684040072,-2.897299999308944
1,138,0.10344938149424088,-0.5702166769366617,-0.16087628021211087,-2.0663685587367375,-2.6887866764052264,3.210546013682061,-2.8972999996728124
1,139,0.07262380594498868,-0.5572376021773809,-0.1411964940198432,-2.0276373589533345,-2.6754997745490985,3.242210702860324,-2.89729999992315
1,140,0.04423695784250299,-0.5453519930656449,-0.12348817315072337,-1.9929520623449264,-2.663505613780418,3.270100226335654,-2.8973
1,141,0.016871662742700876,-0.5339262351913978,-0.10661694515334386,-1.9599882366872192,-2.6520595341432815,3.296373848473613,-2.8973
1,142,-0.006872943531298029,-0.5242003218137916,-0.0921851409793299,-1.9323440098250757,-2.6424234391115333,3.3180957799558852,-2.897180509184115
1,143,-0.028915977185914696,-0.5152771786285489,-0.07890407568183813,-1.9072197103803195,-2.6336441114184974,3.3376562286026803,-2.8970023762575106
1,144,-0.050975468909434676,-0.5063473731250575,-0.06561309429515466,-1.882076652290184,-2.624858228784687,3.357231281737072,-2.8968241103308836
1,145,-0.06238136567925435,-0.5018180391894669,-0.05866235670047366,-1.869402413603654,-2.6213380080092286,3.366813742430419,-2.895744566312208
1,146,-0.07245215071222126,-0.4978402452349017,-0.05250611633078682,-1.85829103671964,-2.618478514563969,3.375143489451001,-2.8945512695001185
1,147,-0.08252426196686675,-0.49386192744465157,-0.046349065245807175,-1.8471781965784067,-2.615618644552018,3.383474333415966,-2.8933578155427724
1,148,-0.0926178544471058,-0.4898751249246587,-0.04017888275272415,-1.8360416556042471,-2.6127526751720853,3.3918229449307593,-2.8921618162547555
1,149,-0.10267207213393623,-0.48590387479851294,-0.034032769951520825,-1.824948557933451,-2.6098978858504394,3.4001389887691493,-2.8909704825231275
1,150,-0.11274580452763515,-0.4819249166850799,-0.027874727869150906,-1.8138339291444663,-2.607037555533112,3.408471173610536,-2.889776836475487
1,151,-0.12124427746286497,-0.47856816007135705,-0.02267963711969228,-1.8044573278752687,-2.604624503564129,3.4155004299574836,-2.8887698444060463
1,152,-0.10718235867423168,-0.4796724604976166,-0.02442955596768607,-1.8077609844408224,-2.6056736328489807,3.41276630908089,-2.8888316076368876
1,153,-0.09316166465699635,-0.4807735234899731,-0.026174344647773337,-1.8110549558070275,-2.6067196864429834,3.4100402037183817,-2.8888931897989067
1,154,-0.06510070513463562,-0.48297718644860443,-0.029666357558604722,-1.817647496594329,-2.6088132538172837,3.404584187622673,-2.8890164400854896
1,155,-0.05107595736013605,-0.48407856778769176,-0.03141165070371903,-1.8209424203356688,-2.60985960985333,3.4018572940702643,-2.889078040052557
1,156,-0.021403018756483077,-0.4864088215205517,-0.035104264444303826,-1.8279136736838586,-2.612073443493293,3.396087853773702,-2.8892083705276694
1,157,0.012876354325978966,-0.48910082443109837,-0.03937012047405846,-1.8359671461614897,-2.614630953226334,3.389422764109192,-2.889358933538636
1,158,0.08388914404355959,-0.4946775494238774,-0.048207223080273386,-1.8526506352724075,-2.619929063563306,3.3756154342710385,-2.889670838292883
1,159,0.12799080120112427,-0.49814090883662104,-0.05369540163170729,-1.86301171980222,-2.623219392623654,3.367040554602103,-2.8898645430690553
1,160,0.22408965486497096,-0.5056876744423091,-0.06565430978817423,-1.8855888384458994,-2.630389119823395,3.348355630733007,-2.890286631673863
1,161,0.27698098414687866,-0.5098412980230864,-0.07223630868868501,-1.898014936894447,-2.634335227271351,3.3380717363545713,-2.890518942742433
1,162,0.39746821281606765,-0.5193033138388627,-0.08723019932053694,-1.92632177254337,-2.643324518274058,3.3146448731917983,-2.89104815078506
1,163,0.4618420498453273,-0.5243586734053562,-0.09524112531352731,-1.941445530015466,-2.648127310739355,3.3021283841995284,-2.8913308957088746
1,164,0.6019049308669284,-0.5353579901799855,-0.11267108484381079,-1.9743513989393726,-2.6585770987383603,3.274895340630357,-2.891946084587637
1,165,0.6744342114184034,-0.5410538071330767,-0.12169690535779709,-1.9913911669461726,-2.663988351169805,3.260793152792351,-2.892264650123733
1,166,0.8194168783010534,-0.5524394809692937,-0.13973910181930946,-2.0254528726449372,-2.674805193729401,3.232603533564249,-2.892901447850789
1,167,0.8919020488798397,-0.5581318339099429,-0.1487594331199279,-2.0424822776135865,-2.680213155211382,3.218509922222737,-2.893219819645586
1,168,1.0369102090967983,-0.569519509770234,-0.16680480206926895,-2.0765499726245165,-2.6910318997734004,3.190315346213232,-2.893856729345319
1,169,1.1093989834914582,-0.5752121457231425,-0.17582558184249036,-2.0935802242606902,-2.6964401301282725,3.1762210341659083,-2.8941751169689165
1,170,1.2480155873106975,-0.5860978845035404,-0.19307556111731383,-2.1261463100264795,-2.7067820145196824,3.149269196650602,-2.8947839534604936
1,171,1.3110648758087566,-0.5910492255836812,-0.20092165523531824,-2.1409588828361357,-2.7114859852897197,3.137010245469896,-2.8950608806578706
1,172,1.4284871867871867,-0.6002705495021975,-0.2155341358110302,-2.1685456577590543,-2.720246609426022,3.1141793077685986,-2.895576626866328
1,173,1.4801307819992018,-0.6043261869342882,-0.22196086192131878,-2.180678618058106,-2.7240996261392,3.104138015827299,-2.8958034575955116
1,174,1.5746878367217074,-0.6117518731016918,-0.2337279027325234,-2.2028935120102697,-2.7311543230614213,3.0857528707249835,-2.896218774259352
1,175,1.618333104657739,-0.6151793916864905,-0.2391592864672053,-2.2131473740997576,-2.7344106019110686,3.077266728824855,-2.896410474467494
1,176,1.68812983352441,-0.6206606178688866,-0.247845057819464,-2.229545166253197,-2.7396179845834863,3.0636958430602066,-2.896717037998528
1,177,1.7220233736705828,-0.6233223208266022,-0.2520628993259137,-2.237507992530097,-2.742146708157355,3.0571057725948427,-2.896865906341145
1,178,1.7510977962207641,-0.6256055723300433,-0.25568103144428606,-2.2443386326718415,-2.7443158878117133,3.0514527044137347,-2.8969936079939944
1,179,1.7651247587699426,-0.6267071275982123,-0.25742660020441516,-2.2476340767443697,-2.745362409087299,3.048725380232919,-2.897055217688869
1,180,1.7931800246002256,-0.6289103434239394,-0.2609179045704717,-2.2542252798761564,-2.7474555516675734,3.0432704711868674,-2.897178442967427
1,181,1.8072107261334478,-0.6300121923192965,-0.26266393862404674,-2.257521602372132,-2.7485023519006546,3.0405424200188973,-2.897240069084793
1,182,1.826209675651514,-0.6329573150630705,-0.2685180907310244,-2.2676486840348193,-2.7521355943134322,3.0314352251900805,-2.897299999914238
1,183,1.831758633249748,-0.6348990486128372,-0.27282541522127585,-2.2748218799792443,-2.75484595904023,3.024746272454133,-2.897299999825356
1,184,1.8428583529956684,-0.6387831471740734,-0.2814414649657806,-2.2891706046281817,-2.7602675699183257,3.0113661917005237,-2.897299999647564
1,185,1.852437341416446,-0.6420001310335062,-0.28906581427755657,-2.301482211080146,-2.765016539143318,2.9996909968493184,-2.8972999996546274
1,186,1.8834671447714704,-0.6519362040330176,-0.3144220282432608,-2.3410563617364537,-2.780644368612408,2.961471887857705,-2.8972999996015094
1,187,1.9027095968713694,-0.6576512152870475,-0.33072899175981096,-2.3652556281049946,-2.7905505616648463,2.937476853042855,-2.897299999615084
1,188,1.9456639273434266,-0.669007929952289,-0.3688739752977932,-2.4179912689684127,-2.813298015745047,2.8832647990704645,-2.8973
1,189,1.9652255758164447,-0.6734985253818692,-0.38706327196170986,-2.4413013458457664,-2.8239507601194567,2.8583643667432326,-2.8973
1,190,1.9974022660053727,-0.6797405704024457,-0.4183010553500492,-2.4782905554790795,-2.8419346582913,2.8172555656692766,-2.8973
1,191,2.0122428096817515,-0.6822743668039701,-0.4330986312739996,-2.4949176104719326,-2.850363355013933,2.7982799400666885,-2.8973
1,192,2.0318310338733965,-0.6839235013228289,-0.45371980874688456,-2.521831758269468,-2.868320855798571,2.7670051845216745,-2.8903053841826933
1,193,2.034629455985545,-0.6833747783057956,-0.4570502564207337,-2.5280761391926028,-2.873783641888722,2.7596300151770348,-2.8862579570025986
1,194,2.0402122839885264,-0.6822800806145237,-0.4636944708354609,-2.5405336253336737,-2.884681853072087,2.7449166158777527,-2.8781833746502925
1,195,2.0425018867343323,-0.6818311284278497,-0.4664193643051428,-2.545642630027926,-2.889151375370907,2.7388824268578182,-2.8748718655163548
1,196,2.0425018867343323,-0.6818311284278497,-0.4664193643051428,-2.545642630027926,-2.889151375370907,2.7388824268578182,-2.8748718655163548
1,197,2.0425018867343323,-0.6818311284278497,-0.4664193643051428,-2.545642630027926,-2.889151375370907,2.7388824268578182,-2.8748718655163548
1,198,2.0425018867343323,-0.6818311284278497,-0.4664193643051428,-2.545642630027926,-2.889151375370907,2.7388824268578182,-2.8748718655163548
1,199,2.0425018867343323,-0.6818311284278497,-0.4664193643051428,-2.545642630027926,-2.889151375370907,2.7388824268578182,-2.8748718655163548
1,200,2.0425018867343323,-0.6818311284278497,-0.4664193643051428,-2.545642630027926,-2.889151375370907,2.7388824268578182,-2.8748718655163548
1,201,2.0425018867343323,-0.6818311284278497,-0.4664193643051428,-2.545642630027926,-2.889151375370907,2.7388824268578182,-2.8748718655163548
1,202,2.0425018867343323,-0.6818311284278497,-0.4664193643051428,-2.545642630027926,-2.889151375370907,2.7388824268578182,-2.8748718655163548
1,203,2.0425018867343323,-0.6818311284278497,-0.4664193643051428,-2.545642630027926,-2.889151375370907,2.7388824268578182,-2.8748718655163548
1,204,2.0425018867343323,-0.6818311284278497,-0.4664193643051428,-2.545642630027926,-2.889151375370907,2.7388824268578182,-2.8748718655163548
1,205,2.042500244518203,-0.6818337397216335,-0.46641811015740625,-2.5456446256018626,-2.8891505951115297,2.7388831824647912,-2.874872800686059
1,206,2.032497483445621,-0.6977391661422636,-0.4587790790119252,-2.5577996939485996,-2.8843980244943137,2.743485594949073,-2.880568932242124
1,207,2.0275053860462897,-0.7056771182030533,-0.4549666528989694,-2.5638659475202035,-2.8820261498442856,2.745782529888008,-2.8834117116828155
1,208,2.0175132691059012,-0.7215656193507326,-0.4473357505947907,-2.5760080814228044,-2.8772786365297027,2.75038004485584,-2.88910178187474
1,209,2.0125191470360178,-0.7295067908474613,-0.4435217782566185,-2.5820767953159884,-2.8749057999063052,2.752677911374462,-2.8919457142760727
1,210,2.001278188699452,-0.7464647230824972,-0.43487214315894834,-2.595004457221198,-2.8701210192946713,2.7578896323440993,-2.897299999984796
1,211,1.985700245556501,-0.7634708145585082,-0.42242461240024304,-2.6077317184731106,-2.8674313834422684,2.7653927722353173,-2.8972999998559708
1,212,1.954560414648073,-0.7974654702146923,-0.39754237990673646,-2.6331731236493296,-2.8620548838055386,2.7803913189208935,-2.8972999995984527
1,213,1.9368833706694455,-0.818385412813794,-0.3838246213472962,-2.647743978992012,-2.8587286584040066,2.7904390372673404,-2.8972999996015414
1,214,1.8991255956446451,-0.8646878276927875,-0.3549297363633844,-2.6789952702936883,-2.8513504973229646,2.813430097532465,-2.897299999757005
1,215,1.8786902023264813,-0.8923213530504881,-0.3400653867981384,-2.695840213107031,-2.8469484137752574,2.8285972995559487,-2.8972999973681297
1,216,1.8369553858684908,-0.9506619216587787,-0.3104010120624011,-2.7299881693596233,-2.83768335507898,2.861806933483941,-2.8972999942636055
1,217,1.8153225726856548,-0.9827751685342982,-0.2957252232475295,-2.7474057659588174,-2.8326152766705244,2.88125218554498,-2.8972999949806137
1,218,1.7706901851280505,-1.052821364153729,-0.267284033707812,-2.7821874056968516,-2.8217304192073382,2.926511528164789,-2.8972999965654678
1,219,1.747990960001422,-1.0902030107909721,-0.2538654989139038,-2.799115003302381,-2.8160489989115365,2.9521564444378936,-2.897299997334377
1,220,1.7020755530512695,-1.1691489025935287,-0.2292600732418252,-2.831311937533319,-2.804433711332618,3.009655623726571,-2.897299998648256
1,221,1.6796581003343405,-1.2089269497687403,-0.21846342430143487,-2.845991431582146,-2.79879397971036,3.040117631663704,-2.897299999140857
1,222,1.6387695688350137,-1.2831831623228862,-0.2016654901068274,-2.8701921572584634,-2.78888674682731,3.1002062521415787,-2.8972999996883355
1,223,1.620137700593042,-1.3173912612741716,-0.19516726543634555,-2.8801901668499017,-2.7845986264848235,3.1290816210136954,-2.897299999841769
1,224,1.5854309862984333,-1.3815270417965768,-0.18491368727676105,-2.8971646673090605,-2.777017012899965,3.1850789468668332,-2.897299999999627
1,225,1.570834652031883,-1.4083950635787674,-0.18205964993702942,-2.9028877979944454,-2.7745454478596425,3.2100387065423135,-2.8969171053114846
1,226,1.5416463200102688,-1.4621219372841219,-0.17636890424651983,-2.9143163586253245,-2.7696111553984673,3.259966739600694,-2.8961471021776175
1,227,1.5308782881193908,-1.4817910384885307,-0.1752808196261876,-2.917422292247456,-2.76877312195348,3.279368187489404,-2.8950612274098475
1,228,1.5093282973892994,-1.5211543818436764,-0.17310523324897711,-2.9236359917715777,-2.767097904233043,3.318198109211112,-2.8928864955899027
1,229,1.4985659799438307,-1.5408128959567018,-0.17201871996389798,-2.926739185996899,-2.7662612809080755,3.3375902263208514,-2.891800409080718
1,230,1.488572148393836,-1.559028439067239,-0.17197990653608441,-2.928637907056687,-2.7664267228609556,3.3565150878180328,-2.8900856501929955
1,231,1.4837352530701085,-1.5678433846018593,-0.17198979634447897,-2.929527812857738,-2.7665346483791127,3.365701613252952,-2.8892348525112586
1,232,1.474057001734348,-1.5854814050023829,-0.17200958508186087,-2.9313084451500004,-2.7667505989466483,3.3840831361330044,-2.887532472523968
1,233,1.4692202438613031,-1.5942961000415514,-0.17201947460921546,-2.9321983256624824,-2.7668585213978725,3.3932694005132378,-2.88668169901946
1,234,1.4595343127045144,-1.6119481164456162,-0.1720392790492234,-2.933980370910128,-2.767074643325053,3.4116655093759274,-2.88497796817103
1,235,1.455249981751996,-1.619756047250626,-0.172048039051122,-2.9347686143417286,-2.7671702394889266,3.4198025709893662,-2.8842243651678157
2,0,0.0,-0.7853981633974483,0.0,-2.356194490192345,0.0,1.5707963267948966,0.7853981633974483
2,1,2.1762565883823476e-07,-0.7853985164358802,-3.100307250122264e-07,-2.356195036720042,-3.616002646504488e-06,1.570798110869709,0.7853934232575329
2,2,0.0006184513649512968,-0.7864014325029677,-0.0008810492571704273,-2.3577476195531073,-0.010276002307524327,1.5758663332863836,0.7719275735029177
2,3,0.0012343988061897103,-0.7874006396733922,-0.001758531410681182,-2.3592944607598514,-0.020510400169962695,1.5809158128452805,0.7585115219785403
2,4,0.0018488339902075139,-0.7883973936178479,-0.0026338591941373504,-2.3608375042045995,-0.03071967082019128,1.5859528950608135,0.7451284091749555
2,5,0.002465614945663843,-0.7893979529383546,-0.003512528776642774,-2.3623864386323756,-0.04096791810477027,1.5910092076913713,0.7316942027416603
2,6,0.0030808116254923837,-0.7903959422026173,-0.0043889413912698485,-2.3639313944368805,-0.05118984154089565,1.5960525325783939,0.7182945036738124
2,7,0.004516591838410895,-0.7927251050302402,-0.00643436187498318,-2.3675370981844357,-0.07504633473856248,1.6078229245807119,0.6870215410400731
2,8,0.006026582459231052,-0.7951746540576115,-0.008585502918891586,-2.3713291680230344,-0.10013588580634931,1.6202016865715525,0.6541321894266965
2,9,0.007899537988190137,-0.7982130149129785,-0.011253725791408972,-2.376032758941065,-0.13125635287652818,1.6355560009578367,0.613337040040474
2,10,0.009918754989676992,-0.8014886452207728,-0.014130313571866034,-2.381103659238952,-0.16480705668701343,1.6521093532267987,0.569356145702509
2,11,0.012207884092600558,-0.8052021344903606,-0.01739141963451793,-2.3868523952298677,-0.2028425389851503,1.6708754196782618,0.519496251928087
2,12,0.014746067605730176,-0.8093196467915293,-0.021007329996331398,-2.3932265865740088,-0.24501623463200875,1.691683210908807,0.4642116634865684
2,13,0.017479117146951474,-0.8137532762148829,-0.024900847586502173,-2.4000901488966884,-0.2904277657301413,1.7140884956261244,0.40468266635333994
2,14,0.020431359996907022,-0.8185424871556399,-0.029106629184453496,-2.407504175787434,-0.33948134707506156,1.738290706603376,0.34037938406703916
2,15,0.0235819578927095,-0.8236534752007902,-0.03359498848487817,-2.4154163356972314,-0.3918307363433627,1.7641190137088854,0.2717556982251164
2,16,0.026942913258939685,-0.8291057110192589,-0.03838302420864645,-2.4238567705565117,-0.44767536222043136,1.7916718116976598,0.19855018206318856
2,17,0.030539470574691648,-0.8349401469112515,-0.04350669978120125,-2.4328888773337347,-0.5074346793960368,1.8211560524500483,0.12021298147105526
2,18,0.034307520119910596,-0.8410527822954135,-0.04887468413848043,-2.4423516559985505,-0.5700434599985101,1.8520461704725202,0.03814048070146936
2,19,0.038287062141091094,-0.8475085066906226,-0.05454396185430484,-2.4523455599750905,-0.6361663361211316,1.8846700840475497,-0.04853857212848956
2,20,0.0422889638834082,-0.8540005036509771,-0.060245093353327714,-2.4623956163693697,-0.7026607346609015,1.9174773005267929,-0.13570464568579563
2,21,0.0462817341077513,-0.8604776872074184,-0.06593321604101346,-2.4724227405987644,-0.7690034066380184,1.950209657675086,-0.22267182416304596
2,22,0.050269159697178975,-0.8669462005475824,-0.07161372473204733,-2.4824364427389214,-0.8352572737650917,1.9828982000058342,-0.3095225902768324
2,23,0.05426562308415497,-0.8734293752557636,-0.0773071087197782,-2.492472841681971,-0.9016613102243465,2.015660833356241,-0.3965702101308198
2,24,0.05826707828551721,-0.879920647824889,-0.08300760407407105,-2.502521776668962,-0.9681482891735994,2.0484643891344683,-0.4837265575068688
2,25,0.062252548855345924,-0.8863859896775677,-0.08868532763330148,-2.5125305691290505,-1.0343696722816396,2.081136904397254,-0.5705347410203963
2,26,0.06624649898401767,-0.8928650873078188,-0.09437513121926185,-2.5225606564759344,-1.1007319491950394,2.1138789342909634,-0.6575276191859758
2,27,0.07024870687925876,-0.8993575809180112,-0.10007669886544444,-2.5326114817182135,-1.1672314346799297,2.146688660583265,-0.744700361109976
2,28,0.0742338422511536,-0.9058223790032244,-0.10575394489983238,-2.5426194323889835,-1.2334472482396803,2.1793584279247153,-0.8315012436227188
2,29,0.07823026825828706,-0.9123054930727793,-0.11144727563603148,-2.552655737459282,-1.2998506636066876,2.2121207548386668,-0.9185480493002687
2,30,0.0822245543714358,-0.9187851357464482,-0.11713755786734806,-2.562686668570746,-1.3662185231373414,2.2448655391017187,-1.0055482455984568
2,31,0.0862181467429392,-0.9252636530130125,-0.12282685179045494,-2.572715857474852,-1.4325748556649807,2.277604636135597,-1.0925333313968921
2,32,0.09021366906049895,-0.9317453010920599,-0.12851889512545686,-2.5827498930913353,-1.4989632555971921,2.3103595546868787,-1.1795604536646715
2,33,0.09421363348862599,-0.9382341552871386,-0.13421726671590034,-2.592795084269495,-1.5654254643056904,2.3431508892454462,-1.2666843302661126
2,34,0.09820072809488029,-0.9447021316971396,-0.13989730388646296,-2.602807955204947,-1.6316738319156696,2.3758367182070717,-1.353527887181499
2,35,0.10221073352557303,-0.9512072746874792,-0.14560997994505565,-2.6128783625549517,-1.6983028789098966,2.408710367966275,-1.4408704684949973
2,36,0.10619782921118774,-0.9576752528484489,-0.15129001865328112,-2.622891236201023,-1.7645512644542045,2.441396205776396,-1.5277140489201084
2,37,0.11018368756942135,-0.9641412237823264,-0.1569682946580318,-2.6329010025219373,-1.8307790909380204,2.4740719000922833,-1.6145306789160339
2,38,0.11418531190468095,-0.9706327707251918,-0.16266903096141636,-2.6429503622582895,-1.8972688801653619,2.506876842414395,-1.701690710225045
2,39,0.11817316713569263,-0.9771019810419528,-0.16835015172224246,-2.652965143366004,-1.9635298860880768,2.5395689069066956,-1.7885508344321395
2,40,0.12217271371171115,-0.9835901573856516,-0.17404792803824612,-2.663009285183753,-2.0299851518913203,2.5723568159527286,-1.875665609728758
2,41,0.1261696807436705,-0.9900741491208143,-0.17974202952142382,-2.6730469489405864,-2.0963975567644946,2.6051235781376403,-1.9627241995561462
2,42,0.13016410388910962,-0.9965540140920981,-0.1854325069697041,-2.6830782241839994,-2.162767693182568,2.637869485778602,-2.0497273805769662
2,43,0.13407262121285463,-1.002894520236198,-0.19100060250619705,-2.692893762408311,-2.227710444244271,2.6699111455217848,-2.1348594329057433
2,44,0.1378231514308068,-1.008978735277561,-0.1963436287323292,-2.7023125444339393,-2.290028128961729,2.7006576417366213,-2.2165503423551174
2,45,0.14131427965379942,-1.0146421411458806,-0.20131710943245926,-2.711079885008478,-2.3480356679670966,2.729277584639617,-2.292591174708779
2,46,0.1446309221267472,-1.0200224913492049,-0.20604201676178602,-2.7194090360069443,-2.403144004105911,2.756467109670596,-2.3648315045257875
2,47,0.14772289725623816,-1.0250383799028615,-0.21044686174299482,-2.7271739753837667,-2.454519335079526,2.78181483281657,-2.4321783183479884
2,48,0.15062661342980968,-1.0297488695116452,-0.2145835119676417,-2.734466136255382,-2.502766611730563,2.8056192266359656,-2.495424633193421
2,49,0.15333151753577098,-1.034136840622546,-0.21843693341406714,-2.741259016379992,-2.547710486721734,2.827793777705399,-2.55434059001778
2,50,0.1557703317105178,-1.0380931532031141,-0.2219112816632728,-2.747383659504583,-2.588233091258786,2.847786948386606,-2.6074607987177307
2,51,0.15798962880976747,-1.0416933590427784,-0.22507290466476526,-2.75295702497912,-2.6251082659376674,2.865980538598215,-2.6557996702480215
2,52,0.16001909310874268,-1.0449856128032284,-0.22796409080226668,-2.758053659521443,-2.6588292357684153,2.8826178972543084,-2.7000037626413484
2,53,0.16173663017119025,-1.047771849474359,-0.23041090366224196,-2.762366944916318,-2.6873673162339013,2.8966981055770185,-2.737413717098656
2,54,0.16325944526263822,-1.0502422027167497,-0.2325803145183952,-2.7661912211061304,-2.712669954857529,2.9091820013795338,-2.7705824005952358
2,55,0.1644422445644049,-1.0521609728331127,-0.23426533698784244,-2.769161608799604,-2.7323229931449453,2.9188784795149734,-2.79634514480535
2,56,0.16562922956010515,-1.0540865330992704,-0.23595632242016742,-2.772142508110501,-2.7520455796668024,2.9286092715781002,-2.822199058296669
2,57,0.16639853558649775,-1.0553345228567679,-0.23705228006777213,-2.7740744818188876,-2.7648281377633883,2.9349159704857137,-2.8389554381386666
2,58,0.16701285169441646,-1.0563310836326443,-0.23792743821475468,-2.7756172262254313,-2.775035429880884,2.939952076526515,-2.852335957326346
2,59,0.1676292495925008,-1.057331021546766,-0.23880556209159565,-2.7771651986735195,-2.7852773123991104,2.9450052488885365,-2.8657618203246407
2,60,0.16824693469490226,-1.0583330475997406,-0.23968551972687208,-2.7787164037037173,-2.795540582718031,2.950068973631252,-2.8792157201297877
2,61,0.16886044995369898,-1.0593283092157675,-0.24055953697973745,-2.7802571369217417,-2.805734568166819,2.9550985143857957,-2.8925787958923226
2,62,0.16907720621844582,-1.0596799372922379,-0.24086832916108755,-2.7808014812921904,-2.8093361252219715,2.956875461986879,-2.897299999393434
2,63,0.16907720621844582,-1.0596799372922379,-0.24086832916108755,-2.7808014812921904,-2.8093361252219715,2.956875461986879,-2.897299999393434
2,64,0.16907720621844582,-1.0596799372922379,-0.24086832916108755,-2.7808014812921904,-2.8093361252219715,2.956875461986879,-2.897299999393434
2,65,0.16907720621844582,-1.0596799372922379,-0.24086832916108755,-2.7808014812921904,-2.8093361252219715,2.956875461986879,-2.897299999393434
2,66,0.16907720621844582,-1.0596799372922379,-0.24086832916108755,-2.7808014812921904,-2.8093361252219715,2.956875461986879,-2.897299999393434
2,67,0.16907720621844582,-1.0596799372922379,-0.24086832916108755,-2.7808014812921904,-2.8093361252219715,2.956875461986879,-2.897299999393434
2,68,0.16907720621844582,-1.0596799372922379,-0.24086832916108755,-2.7808014812921904,-2.8093361252219715,2.956875461986879,-2.897299999393434
2,69,0.16907720621844582,-1.0596799372922379,-0.24086832916108755,-2.7808014812921904,-2.8093361252219715,2.956875461986879,-2.897299999393434
2,70,0.16907720621844582,-1.0596799372922379,-0.24086832916108755,-2.7808014812921904,-2.8093361252219715,2.956875461986879,-2.897299999393434
2,71,0.16907720621844582,-1.0596799372922379,-0.24086832916108755,-2.7808014812921904,-2.8093361252219715,2.956875461986879,-2.897299999393434
2,72,0.16907720621844582,-1.0596799372922379,-0.24086832916108755,-2.7808014812921904,-2.8093361252219715,2.956875461986879,-2.897299999393434
2,73,0.16907720621844582,-1.0596799372922379,-0.24086832916108755,-2.7808014812921904,-2.8093361252219715,2.956875461986879,-2.897299999393434
2,74,0.16907720621844582,-1.0596799372922379,-0.24086832916108755,-2.7808014812921904,-2.8093361252219715,2.956875461986879,-2.897299999393434
2,75,0.16907720621844582,-1.0596799372922379,-0.24086832916108755,-2.7808014812921904,-2.8093361252219715,2.956875461986879,-2.897299999393434
2,76,0.16907720621844582,-1.0596799372922379,-0.24086832916108755,-2.7808014812921904,-2.8093361252219715,2.956875461986879,-2.897299999393434
2,77,0.169079883266405,-1.059675445574359,-0.24086994453717592,-2.7807993728094114,-2.8093367728720686,2.956872490067628,-2.89729999939341
2,78,0.17298925486767736,-1.0531160582993757,-0.2432289255872971,-2.777720293606177,-2.810282555291981,2.952532509275682,-2.897299999358232
2,79,0.17689922000297384,-1.0465556751560223,-0.2455882647859031,-2.77464074692672,-2.8112284813037802,2.948191869573167,-2.8972999993230486
2,80,0.18079190242470916,-1.0400242900264094,-0.24793717530237197,-2.771574812369447,-2.812170226161082,2.943870416239342,-2.8972999992880206
2,81,0.18469260522220257,-1.0334794478105807,-0.2502909254494408,-2.768502560844969,-2.813113911363576,2.939540059101969,-2.8972999992529207
2,82,0.18860309460101987,-1.0269181850587812,-0.2526505809854681,-2.7654226012635195,-2.8140599642040214,2.9351988374115945,-2.8972999992177324
2,83,0.1924969616328633,-1.020384812316513,-0.2550002063157439,-2.762355733689711,-2.815001995650455,2.93087606898531,-2.897299999182694
2,84,0.19889143995503736,-1.0099243818395083,-0.25900757599327046,-2.7572163063970248,-2.8165266162690887,2.924165818693794,-2.89729999912309
2,85,0.20885837598150808,-0.9938571521700025,-0.26538520995477044,-2.749114597001848,-2.8188832495618223,2.914049834577854,-2.8972999990283634
2,86,0.21880343743805286,-0.9778251854677706,-0.2717488468363572,-2.7410306685383654,-2.8212347107194473,2.9039560521497068,-2.897299998933845
2,87,0.23146064956322207,-0.9581687397920194,-0.2801958116883,-2.7305391009035893,-2.824146521845019,2.892101132740218,-2.8972999988185233
2,88,0.2448180026876949,-0.9375875918416249,-0.28918568492518415,-2.71942302643674,-2.8272018013041578,2.879806106702857,-2.897299998697904
2,89,0.2605250375766167,-0.914359197467002,-0.3001442115136836,-2.7061792584687843,-2.8306713725037493,2.8665403385539054,-2.897299998832683
2,90,0.27715859256938197,-0.8899129558056003,-0.3118527786563955,-2.691955345356864,-2.834446379713386,2.852892458204662,-2.897061863295815
2,91,0.2951005456926566,-0.8630006181190256,-0.3245775376020238,-2.675463792820972,-2.8394562217775587,2.839053536732544,-2.8950809660612578
2,92,0.31011122439751126,-0.8372882281823851,-0.33482577116303675,-2.659279075538707,-2.8458017846752215,2.8272189877025347,-2.8898410153169753
2,93,0.32351614948010166,-0.812278651971465,-0.34373952619970916,-2.6432617771891334,-2.8528468657272965,2.816531241111149,-2.8828495620676007
2,94,0.33506192211194696,-0.7905179660184256,-0.3516741779021696,-2.6287049604582826,-2.8590363317832987,2.8080864263966197,-2.8762857273713576
2,95,0.3460642924792116,-0.7697334653860861,-0.35928468752694354,-2.6146800543611213,-2.8649584226681992,2.8001903060042848,-2.8699156320393304
2,96,0.35541063999496764,-0.7519126434021687,-0.3659189353158786,-2.602240216090425,-2.8700712987873964,2.7940018087016365,-2.864108942018972
2,97,0.36464337821144555,-0.7343018226761565,-0.37247838423298885,-2.589932572078948,-2.875125076418183,2.7879068702971646,-2.858357690150879
2,98,0.3712109518363376,-0.7216154273293105,-0.3772848907783086,-2.5807203271192876,-2.8787933830782966,2.784012277620294,-2.8539023842290083
2,99,0.37779323345632093,-0.7089006209662895,-0.3821021614320667,-2.5714874514577293,-2.882469904863117,2.7801089630541465,-2.8494371007078945
2,100,0.3843685670007383,-0.6961992360034025,-0.386914347107324,-2.5622643217659564,-2.886142545812589,2.7762097687195735,-2.8449765306173385
2,101,0.3875107732906205,-0.6900384197456835,-0.3892819780645469,-2.5576253666761906,-2.8879373468077625,2.7745615298804167,-2.8426495863286707
2,102,0.39065457865508496,-0.6838740847244988,-0.39165110013679655,-2.5529830766185846,-2.8897332284136907,2.772913357720132,-2.840320635576881
2,103,0.3938059307383121,-0.6776949521896737,-0.3940259092971198,-2.548329642723044,-2.891533421041403,2.7712612291152445,-2.837986094168451
2,104,0.3969420945996859,-0.6715456005340782,-0.3963892728533233,-2.543698636466345,-2.8933249374805188,2.7696170630912174,-2.8356628042901266
2,105,0.400092480542957,-0.6653683623946357,-0.39876335394583395,-2.5390466292182565,-2.8951245782060697,2.7679654409950967,-2.833328978604242
2,106,0.40323938191253056,-0.6591979567645846,-0.4011348091186384,-2.5343997674546856,-2.89692222838797,2.7663156457224254,-2.8309977343124295
2,107,0.40389894200690135,-0.657904699416575,-0.40163184318926226,-2.5334258301673778,-2.8972989984815873,2.7659698645879236,-2.830509128053595
2,108,0.40389894200690135,-0.657904699416575,-0.40163184318926226,-2.5334258301673778,-2.8972989984815873,2.7659698645879236,-2.830509128053595
2,109,0.40389894200690135,-0.657904699416575,-0.40163184318926226,-2.5334258301673778,-2.8972989984815873,2.7659698645879236,-2.830509128053595
2,110,0.40389894200690135,-0.657904699416575,-0.40163184318926226,-2.5334258301673778,-2.8972989984815873,2.7659698645879236,-2.830509128053595
2,111,0.40389894200690135,-0.657904699416575,-0.40163184318926226,-2.5334258301673778,-2.8972989984815873,2.7659698645879236,-2.830509128053595
2,112,0.40389894200690135,-0.657904699416575,-0.40163184318926226,-2.5334258301673778,-2.8972989984815873,2.7659698645879236,-2.830509128053595
2,113,0.40389894200690135,-0.657904699416575,-0.40163184318926226,-2.5334258301673778,-2.8972989984815873,2.7659698645879236,-2.830509128053595
2,114,0.40389894200690135,-0.657904699416575,-0.40163184318926226,-2.5334258301673778,-2.8972989984815873,2.7659698645879236,-2.830509128053595
2,115,0.40389894200690135,-0.657904699416575,-0.40163184318926226,-2.5334258301673778,-2.8972989984815873,2.7659698645879236,-2.830509128053595
2,116,0.40389894200690135,-0.657904699416575,-0.40163184318926226,-2.5334258301673778,-2.8972989984815873,2.7659698645879236,-2.830509128053595
2,117,0.40389894200690135,-0.657904699416575,-0.40163184318926226,-2.5334258301673778,-2.8972989984815873,2.7659698645879236,-2.830509128053595
2,118,0.40389894200690135,-0.657904699416575,-0.40163184318926226,-2.5334258301673778,-2.8972989984815873,2.7659698645879236,-2.830509128053595
2,119,0.40389894200690135,-0.657904699416575,-0.40163184318926226,-2.5334258301673778,-2.8972989984815873,2.7659698645879236,-2.830509128053595
2,120,0.40389894200690135,-0.657904699416575,-0.40163184318926226,-2.5334258301673778,-2.8972989984815873,2.7659698645879236,-2.830509128053595
2,121,0.40389894200690135,-0.657904699416575,-0.40163184318926226,-2.5334258301673778,-2.8972989984815873,2.7659698645879236,-2.830509128053595
2,122,0.4038975077321124,-0.6579049747733603,-0.40163030162761754,-2.5334225210105004,-2.8972963864294594,2.765973718038675,-2.830511114899594
2,123,0.40023049556067236,-0.6586089798153635,-0.3976889890158811,-2.524961995425813,-2.89061814944152,2.775825840460749,-2.835590886584298
2,124,0.39658478815427417,-0.6593088946985926,-0.39377057481168304,-2.516550624166578,-2.883978711962082,2.7856207235982087,-2.840641145592973
2,125,0.3929270765295959,-0.6600111141910782,-0.3898392584477186,-2.5081115567909587,-2.8773174128114034,2.7954478583406663,-2.845708033586027
2,126,0.3892828258564599,-0.6607107494058705,-0.3859224099435809,-2.499703546504761,-2.8706806282846964,2.8052388276884344,-2.850756274637839
2,127,0.3850660160106499,-0.6613353211907591,-0.3814789607280208,-2.490118849985069,-2.863142343566744,2.816268421334486,-2.8564433519714503
2,128,0.3756332637740236,-0.6612267938318718,-0.37226189814368904,-2.4698531369208765,-2.847429127767957,2.8385018956932364,-2.8679090396759825
2,129,0.3661924445807346,-0.6611181736596168,-0.36303695306201594,-2.449570092475034,-2.8317024739154926,2.860754384277063,-2.879384532918019
2,130,0.3534153411260995,-0.6589468655788484,-0.3515220953589833,-2.4281264918228147,-2.817279596719746,2.8833508943003534,-2.887712381477508
2,131,0.34052032629553874,-0.6566947691458007,-0.33993008763290694,-2.406665284532924,-2.802929536227497,2.9059302587124547,-2.8959009161070077
2,132,0.32196829190514525,-0.6522421901064243,-0.32385125669594533,-2.3832545848607425,-2.7922970741305346,2.930026903364155,-2.8972999995209103
2,133,0.3021882894352245,-0.6473206771195278,-0.3067941650161511,-2.3593669920328675,-2.782399543244868,2.954513260491873,-2.897299998941272
2,134,0.2791698376940524,-0.6408545753902638,-0.2878470315125512,-2.33093025250119,-2.7711917198905494,2.98261652447409,-2.897299998400615
2,135,0.25491925886671246,-0.6338045465779331,-0.2681792514211887,-2.3007743393225835,-2.759485168723336,3.0120869938925154,-2.897299997915973
2,136,0.22724244849879116,-0.6248285601986246,-0.2469498641419986,-2.2657800316921635,-2.746551715541507,3.0449353349768717,-2.8972999986544705
2,137,0.19784787254120373,-0.6148516304032611,-0.22504640171664533,-2.2284913616523165,-2.7330477270329716,3.0792423354444027,-2.8972999987768535
2,138,0.16649347671799808,-0.6037260663035379,-0.20239868138567438,-2.1886170616558296,-2.718903435576563,3.115158503772185,-2.897299998352754
2,139,0.13205201417829093,-0.5908305499944222,-0.17867413913893596,-2.145021495615463,-2.7038019059272935,3.153194583764355,-2.897299998800041
2,140,0.09661119123728472,-0.5772046310882502,-0.15508663711591136,-2.1007230660498997,-2.6885989763278135,3.1909542800788038,-2.8972999993119113
2,141,0.06178098808373743,-0.5636330314539699,-0.13249442859814703,-2.0578178827974765,-2.6739158055145773,3.2268784089355367,-2.8972999997314046
2,142,0.02879496488365879,-0.5506734845944018,-0.11164942315414723,-2.0179674676407418,-2.6602661367030627,3.259622286865271,-2.8972999999487516
2,143,-0.0017201764382718532,-0.5387791538465954,-0.09281121870240631,-1.9822728944412726,-2.6478945968131224,3.288413809517762,-2.8973
2,144,-0.03139541035104587,-0.5272436274449807,-0.07463967582929584,-1.9479502522461132,-2.6359486261989162,3.3159140113622545,-2.8973
2,145,-0.056785502678725785,-0.5175921655231839,-0.05924348182310609,-1.9196995906267749,-2.6266069044151408,3.3380794489898253,-2.8965848457697607
2,146,-0.08129859131750794,-0.5083310754827962,-0.044418606298421634,-1.8927160399235141,-2.6178174078784644,3.3591232308998347,-2.8957076810305358
2,147,-0.102977809309498,-0.5001505176287389,-0.0312856990693097,-1.8688946326845715,-2.6102821476053375,3.3776278426044004,-2.8946984331517642
2,148,-0.11351477285356014,-0.4962196887143613,-0.024802473479629716,-1.857511695211106,-2.607709044209036,3.3861351782646083,-2.893139723533993
2,149,-0.12407165687420733,-0.49228142843847034,-0.01830699113846579,-1.8461072379194818,-2.605131076276026,3.3946585973230463,-2.8915780671243567
2,150,-0.13458820490913237,-0.4883582155581886,-0.011836326885902578,-1.834746355041064,-2.6025629583022973,3.403149449905546,-2.8900223775275156
2,151,-0.1451439850640888,-0.48442036708092984,-0.005341523735690013,-1.8233430902404348,-2.5999852599308686,3.4116719777246898,-2.88846088441028
2,152,-0.15568516049430894,-0.4804879669165594,0.001144293360357651,-1.8119556027240105,-2.5974111280012018,3.420182713978357,-2.8869015517375423
2,153,-0.16619782287142443,-0.4765662035863311,0.007612566829652209,-1.8005989174685324,-2.594843958896591,3.4286704293577044,-2.8853464369374318
2,154,-0.17090260181433867,-0.47481107925404814,0.0105073422655678,-1.7955164091814226,-2.593695062193453,3.4324689746888213,-2.8846504694362496
2,155,-0.17089971440218069,-0.47481129213125617,0.010506982229773441,-1.7955170736186783,-2.5936952862150315,3.4324684381926227,-2.8846504881601778
2,156,-0.15690766734055583,-0.47584286911085155,0.008762292693641592,-1.798736855500338,-2.5947808674541273,3.4298686430643768,-2.884741222030885
2,157,-0.14300642500376998,-0.4768677514257299,0.0070289257361546105,-1.801935741839943,-2.5958594035549902,3.4272857199263567,-2.884831367062509
2,158,-0.1290874349019211,-0.47789394221147014,0.005293345782966652,-1.805138712209007,-2.5969393166266928,3.424699499161267,-2.8849216271826124
2,159,-0.11512487120166272,-0.4789233455022026,0.003552332571809951,-1.8083517095228103,-2.5980226103817756,3.4221051821949304,-2.885012169863318
2,160,-0.1012089206129885,-0.47994931219694276,0.0018171316201224495,-1.8115539804538716,-2.5991022876310526,3.4195195261872,-2.8851024102731686
2,161,-0.0873045184193664,-0.4809744274752722,8.337065530161433e-05,-1.814753593924378,-2.6001810688912754,3.416936015931342,-2.8851925757954358
2,162,-0.0732634274701607,-0.4820096202621326,-0.0016674342374393628,-1.8179846615471404,-2.601270455229369,3.4143271081936666,-2.8852836276997897
2,163,-0.03889201088808295,-0.4845436856455603,-0.0059532582193532685,-1.825894044918318,-2.6039371818947603,3.4079407201985843,-2.8855065151482417
2,164,-0.004646023396457824,-0.4870685036499795,-0.01022344225804261,-1.8337745651566677,-2.6065941770700536,3.4015776375809685,-2.88572858922987
2,165,0.03135450823859152,-0.48972267709038814,-0.014712403062864284,-1.8420588325678715,-2.6093872995894647,3.3948885515346707,-2.8859620409591544
2,166,0.07542800669091905,-0.4929720376888347,-0.020207994324945817,-1.8522008118760571,-2.6128067680096634,3.3866994662595533,-2.8862478432504544
2,167,0.11942959108468336,-0.4962160963549052,-0.025694618514166358,-1.8623262426705207,-2.6162206569351354,3.3785237429906014,-2.886533179202493
2,168,0.17080746845052508,-0.5000039792370632,-0.03210100384392239,-1.8741490701618868,-2.620206839909454,3.368977466117244,-2.8868663480134322
2,169,0.2229779425904715,-0.5038502970703521,-0.038606219265662954,-1.8861542861716367,-2.624254516972833,3.359283920640307,-2.887204656556457
2,170,0.28170546216465614,-0.5081800393156894,-0.04592904261186744,-1.8996683776156524,-2.6288109262807473,3.348372042013079,-2.887585485404769
2,171,0.34295597278981255,-0.5126957914762627,-0.053566461532757875,-1.913763047500959,-2.633563083340172,3.336991378524419,-2.8879826750287987
2,172,0.40726991007328617,-0.5174373976813141,-0.06158586376259044,-1.9285626582435116,-2.638552918167044,3.3250415144272316,-2.8883997299775457
2,173,0.4761686413098466,-0.522517022181856,-0.07017695089314131,-1.9444172994927706,-2.6438984669418937,3.312239771764259,-2.8888465158227032
2,174,0.5472143760713484,-0.5277549365596178,-0.07903575114440324,-1.9607659987607757,-2.649410592253878,3.2990391046780143,-2.889307224286859
2,175,0.6198960838541746,-0.5331134646046011,-0.0880985433490318,-1.9774911601911611,-2.655049645499409,3.2855344652943597,-2.88977854150354
2,176,0.6922078706064302,-0.538444719869717,-0.09711520954019079,-1.994131197191459,-2.6606599982031987,3.2720985591624503,-2.890247459902749
2,177,0.7648425308709256,-0.5437997792916572,-0.10617213531851509,-2.0108455322755328,-2.6662954012392195,3.258602661452435,-2.8907184720315873
2,178,0.8372370997363454,-0.5491371377468129,-0.11519912373672064,-2.027504618693469,-2.671912176642175,3.245151373973281,-2.891187927245854
2,179,0.9097987910784723,-0.5544868174655395,-0.12424695090961871,-2.0442021625236872,-2.677541918341237,3.2316690342686134,-2.8916584661949827
2,180,0.9823597654020312,-0.5598364443213902,-0.13329468867638575,-2.0608995413570765,-2.68317160440999,3.218186827789725,-2.8921290004944793
2,181,1.0549099747112562,-0.565185277516319,-0.14234108413721416,-2.0775944429976754,-2.6888004552687446,3.204706621506498,-2.8925994649863624
2,182,1.1260632398514,-0.5704311196735348,-0.15121329251422114,-2.093967886633917,-2.694320923388695,3.1914859747165467,-2.8930608707500216
2,183,1.1956402846913468,-0.5755607534897342,-0.15988895959514182,-2.109978618113623,-2.699719099525275,3.1785581978575963,-2.8935120552381024
2,184,1.2601815985014004,-0.5803191232455005,-0.16793671374838767,-2.1248305516376362,-2.704726575494317,3.1665660860189964,-2.893930584649612
2,185,1.321645815126491,-0.5848506310842072,-0.17560077999402274,-2.138974398509238,-2.709495313060024,3.1551457148438877,-2.8943291600874894
2,186,1.3805378814803977,-0.5891925046974053,-0.18294412092736234,-2.1525263546586615,-2.714064488827073,3.1442032625690435,-2.894711055968107
2,187,1.4332125498598662,-0.5930759947306192,-0.18951220509232525,-2.1646475933969014,-2.7181512840984507,3.134416035179673,-2.895052634046657
2,188,1.4849926738039771,-0.5968935336243983,-0.19596874715704365,-2.176562983916319,-2.72216867561123,3.1247950187996563,-2.895388411295723
2,189,1.5294285260721143,-0.6001696091026056,-0.2015095208651273,-2.186788346323901,-2.725616257466341,3.1165386063006597,-2.8956765633335704
2,190,1.5734956216523264,-0.6034184976432148,-0.20700431374338893,-2.1969288522342674,-2.7290352291159237,3.1083507107124877,-2.895962324104329
2,191,1.609988383507414,-0.6061089612248312,-0.2115546514797265,-2.205326389271931,-2.731866541607812,3.101570165730811,-2.8961989677863667
2,192,1.644157262733465,-0.6086280943490215,-0.21581522077201715,-2.2131891657308804,-2.7345175542927582,3.095221410230043,-2.8964205418459916
2,193,1.678092118682879,-0.6111299738845264,-0.2200466093475648,-2.2209980898905424,-2.7371504101435034,3.088916137471422,-2.8966405983408436
2,194,1.6944445863978317,-0.6123355751221456,-0.2220856233093216,-2.2247610403035263,-2.7384191260137465,3.0858777639072903,-2.896746638771158
2,195,1.7083980415872044,-0.6133643068792486,-0.22382550076646304,-2.2279719416110635,-2.7395017130796298,3.083285139349657,-2.8968371223861356
2,196,1.7223334966241128,-0.6143917115579884,-0.22556313375733625,-2.2311787008109794,-2.740582903593048,3.0806958593139857,-2.8969274892759835
2,197,1.7362290376799314,-0.6154161735405042,-0.22729578981346604,-2.234376275199511,-2.7416609973566586,3.0781139955036263,-2.8970175973366565
2,198,1.7501589698620652,-0.616443171041522,-0.22903273415121422,-2.2375817635069217,-2.7427417593761256,3.075525741643101,-2.8971079284125887
2,199,1.7641167478124762,-0.6174722214982946,-0.23077315061997544,-2.2407936595472244,-2.7438246818259784,3.072932313893981,-2.8971984400592645
2,200,1.778017899473656,-0.6184970971280277,-0.2325065062709838,-2.2439925250209996,-2.7449032108917213,3.0703494076039597,-2.897288584502887
2,201,1.779778195209625,-0.6186268808828327,-0.23272601062329043,-2.2443976131080445,-2.745039790828378,3.070022318935832,-2.897299999340997
2,202,1.7851482293752023,-0.6204180188465473,-0.23679182739326,-2.2513045814492636,-2.7475284104463618,3.063621444605442,-2.897299999480868
2,203,1.790971601742194,-0.6223603646495268,-0.2412008803522268,-2.2587946359512943,-2.7502271192941032,3.056680208562827,-2.897299999632547
2,204,1.7968265433408293,-0.6243132401526048,-0.24563383534002142,-2.2663252949777646,-2.75294045818083,3.049701343209443,-2.8972999997850484
2,205,1.8026603704840698,-0.6262590730742998,-0.2500508039291852,-2.273828796472187,-2.7556440120557113,3.0427476454753637,-2.8972999999369993
2,206,1.8132709688116722,-0.6296357123183698,-0.25829881199449584,-2.2873936353692623,-2.7606372131183377,3.029937275873963,-2.8972999999107896
2,207,1.8273412467994832,-0.6340497281536153,-0.26932010219066466,-2.305349079839749,-2.7672882336161453,3.0128861727283764,-2.897299999757562
2,208,1.8447009624537996,-0.6391648848094379,-0.2833292836412358,-2.327281617764219,-2.7756341437152092,2.991601046321209,-2.897299999619425
2,209,1.8643798451893667,-0.6446568626389952,-0.29958025599752214,-2.3519040229065418,-2.785220524543589,2.967285184573665,-2.8972999996778457
2,210,1.8862353389850228,-0.6502983598319375,-0.3181698480161097,-2.3788522653724486,-2.796049440834579,2.94004787160906,-2.897299999823384
2,211,1.9078838673452954,-0.655378221095077,-0.3371685172443018,-2.4050528535734785,-2.806970539365357,2.9128750570343134,-2.8972999997802615
2,212,1.9275479428291866,-0.6595584854447939,-0.3549150039262564,-2.4283945405790717,-2.81705149880274,2.888072980013332,-2.8973
2,213,1.94424803959942,-0.6626424525257402,-0.37050081563974074,-2.4476810330089505,-2.8257791267049983,2.8669352106838564,-2.8973
2,214,1.958532878153586,-0.6650559232481267,-0.3840747505771972,-2.4638972257837333,-2.8333203075844153,2.8488461853061926,-2.8973
2,215,1.9711774237293371,-0.6670136003378577,-0.3962828126902074,-2.4780277186521475,-2.8400558741460893,2.832827660885872,-2.8973
2,216,1.979689141600741,-0.6676127017656331,-0.4047730314847735,-2.4906200575128157,-2.848445869595644,2.818500758480761,-2.8932309282224784
2,217,1.9863124928679328,-0.6675858513211819,-0.41156646551386905,-2.5025318422309386,-2.857619665976974,2.8049211826469778,-2.8872732197248054
2,218,1.9908379702819854,-0.6672891829529382,-0.41632510855587446,-2.5112559477903917,-2.864581894851841,2.7948524876853567,-2.8824588660870383
2,219,1.993746680081081,-0.6667772535318167,-0.41951867623274225,-2.5175387993994076,-2.869857993277486,2.7874687350076437,-2.878506100535221
2,220,1.9966489513452583,-0.6662664572850858,-0.4227051748314199,-2.523807743687904,-2.8751224128673956,2.780101326535001,-2.8745620845736988
2,221,1.9995448397097273,-0.6657567844210154,-0.42588466543562553,-2.5300629008286712,-2.8803752545380803,2.772750121037583,-2.870626742597493
2,222,2.0005081569358283,-0.6655872417495301,-0.4269423229430203,-2.5321436787687337,-2.88212261225029,2.7703047426261915,-2.8693176511412095
2,223,2.0005081569358283,-0.6655872417495301,-0.4269423229430203,-2.5321436787687337,-2.88212261225029,2.7703047426261915,-2.8693176511412095
2,224,2.0005081569358283,-0.6655872417495301,-0.4269423229430203,-2.5321436787687337,-2.88212261225029,2.7703047426261915,-2.8693176511412095
2,225,2.0005081569358283,-0.6655872417495301,-0.4269423229430203,-2.5321436787687337,-2.88212261225029,2.7703047426261915,-2.8693176511412095
2,226,2.0005081569358283,-0.6655872417495301,-0.4269423229430203,-2.5321436787687337,-2.88212261225029,2.7703047426261915,-2.8693176511412095
2,227,2.0005081569358283,-0.6655872417495301,-0.4269423229430203,-2.5321436787687337,-2.88212261225029,2.7703047426261915,-2.8693176511412095
2,228,2.0005081569358283,-0.6655872417495301,-0.4269423229430203,-2.5321436787687337,-2.88212261225029,2.7703047426261915,-2.8693176511412095
2,229,2.0005081569358283,-0.6655872417495301,-0.4269423229430203,-2.5321436787687337,-2.88212261225029,2.7703047426261915,-2.8693176511412095
2,230,2.0005081569358283,-0.6655872417495301,-0.4269423229430203,-2.5321436787687337,-2.88212261225029,2.7703047426261915,-2.8693176511412095
2,231,2.0005081569358283,-0.6655872417495301,-0.4269423229430203,-2.5321436787687337,-2.88212261225029,2.7703047426261915,-2.8693176511412095
2,232,2.0005081569358283,-0.6655872417495301,-0.4269423229430203,-2.5321436787687337,-2.88212261225029,2.7703047426261915,-2.8693176511412095
2,233,2.0005081569358283,-0.6655872417495301,-0.4269423229430203,-2.5321436787687337,-2.88212261225029,2.7703047426261915,-2.8693176511412095
2,234,2.0005081569358283,-0.6655872417495301,-0.4269423229430203,-2.5321436787687337,-2.88212261225029,2.7703047426261915,-2.8693176511412095
2,235,2.0005081569358283,-0.6655872417495301,-0.4269423229430203,-2.5321436787687337,-2.88212261225029,2.7703047426261915,-2.8693176511412095
2,236,2.0005081569358283,-0.6655872417495301,-0.4269423229430203,-2.5321436787687337,-2.88212261225029,2.7703047426261915,-2.8693176511412095
2,237,2.0005051258735977,-0.6655927594835065,-0.426940064083315,-2.532147833044649,-2.88212089729821,2.7703062749574965,-2.869319801596468
2,238,1.99613346854909,-0.6735509075909433,-0.42368214331986453,-2.5381394852619175,-2.879647446655828,2.772516334290808,-2.872421372190002
2,239,1.991780077084091,-0.6814758045982846,-0.4204378349506478,-2.5441061028825778,-2.8771843306985736,2.7747171594526616,-2.8755099836587665
2,240,1.9874150616882704,-0.6894218617643942,-0.41718486399816684,-2.550088651887084,-2.8747146380091966,2.7769238610075844,-2.8786068419866377
2,241,1.9830558623759742,-0.6973573313545218,-0.41393622740628855,-2.5560632295555146,-2.8722482360158783,2.7791276222840904,-2.8816995739632674
2,242,1.9787060651742445,-0.7052756853788908,-0.41069459761502647,-2.5620249209951207,-2.869787153665591,2.78132663039248,-2.884785635401132
2,243,1.974339647005177,-0.713224296148001,-0.4074405812640276,-2.5680093925952954,-2.8673166672977226,2.783534041109141,-2.887883488958027
2,244,1.9699845268476668,-0.7211523400605124,-0.40419498460920017,-2.5739783795060327,-2.8648525732593235,2.7857357401988296,-2.8909733268865665
2,245,1.965633553695764,-0.7290728347800342,-0.400952478456366,-2.579941682664934,-2.8623908255653245,2.787935342800214,-2.894060222628725
2,246,1.9518976655186389,-0.7460162177900008,-0.3901293156082515,-2.5923153318231726,-2.859504345338553,2.794997915819219,-2.895003941983431
2,247,1.9379308408030114,-0.7631868242819839,-0.3791199920769878,-2.6048508800869943,-2.856604265219893,2.8021800765855494,-2.8959005961722255
2,248,1.9240104154412963,-0.7803003880986464,-0.3681472427499019,-2.617344783857367,-2.8537138194917646,2.80933837741048,-2.8967942715755135
2,249,1.908300684720005,-0.8001629689413865,-0.35597187196951496,-2.6311868504316345,-2.8505870128776545,2.818342844171557,-2.897299993796047
2,250,1.8903732200510175,-0.8234599638931539,-0.3423162070412486,-2.646687127575733,-2.84717393943092,2.829681338753293,-2.89729999341687
2,251,1.8724874167418895,-0.8467028193160892,-0.3286922763030199,-2.6621513838637902,-2.843768797573159,2.8409934839815785,-2.897299993038574
2,252,1.8533362044798416,-0.8735721271012742,-0.31470584550324027,-2.6786742078857135,-2.8398329259813915,2.8551963118226054,-2.8972999933571595
2,253,1.833733886643647,-0.9017522736092006,-0.30059566221318235,-2.695574077298906,-2.835705216002843,2.8704486700373915,-2.897299993930764
2,254,1.8137887804607435,-0.9314741112223681,-0.28663546560577535,-2.71261538045329,-2.831371250325331,2.887218319028926,-2.897299994593282
2,255,1.7932578486999127,-0.9636613360113991,-0.27286753652413315,-2.7299232756913687,-2.8267064421589057,2.90637909176923,-2.8972999953950147
2,256,1.7725293353299245,-0.996795474371377,-0.2592803019672943,-2.747202217008087,-2.8219348990784074,2.9265929447363765,-2.897299996193542
2,257,1.751176729278415,-1.0327796224644894,-0.24619452822388266,-2.7644329597798807,-2.8168398991619212,2.94994092767882,-2.8972999969843607
2,258,1.7296043580983904,-1.069717801456152,-0.23336793090803878,-2.7815343719635,-2.811666200173919,2.974461921470974,-2.8972999977362925
2,259,1.7073936439459283,-1.1093669881132722,-0.22125357945947863,-2.798291714866665,-2.8062666123713917,3.002294029268579,-2.897299998380115
2,260,1.6857086614002121,-1.1487088969960828,-0.2100610269757885,-2.81410156971078,-2.801026650207074,3.0307121335995073,-2.897299998923589
2,261,1.6646685917460955,-1.187899326012449,-0.20022606421537717,-2.8285524001177005,-2.795993864142338,3.0602936817175603,-2.8972999993135673
2,262,1.6447451123996508,-1.2254137688518096,-0.1916262444828875,-2.8415881292469343,-2.791335547359862,3.089421661126189,-2.8972999996254325
2,263,1.6262222308502126,-1.2608496154087874,-0.1846175517817313,-2.8528108121377986,-2.7871532438569506,3.1180461662874497,-2.8972999998359494
2,264,1.6083167714496267,-1.2951811227756755,-0.17818966535247277,-2.8633430938640867,-2.783191815084493,3.146137417221125,-2.8973
2,265,1.5923950741428385,-1.325993159323837,-0.17375776448156305,-2.871538811599572,-2.7799705248588853,3.1726727728844772,-2.8973
2,266,1.576470362046048,-1.3568110301632772,-0.16932502442559788,-2.8797360812027644,-2.7767486246786106,3.199213153045119,-2.8973
2,267,1.5622970801819613,-1.3841859149916393,-0.1661821933643773,-2.8861722397905543,-2.7744179204393955,3.2236918397601118,-2.8969220999407446
2,268,1.5491059910472442,-1.409629527080612,-0.1637696936267917,-2.8916133237570945,-2.7725916489379467,3.2470217728837083,-2.8963289988968386
2,269,1.535918568566656,-1.4350660667493795,-0.16135786447842235,-2.8970528952956016,-2.770765885075092,3.2703452211147575,-2.895736062713951
2,270,1.5246745637518713,-1.4567285621041073,-0.1597513395667804,-2.9011977041854644,-2.7696411261089056,3.290705628757438,-2.894889612445233
2,271,1.515352190010316,-1.4746592899529265,-0.1589416548395541,-2.904061647313458,-2.7692100547586467,3.308136806986872,-2.8937920628975413
2,272,1.5060325269819077,-1.4925848039945049,-0.15813220554839766,-2.9069247576784125,-2.768779108753156,3.3255629166656013,-2.89269483248981
2,273,1.4967116577630388,-1.510512638032415,-0.1573226514948683,-2.9097882385992975,-2.768348106972799,3.342991281705624,-2.891597460073849
2,274,1.4878516247503113,-1.5275556144535574,-0.15659892965914357,-2.9124633729005063,-2.767982212232458,3.3596048772122193,-2.8905225696240353
2,275,1.483311850798341,-1.53630327649429,-0.15668202548607085,-2.9133705894648125,-2.7682287456851213,3.368582358045765,-2.8896569484742365
3,0,-1.0506640731246601e-06,-0.7853995022696704,1.389843884825639e-06,-2.35619647948746,1.260495576411258e-05,1.570802517397741,0.7853867675529913
3,1,-0.0008907522189441812,-0.7865332582704874,0.0011783086107747314,-2.357881013110053,0.010686472112047133,1.5760447152772221,0.7757367749513439
3,2,-0.0017783162066984765,-0.787664290347161,0.0023523997521070223,-2.35956149952866,0.021334694593082557,1.5812743184278917,0.766109967098278
3,3,-0.0026635646253442852,-0.7887923716698906,0.0035234278025355293,-2.361237601719773,0.03195513688544701,1.5864902780467458,0.7565082746613235
3,4,-0.003550693718845257,-0.7899228495562667,0.004696943655215635,-2.362917264722946,0.042598141882640134,1.59171731876317,0.7468861838128579
3,5,-0.004437336300176024,-0.7910527074750936,0.005869815937812829,-2.3645960065789056,0.05323531012901918,1.5969414929081542,0.7372693698337169
3,6,-0.006068605659531884,-0.7931314510886042,0.008027698558526728,-2.3676846019267446,0.07280586425759195,1.6065530719029975,0.7195760914946007
3,7,-0.008249386036440395,-0.7959104423416232,0.010912487663364072,-2.3718136245729116,0.09896897469918696,1.6194024169500572,0.6959226378305404
3,8,-0.010672039262256391,-0.7989976546968559,0.01411723203131389,-2.376400601849085,0.12803386568035222,1.6336768975706193,0.6696457525340211
3,9,-0.013496329455842462,-0.8025966772426703,0.017853271508570183,-2.381748026235394,0.16191724845301647,1.6503178576575126,0.6390125819794741
3,10,-0.01665250088908846,-0.8066186195248422,0.022028331528384775,-2.387723824376761,0.1997822543265935,1.668914290477099,0.6047797194947404
3,11,-0.020061748950801265,-0.8109630600027516,0.02653816744228778,-2.394178790040552,0.2406834539640515,1.6890018725004061,0.567801905538377
3,12,-0.023783871753565698,-0.8157062000369666,0.03146188164201984,-2.4012261431381687,0.28533825322630213,1.7109329393362374,0.5274305503210588
3,13,-0.02782913916794579,-0.8208611266310061,0.03681305936111704,-2.4088853283273974,0.33386986110799394,1.7347680019429008,0.483554263484502
3,14,-0.03215119187030334,-0.8263687636136745,0.042530375363367984,-2.417068570287443,0.385722098675573,1.7602339072088393,0.43667587333970215
3,15,-0.0367358912306575,-0.8322110939808468,0.048595126726571986,-2.425749099370159,0.44072534291628745,1.7872473491134007,0.3869487320685968
3,16,-0.04159643725533556,-0.838404938638705,0.05502477473882571,-2.434951908062469,0.4990379560508482,1.8158861032261555,0.3342296681068534
3,17,-0.04673149612257847,-0.8449485978842249,0.06181755498839882,-2.4446744709471853,0.5606439360433049,1.8461423105548849,0.278533148519339
3,18,-0.05210824696355581,-0.851800247740833,0.06893005123502438,-2.4548546459984046,0.6251495265919723,1.8778225877250814,0.22021515913035536
3,19,-0.05772854379488341,-0.8589622508013022,0.07636471601678929,-2.4654959435542962,0.692576970579258,1.910937858761682,0.15925559067233025
3,20,-0.06370389817301449,-0.8665767074088289,0.08426905952157213,-2.4768094961740026,0.7642640868877475,1.9461451593207184,0.09444495251452349
3,21,-0.06990076691139202,-0.874473442083446,0.0924664275875489,-2.4885424572860053,0.8386087402563156,1.9826576414917243,0.027231697517582677
3,22,-0.07633126879912192,-0.8826678979249173,0.10097285124248692,-2.5007177722337204,0.9157563213997518,2.020546710219656,-0.04251561864897894
3,23,-0.08297281740484767,-0.8911312928074304,0.10975845260790544,-2.5132926765611043,0.995435857915553,2.0596792843135074,-0.11455201620031691
3,24,-0.08979532776949414,-0.8998252891528403,0.11878343457123025,-2.526210208329833,1.0772864165730058,2.0998781006137346,-0.1885511838796885
3,25,-0.09683254266036799,-0.9087928857225953,0.12809243288236263,-2.5395342550600923,1.1617128138116735,2.1413419743997464,-0.26487910672228393
3,26,-0.10406778129562864,-0.9180128260218555,0.1376633817990466,-2.553233233871414,1.2485149280869163,2.183972621074069,-0.34335485953979755
3,27,-0.11132001598779165,-0.9272544245742658,0.14725681351147482,-2.5669643924953323,1.3355209463033888,2.2267034099735743,-0.42201495712153797
3,28,-0.1185724509656953,-0.936496278352891,0.15685051016673202,-2.5806959303341266,1.422529367374366,2.2694353789738435,-0.5006772270676008
3,29,-0.12571856211370236,-0.9456026425625532,0.16630355908445543,-2.5942261578960495,1.5082622074039815,2.311540878847954,-0.5781862741534093
3,30,-0.13261897113329202,-0.9543959059790544,0.1754315872753789,-2.607291180587648,1.5910473265215848,2.352198680705216,-0.6530303559950239
3,31,-0.1393578220313946,-0.9629832941908716,0.18434590246998284,-2.620050314089598,1.671894211500638,2.391904568252297,-0.7261221258747779
3,32,-0.14591671893178995,-0.9713413651404512,0.1930221701576234,-2.6324687282143615,1.7505821645825261,2.430550151408517,-0.7972620561325777
3,33,-0.15224461527917318,-0.9794050696682396,0.20139286471850765,-2.64444977298054,1.826498773495822,2.4678346594912712,-0.8658964792173947
3,34,-0.1583571215219399,-0.987194300331968,0.20947863603188527,-2.656023004732102,1.899831318853347,2.503850070601563,-0.9321947111326697
3,35,-0.16424106674883954,-0.9946922733016152,0.21726206129733186,-2.66716348606985,1.9704217874918726,2.53851878060051,-0.9960138958887413
3,36,-0.16989391647199484,-1.0018957588527597,0.22473978783289364,-2.677866418272209,2.03823977282532,2.571825856068131,-1.0573265436052879
3,37,-0.17529994845293528,-1.0087847219724078,0.2318910178807021,-2.688102033335314,2.1030966530805633,2.603678660226713,-1.1159621257673367
3,38,-0.18046201151152477,-1.0153627929415205,0.23871951992867654,-2.697875725127274,2.1650266059260717,2.634093978567263,-1.1719515416022288
3,39,-0.18534750246089396,-1.0215884251779253,0.24518216569152085,-2.707125763774534,2.223638486619421,2.6628797103160617,-1.2249411663350536
3,40,-0.1899811203076877,-1.027493092884229,0.25131162761347725,-2.7158989136183607,2.2792286124080925,2.69018138413893,-1.2751988934297322
3,41,-0.19434339497249906,-1.0330519851345172,0.2570821502019074,-2.724158310607865,2.331563398175848,2.715884280657867,-1.3225135440688267
3,42,-0.19855111487105667,-1.0384139266289754,0.26264822400195403,-2.7321250783456144,2.382043969983505,2.7406765272364026,-1.3681518434160391
3,43,-0.20277921982531283,-1.0438018450132103,0.26824126364743994,-2.7401304425222874,2.432769103998914,2.7655888843117338,-1.4140112457113105
3,44,-0.20673280081383538,-1.0488399346354131,0.2734711563416094,-2.747616031446289,2.4802007377103017,2.788883722632426,-1.4568930717353035
3,45,-0.2103328632331044,-1.053427531845754,0.27823340610954067,-2.754432279159343,2.5233911624175773,2.8100955992184202,-1.4959405203108536
3,46,-0.21364747261025574,-1.0576513732576693,0.2826180516791935,-2.76070805884187,2.5631569692468243,2.8296255619942294,-1.53189185229599
3,47,-0.2167695361218155,-1.0616298514583462,0.28674799291404884,-2.7666192780909524,2.6006127778754795,2.848021028013479,-1.5657547691622993
3,48,-0.21956838751994853,-1.0651964570809345,0.29045038133650836,-2.7719185374425663,2.634190968056544,2.864512100535435,-1.5961120222627603
3,49,-0.22216175021442527,-1.0685012062983101,0.2938809443244805,-2.7768287307883077,2.6653038830979447,2.879792415988724,-1.6242404780107285
3,50,-0.2243498250923453,-1.0712894930102945,0.2967753827719412,-2.7809715646188504,2.691554506632376,2.8926847408614624,-1.6479730502066248
3,51,-0.22635001938969676,-1.0738383615325608,0.29942128823663416,-2.7847586711234524,2.7155511020073035,2.9044700572371833,-1.669667808483288
3,52,-0.22723695119590787,-1.074968588013679,0.30059454311290856,-2.7864379605889247,2.726191740122802,2.9096959355199723,-1.679287759489604
3,53,-0.2281256501707811,-1.0761010664163142,0.3017701356426931,-2.7881205959573148,2.736853579194328,2.9149322261121053,-1.6889268777823232
3,54,-0.2290107542504025,-1.0772289638063148,0.302940972757964,-2.7897964248613483,2.7474722898323374,2.9201473352730463,-1.6985270046712464
3,55,-0.2298978359082164,-1.0783593812448984,0.3041144258615683,-2.791475998051247,2.758114725737323,2.9253740964943336,-1.708148581016813
3,56,-0.23078513340342416,-1.0794900737273316,0.30528816448010515,-2.7931559799010444,2.7687597510720523,2.9306021294480593,-1.7177724984049942
3,57,-0.23104218294144746,-1.0798176346432877,0.3056281958351856,-2.79364266960851,2.7718436083570293,2.932116687375681,-1.720560541346586
3,58,-0.23104218294144746,-1.0798176346432877,0.3056281958351856,-2.79364266960851,2.7718436083570293,2.932116687375681,-1.720560541346586
3,59,-0.23104218294144746,-1.0798176346432877,0.3056281958351856,-2.79364266960851,2.7718436083570293,2.932116687375681,-1.720560541346586
3,60,-0.23104218294144746,-1.0798176346432877,0.3056281958351856,-2.79364266960851,2.7718436083570293,2.932116687375681,-1.720560541346586
3,61,-0.23104218294144746,-1.0798176346432877,0.3056281958351856,-2.79364266960851,2.7718436083570293,2.932116687375681,-1.720560541346586
3,62,-0.23104218294144746,-1.0798176346432877,0.3056281958351856,-2.79364266960851,2.7718436083570293,2.932116687375681,-1.720560541346586
3,63,-0.23104218294144746,-1.0798176346432877,0.3056281958351856,-2.79364266960851,2.7718436083570293,2.932116687375681,-1.720560541346586
3,64,-0.23104218294144746,-1.0798176346432877,0.3056281958351856,-2.79364266960851,2.7718436083570293,2.932116687375681,-1.720560541346586
3,65,-0.23104218294144746,-1.0798176346432877,0.3056281958351856,-2.79364266960851,2.7718436083570293,2.932116687375681,-1.720560541346586
3,66,-0.23104218294144746,-1.0798176346432877,0.3056281958351856,-2.79364266960851,2.7718436083570293,2.932116687375681,-1.720560541346586
3,67,-0.23104218294144746,-1.0798176346432877,0.3056281958351856,-2.79364266960851,2.7718436083570293,2.932116687375681,-1.720560541346586
3,68,-0.23104218294144746,-1.0798176346432877,0.3056281958351856,-2.79364266960851,2.7718436083570293,2.932116687375681,-1.720560541346586
3,69,-0.23104218294144746,-1.0798176346432877,0.3056281958351856,-2.79364266960851,2.7718436083570293,2.932116687375681,-1.720560541346586
3,70,-0.23104218294144746,-1.0798176346432877,0.3056281958351856,-2.79364266960851,2.7718436083570293,2.932116687375681,-1.720560541346586
3,71,-0.23104218294144746,-1.0798176346432877,0.3056281958351856,-2.79364266960851,2.7718436083570293,2.932116687375681,-1.720560541346586
3,72,-0.2310473149445648,-1.0798095278966406,0.3056309792925454,-2.7936386529945674,2.7718460170830412,2.932111392976864,-1.7205621217366123
3,73,-0.2351895849629078,-1.0732662088815943,0.3078776326371896,-2.790396663632994,2.773790207940319,2.9278380461016904,-1.7218377254479453
3,74,-0.23932689540431487,-1.0667307242409194,0.31012159604369316,-2.7871585559342757,2.7757320710004976,2.9235698157429457,-1.7231118018675473
3,75,-0.24345846557857007,-1.0602043071885572,0.3123624460871521,-2.7839249409134745,2.7776712398435275,2.919307507294793,-1.7243841105834385
3,76,-0.24758387762179307,-1.0536876178013888,0.31459995612968905,-2.7806961456159662,2.7796075183433406,2.9150515518438826,-1.7256545229152782
3,77,-0.2517154320533272,-1.0471612256169482,0.31684079763472905,-2.777462542916364,2.7815466797974624,2.9107892596366094,-1.72692682678323
3,78,-0.25584702193697334,-1.0406347774307314,0.3190816583680196,-2.7742289124698094,2.7834858578911734,2.906526930855387,-1.7281991415685884
3,79,-0.26258221834443185,-1.0299181180838002,0.32286697834768546,-2.7686855228920053,2.786720817299474,2.8998465827906834,-1.7304467943296742
3,80,-0.27243662882072195,-1.014180345819807,0.3285044779394682,-2.760371131541824,2.791509207180404,2.890273131342092,-1.733865379085061
3,81,-0.2823075743807631,-0.9984161665593664,0.33415143690257726,-2.7520427891635575,2.7963056316797315,2.8806836162414053,-1.737289700011615
3,82,-0.2942590625284053,-0.9791720207002422,0.3412624383039386,-2.741362680774271,2.8022450614492977,2.869680957679094,-1.7418186014308052
3,83,-0.30682327713886054,-0.9589048494902987,0.3488014086900562,-2.7299969312189147,2.8085195685897943,2.858255025607718,-1.7466683366094222
3,84,-0.3209607166308239,-0.9359384006104807,0.35757079080329174,-2.7165510032540467,2.815698626582695,2.8460894086321344,-1.7525564096734252
3,85,-0.3356278736917831,-0.9120532434931279,0.36677199816250194,-2.7023629837827814,2.823188777344302,2.8337194751362977,-1.758822242907049
3,86,-0.3519875990140088,-0.8851912945238848,0.3774285257242968,-2.685592800733446,2.831684683316237,2.820942161673711,-1.766454252112892
3,87,-0.36788909037126055,-0.8589675383730783,0.3879868640131074,-2.6687920075068936,2.8400063812930325,2.8090738701741675,-1.7742304177689936
3,88,-0.3834471894701254,-0.833208721615827,0.39849477654161763,-2.6519101305231176,2.848204819913673,2.7979509628383132,-1.7821566201110448
3,89,-0.3970846555158989,-0.8104450248321234,0.40801326269010296,-2.636317378443332,2.8554820590758663,2.7890881795138083,-1.7897086345088236
3,90,-0.4101109812460477,-0.7886505733397314,0.41718258371855566,-2.6212179008654197,2.8624558775862097,2.7808529065970267,-1.7970896349797876
3,91,-0.42158630219847293,-0.7693296900681754,0.4254448706614811,-2.6074257728781696,2.868653521583766,2.7741480001477323,-1.803991424678479
3,92,-0.4321940886377735,-0.7514250322578272,0.4331420258253308,-2.594514763814182,2.874401346951062,2.7681301558400344,-1.810513347126807
3,93,-0.44094505221312646,-0.736550496214121,0.4396310621708711,-2.583485693788202,2.8791868642269653,2.7635872763719314,-1.8162257001631048
3,94,-0.44969504691496176,-0.7216776070226655,0.44611938007490315,-2.5724578448590507,2.8839718516685346,2.759044899874224,-1.8219374207493266
3,95,-0.4545086043345952,-0.7134455522307126,0.4497460989896444,-2.566232501089286,2.8866248877060583,2.7567200728890144,-1.8252302646920056
3,96,-0.45806918262160445,-0.7073272743175154,0.4524619851559118,-2.5615357465790147,2.8885993256326272,2.755101165890364,-1.8277532319746568
3,97,-0.461611532839572,-0.7012403183928348,0.4551639675805514,-2.556863036692561,2.8905636555969654,2.7534905467444624,-1.8302632831470274
3,98,-0.4651769246048998,-0.695113769295659,0.45788352530186494,-2.5521599327288635,2.8925407627287547,2.751869451176116,-1.8327896611813415
3,99,-0.46873379622026157,-0.6890018606981865,0.4605965841469955,-2.5474680676846773,2.894513145204638,2.7502522295095067,-1.8353100019773547
3,100,-0.4722788609733261,-0.6829102402839793,0.46330063712527086,-2.5427917770582615,2.8964789804528426,2.748640376131547,-1.837821976624702
3,101,-0.4737594364492538,-0.6803661107906777,0.46442996897225136,-2.540838751739388,2.8973,2.747967195033759,-1.8388710880847392
3,102,-0.4737594364492538,-0.6803661107906777,0.46442996897225136,-2.540838751739388,2.8973,2.747967195033759,-1.8388710880847392
3,103,-0.4737594364492538,-0.6803661107906777,0.46442996897225136,-2.540838751739388,2.8973,2.747967195033759,-1.8388710880847392
3,104,-0.4737594364492538,-0.6803661107906777,0.46442996897225136,-2.540838751739388,2.8973,2.747967195033759,-1.8388710880847392
3,105,-0.4737594364492538,-0.6803661107906777,0.46442996897225136,-2.540838751739388,2.8973,2.747967195033759,-1.8388710880847392
3,106,-0.4737594364492538,-0.6803661107906777,0.46442996897225136,-2.540838751739388,2.8973,2.747967195033759,-1.8388710880847392
3,107,-0.4737594364492538,-0.6803661107906777,0.46442996897225136,-2.540838751739388,2.8973,2.747967195033759,-1.8388710880847392
3,108,-0.4737594364492538,-0.6803661107906777,0.46442996897225136,-2.540838751739388,2.8973,2.747967195033759,-1.8388710880847392
3,109,-0.4737594364492538,-0.6803661107906777,0.46442996897225136,-2.540838751739388,2.8973,2.747967195033759,-1.8388710880847392
3,110,-0.4737594364492538,-0.6803661107906777,0.46442996897225136,-2.540838751739388,2.8973,2.747967195033759,-1.8388710880847392
3,111,-0.4737594364492538,-0.6803661107906777,0.46442996897225136,-2.540838751739388,2.8973,2.747967195033759,-1.8388710880847392
3,112,-0.4737594364492538,-0.6803661107906777,0.46442996897225136,-2.540838751739388,2.8973,2.747967195033759,-1.8388710880847392
3,113,-0.4737594364492538,-0.6803661107906777,0.46442996897225136,-2.540838751739388,2.8973,2.747967195033759,-1.8388710880847392
3,114,-0.4737594364492538,-0.6803661107906777,0.46442996897225136,-2.540838751739388,2.8973,2.747967195033759,-1.8388710880847392
3,115,-0.4737594364492538,-0.6803661107906777,0.46442996897225136,-2.540838751739388,2.8973,2.747967195033759,-1.8388710880847392
3,116,-0.47375733524911423,-0.6803663985677026,0.4644275160686684,-2.5408340562757776,2.8972959830198026,2.7479726414047647,-1.8388681610550626
3,117,-0.4700974906604808,-0.680867645054405,0.4601550787431612,-2.53265555544597,2.89029925626311,2.757459063511289,-1.833769896724385
3,118,-0.4664454424370728,-0.6813678237633414,0.45589174275542554,-2.524494476825746,2.883317434247823,2.766925277215616,-1.8286824929452348
3,119,-0.4627811363180393,-0.6818696812941425,0.45161409711886896,-2.5163060060015314,2.8763121781373915,2.776423263736855,-1.823578013579807
3,120,-0.45913845260797154,-0.6823685774542444,0.44736169309705726,-2.508165853865552,2.8693482587787513,2.785865204354111,-1.8185036548257065
3,121,-0.4554885452485947,-0.6828684629538524,0.4431008563158245,-2.500009559344169,2.8623705295713107,2.795325868877488,-1.8134192333291268
3,122,-0.44587300057665197,-0.6822941041883978,0.4329408433147248,-2.4797753889004444,2.845436875476265,2.817445555226044,-1.8015379832681726
3,123,-0.43626426412615976,-0.6817172587593696,0.42278965330618823,-2.459557462424094,2.828517427719385,2.8395452901354883,-1.789667460983336
3,124,-0.42323629480778374,-0.679209065696663,0.4102321048356354,-2.4339036272203307,2.8073854467150428,2.8663461702998005,-1.7753291016645776
3,125,-0.4089576370597375,-0.6759421467419884,0.39689349237187493,-2.4064981713448685,2.7849091181797974,2.8945901863062913,-1.7602564523075743
3,126,-0.3916388497140953,-0.6706436350357782,0.3818945631386613,-2.3753404923175827,2.7596043759820783,2.9256889934569825,-1.7437871233555298
3,127,-0.3711406898221294,-0.6633819389969641,0.36530676353964864,-2.3409418934164203,2.73182682507885,2.959229318477161,-1.7262452644822643
3,128,-0.3477984920856717,-0.6544129556930848,0.3474362740028371,-2.3042026769477006,2.7022641052934153,2.994435446726612,-1.7081067231506657
3,129,-0.3213567533343692,-0.6436740280195091,0.3282746875671183,-2.26543495513066,2.6711480909500964,3.031006977324085,-1.6896487278268104
3,130,-0.2898476001403264,-0.6305444383675719,0.3068975268581211,-2.2239156255179604,2.637875857094842,3.0696265195290158,-1.6709780043902036
3,131,-0.25589941829183305,-0.6166028021528936,0.28487554569465073,-2.1833618261732175,2.605456818094723,3.107150360677386,-1.6538523351299832
3,132,-0.21917940853040183,-0.6019586765696877,0.26174910357280845,-2.143063091536848,2.573432482179968,3.1443979650155907,-1.6379924964371493
3,133,-0.1796282295333024,-0.5866950515543042,0.23737310745729467,-2.1028155278710967,2.5417076713629303,3.1816215620616006,-1.6233422024341055
3,134,-0.13853481736600295,-0.5720553681358383,0.2125737716609176,-2.0658799226069022,2.513537181188063,3.215952361821536,-1.612382083491822
3,135,-0.09830627055881855,-0.5583649740302663,0.18835901236781802,-2.031530057143032,2.4882141907238275,3.2479215204966043,-1.6037029999701953
3,136,-0.05914256674058707,-0.5458387757289179,0.16486354906990403,-2.0003508653332007,2.4663809631670865,3.276994708907121,-1.5978176977168401
3,137,-0.023341876845233762,-0.5348718048386509,0.14331834099629176,-1.9727899008796808,2.448287859806438,3.3025847149345555,-1.5941873230571522
3,138,0.00814891605859,-0.5259082116057889,0.12427178273578858,-1.9498758993508292,2.4350077580640184,3.323700339439594,-1.5934653550664473
3,139,0.03977767641283281,-0.5169053470815145,0.10514177770116051,-1.9268615070068118,2.4216694735446733,3.3449084757110352,-1.5927402239898438
3,140,0.06288028807514025,-0.5105162010203259,0.09108692778212331,-1.9102001400332147,2.4129752292397706,3.3600563044881975,-1.5932302972644912
3,141,0.0773619934635971,-0.5067680232209812,0.08216442363360725,-1.8999609696222493,2.4089665449675515,3.369079777194313,-1.5949392638678717
3,142,0.09191766691921963,-0.5030007008899828,0.07319634609656821,-1.8896695006991704,2.4049373855772753,3.378149339005081,-1.596656959343516
3,143,0.10643588768699008,-0.4992430721226475,0.06425134400221835,-1.879404512390286,2.400918593474326,3.3871955642475693,-1.5983702350777678
3,144,0.12093626603941202,-0.49549006135735696,0.05531733502095129,-1.8691521394140849,2.396904740334563,3.396230671977058,-1.6000814052525472
3,145,0.13551753006618125,-0.49171611563442563,0.046333490557911854,-1.8588425768886399,2.3928684972122736,3.405316179135013,-1.6018021206371236
3,146,0.15001243795305624,-0.4879645207436447,0.037402852053410304,-1.8485940717600062,2.3888561583533643,3.414347878246854,-1.603512645249611
3,147,0.16000614970173552,-0.4853779325273628,0.031245501648551235,-1.841528100254029,2.3860897966553867,3.420574906264485,-1.6046919897511167
3,148,0.16000549921401447,-0.4853840383155132,0.031249871655543698,-1.8415317388434036,2.3860894305287284,3.42056770100648,-1.6046849641853143
3,149,0.15938647555456448,-0.4911944897696315,0.03540850160769884,-1.844994329814923,2.385741013400441,3.4137109610048735,-1.597999224682441
3,150,0.15876889333677172,-0.4969914111645262,0.03955744788725368,-1.8484488578912817,2.385393407586802,3.4068701874215455,-1.5913290534107356
3,151,0.15815157276301314,-0.5027858766436641,0.04370463642992583,-1.8519019224270197,2.3850459490393647,3.400032311990959,-1.5846617080146306
3,152,0.15753350488897927,-0.508587356639784,0.04785684537086671,-1.855359167086,2.3846980698743763,3.393186158938648,-1.5779862914327234
3,153,0.15691425588325467,-0.514399923301567,0.05201698920985473,-1.8588230185618055,2.384349525910061,3.386326922843731,-1.5712981180867054
3,154,0.15618658210055592,-0.5212302166583064,0.05690553578143142,-1.8628933584134726,2.383939955119305,3.378266697910836,-1.5634389074088504
3,155,0.1547969948664152,-0.534273545523008,0.06624084793761718,-1.8706661989788065,2.3831578267042866,3.3628746555735196,-1.5484307277986595
3,156,0.1534017146343717,-0.5473703115826175,0.07561440592049276,-1.8784708840832598,2.382372493988511,3.347419553600512,-1.5333610611994213
3,157,0.15175720460765793,-0.5628064674228018,0.08666230134308103,-1.8876696691121415,2.3814468824190653,3.3292038077060333,-1.515599598482083
3,158,0.14989039031804405,-0.5803292771540061,0.09920364722119734,-1.8981119425310022,2.3803961470167847,3.3085256639553737,-1.4954371477420105
3,159,0.14780979838437203,-0.5998587058630362,0.1131811613298968,-1.9097500095660327,2.379225086984423,3.2854795691561787,-1.4729658003743347
3,160,0.14559112876478122,-0.6206841976201913,0.12808628780303538,-1.9221604324574701,2.377976310002032,3.260904029112177,-1.4490031506547698
3,161,0.14307940030733723,-0.6442604794716366,0.1449601972818557,-1.936210118841641,2.376562585012977,3.233082363939263,-1.4218753310438927
3,162,0.14041785345086408,-0.6692430283069095,0.16284059378597038,-1.9510978343187657,2.3750645348199373,3.203601205152627,-1.3931294039934121
3,163,0.13758547529092602,-0.695829081274009,0.1818686429920609,-1.9669411173578086,2.3734703323211397,3.1722277990922185,-1.3625384204956268
3,164,0.13457729054310263,-0.7240653387666182,0.20207776909401,-1.983767797872299,2.371777177180468,3.1389070360200115,-1.3300486451963538
3,165,0.1313529687341732,-0.7543303618513346,0.22373891410083416,-2.001803469715265,2.36996236941312,3.103192187342043,-1.2952244904829637
3,166,0.12796338392767376,-0.7861466222916573,0.24651030366969728,-2.0207635620623217,2.3680545434579425,3.065646769849902,-1.2586154195804264
3,167,0.12440004305530573,-0.8195938400793691,0.27044899463142086,-2.0406955820178605,2.3660489189960874,3.026176708365282,-1.2201297034548726
3,168,0.12068106197048528,-0.8545019711697603,0.29543328383383144,-2.061498196152177,2.363955692525745,2.9849826667802413,-1.179963001633952
3,169,0.11682269865684869,-0.8907184103704142,0.3213539493809975,-2.083080463276685,2.361784014844117,2.9422447299187495,-1.1382909077993846
3,170,0.11274612535682742,-0.9289830726290017,0.34874055984219954,-2.105883316912251,2.3594895177909527,2.8970897462779415,-1.0942620460067234
3,171,0.10850580523609335,-0.968784740683722,0.3772272291182642,-2.129602110115489,2.357102855929274,2.850120988060706,-1.048464643430529
3,172,0.10412909312713034,-1.0098666490236667,0.4066301861626943,-2.1540838300014467,2.3546394259115893,2.8016414565679892,-1.00119414481082
3,173,0.09961178719669592,-1.0522682380606863,0.43697765908811437,-2.1793519800818673,2.352096862738355,2.7516046093492172,-0.9524051684209615
3,174,0.09508012232344928,-1.09480460698676,0.467421596064219,-2.20470044881406,2.349546217642009,2.7014087124139143,-0.9034611088614801
3,175,0.09067473725435601,-1.1361556534126884,0.4970171793984433,-2.2293425547068497,2.347066649064391,2.652611579114403,-0.8558809291184719
3,176,0.0864157439934967,-1.1761325964710976,0.5256292957049085,-2.2531657985969407,2.344669477036002,2.605435984106849,-0.80988184806251
3,177,0.08229373625361348,-1.214823728062695,0.5533211368621992,-2.27622279580014,2.3423494072332014,2.5597777367595635,-0.7653622734760184
3,178,0.07831551281930856,-1.2521652315509513,0.5800470283167614,-2.29847551641271,2.3401102663481854,2.5157121451769022,-0.722395635351684
3,179,0.07447947775887834,-1.2881720871123852,0.6058176916125663,-2.3199328874903835,2.337951156111667,2.473221531700533,-0.6809646968949653
3,180,0.07079028421911097,-1.322800618090848,0.6306018666914407,-2.3405688810392187,2.3358746955447725,2.432357437846241,-0.641119714225833
3,181,0.06728807985322018,-1.3556739794555666,0.6541298397377422,-2.360158925834153,2.3339034817321633,2.393564567165432,-0.6032943004169717
3,182,0.06394705717655125,-1.3870344125723588,0.6765749866427413,-2.3788473794647533,2.332022988945211,2.3565570578664414,-0.5672097227947726
3,183,0.06078567523834485,-1.4167086519967391,0.6978132986486328,-2.396530988789935,2.330243606849689,2.3215393753188684,-0.5330653475592338
3,184,0.057802906339794353,-1.4447063442001047,0.7178516798841585,-2.413215502379329,2.328564757005885,2.288500136010292,-0.5008500750917814
