zelongjiang123/UMAP-research/panda_TRRT_combined.csv
horse_idx,layer_idx,panda-panda_joint1,panda-panda_joint2,panda-panda_joint3,panda-panda_joint4,panda-panda_joint5,panda-panda_joint6,panda-panda_joint7
1,0,0.0,-0.7853981633974483,0.0,-2.356194490192345,0.0,1.5707963267948966,0.7853981633974483
1,1,-0.0010144842392062578,-0.7865845906468893,0.0013420122523758184,-2.357928804146503,0.010651129936725848,1.5760543088134868,0.7759090481481765
1,2,-0.0020262700383999804,-0.7877678621028363,0.0026804548686556076,-2.3596585049760925,0.021273928792406555,1.5812983050563345,0.7664451731217516
1,3,-0.0040504107967603694,-0.790135070640548,0.005358093015482094,-2.3631188796440634,0.04252550214793504,1.5917892474477924,0.7475120993542795
1,4,-0.0050625590756893666,-0.7913187660122334,0.006697015138714458,-2.3648492001517503,0.053152106699762246,1.5970351223910244,0.7380448338247294
1,5,-0.00937737899271254,-0.796364896576068,0.012404882221963464,-2.3722256108465363,0.09845365581573885,1.6193984521110745,0.6976855833897293
1,6,-0.012110099762407574,-0.7995607810077634,0.016019866677633252,-2.3768973401652764,0.12714465255471682,1.633561901984014,0.6721247108541406
1,7,-0.018906116799200897,-0.8075086420868332,0.025009989715786395,-2.3885154873223273,0.19849643675564554,1.6687850567621023,0.6085572482895154
1,8,-0.022783469076575028,-0.8120431594502159,0.030139151965842246,-2.3951440241688906,0.23920498728875567,1.6888810304266364,0.5722899104639262
1,9,-0.03172365584687995,-0.8224986015255712,0.04196569369079268,-2.4104277418150626,0.3330685361435103,1.735217227150483,0.4886666669132791
1,10,-0.03669068433716349,-0.8283074822571566,0.04853633602731205,-2.4189191372340195,0.3852176615856386,1.7609608961779792,0.4422068955642497
1,11,-0.047592730376445735,-0.8410572954092911,0.06295812672179264,-2.4375567560792324,0.499678886760921,1.8174652358464205,0.3402331365627728
1,12,-0.05356911390259859,-0.8480466048480321,0.0708639961350714,-2.4477736968105317,0.5624252903310408,1.8484403026856036,0.2843322266601367
1,13,-0.06639203179270203,-0.8630428547789988,0.0878268155211981,-2.4696951467161807,0.6970538625031611,1.914900351138182,0.1643913335553389
1,14,-0.07322505886476784,-0.8710339986540481,0.09686589734932256,-2.4813765644674275,0.7687942172500043,1.9503153256532852,0.10047769263080655
1,15,-0.08763208139996316,-0.8878828401229312,0.11592425233925724,-2.506006124252614,0.9200543976385774,2.0249856482703743,-0.03428033706740398
1,16,-0.09521407885233735,-0.8967498959479949,0.12595411094655262,-2.5189679461063794,0.9996582366379361,2.0642824699743505,-0.10519957352745475
1,17,-0.11102332058462895,-0.9152386160870739,0.14686739405690058,-2.545994673069062,1.1656403991834021,2.1462203705778884,-0.253073449733442
1,18,-0.11930752583620548,-0.9249268955798365,0.1578261694810612,-2.560156955943127,1.252616759334729,2.1891566731518757,-0.3305608816154165
1,19,-0.13588236013949953,-0.9443109671232092,0.1797522180646481,-2.5884925035141304,1.4266369234944138,2.275062572287404,-0.48559583126096023
1,20,-0.14399364142149707,-0.9537970140906538,0.19048224071283062,-2.602359163802985,1.5117977446772877,2.3171026252327716,-0.5614657954551366
1,21,-0.15946583676359602,-0.9718915624859085,0.21094966141568422,-2.6288096923043027,1.6742412372682012,2.3972936442283204,-0.7061870627616584
1,22,-0.16688628821868504,-0.9805696921888993,0.22076581861757522,-2.641495342812568,1.7521489953021339,2.435753187326997,-0.7755952569333667
1,23,-0.1809212774098383,-0.9969834450876361,0.2393320286468475,-2.6654888921058726,1.8995031756415717,2.508495294051033,-0.9068734225373364
1,24,-0.18753811715163327,-1.0047217604516996,0.2480851266865408,-2.676800726290307,1.968973766841186,2.5427897887683426,-0.9687649260908855
1,25,-0.19995011840082588,-1.0192374482593878,0.26450436427465074,-2.698019692671042,2.0992881009341335,2.6071200926418046,-1.0848622549363736
1,26,-0.20569104364617524,-1.025951392039742,0.27209875728883937,-2.707834105136018,2.159562414109357,2.6368748000522775,-1.1385607740313537
1,27,-0.21629016937347353,-1.0383469434905532,0.28611982931814484,-2.7259538658383753,2.270843261040479,2.691809130555546,-1.2377011270116485
1,28,-0.2211188103554652,-1.04399398167745,0.2925074054969792,-2.734208680562003,2.3215394478607223,2.71683554937641,-1.282866472124674
1,29,-0.2304641888105015,-1.054923290607936,0.30486995575163905,-2.750185094620579,2.4196571281416404,2.765271818738217,-1.3702797307843493
1,30,-0.23464468899251936,-1.0598123358395501,0.31040013773821856,-2.7573318786915735,2.4635484464276853,2.786938981160535,-1.40938260344978
1,31,-0.24227151419951315,-1.0687318171903704,0.3204892968192139,-2.7703703359403162,2.543622934670051,2.826468141148946,-1.4807211423627544
1,32,-0.24555522883746048,-1.0725720823963605,0.3248331644783892,-2.7759840181425366,2.578098848570173,2.8434873434719097,-1.511435810408837
1,33,-0.2512085143730046,-1.0791835325786603,0.3323116231489894,-2.7856486059322947,2.6374530272566807,2.8727878220235588,-1.5643145796500348
1,34,-0.2537103582694003,-1.0821094092535446,0.3356211917285087,-2.7899256391408533,2.6637200340686977,2.885754657497376,-1.5877159141913777
1,35,-0.2562162473097143,-1.0850400166761207,0.33893611143374425,-2.794209587734859,2.6900295110855956,2.898742458594082,-1.611155085532306
1,36,-0.2572274832569009,-1.0862226450866863,0.3402738266773335,-2.7959383485636367,2.7006465370125823,2.9039836050026446,-1.6206138174437723
1,37,-0.25925186102357733,-1.0885901308028043,0.3429517783510259,-2.79939912840974,2.7219005987324167,2.9144757757872264,-1.6395491081005156
1,38,-0.2600533400269612,-1.0895274509628625,0.3440120162541841,-2.80076929875425,2.730315374119443,2.918629770521898,-1.6470458501286926
1,39,-0.2600533400269612,-1.0895274509628625,0.3440120162541841,-2.80076929875425,2.730315374119443,2.918629770521898,-1.6470458501286926
1,40,-0.2600533400269612,-1.0895274509628625,0.3440120162541841,-2.80076929875425,2.730315374119443,2.918629770521898,-1.6470458501286926
1,41,-0.2600533400269612,-1.0895274509628625,0.3440120162541841,-2.80076929875425,2.730315374119443,2.918629770521898,-1.6470458501286926
1,42,-0.2600533400269612,-1.0895274509628625,0.3440120162541841,-2.80076929875425,2.730315374119443,2.918629770521898,-1.6470458501286926
1,43,-0.2600533400269612,-1.0895274509628625,0.3440120162541841,-2.80076929875425,2.730315374119443,2.918629770521898,-1.6470458501286926
1,44,-0.2600533400269612,-1.0895274509628625,0.3440120162541841,-2.80076929875425,2.730315374119443,2.918629770521898,-1.6470458501286926
1,45,-0.2600533400269612,-1.0895274509628625,0.3440120162541841,-2.80076929875425,2.730315374119443,2.918629770521898,-1.6470458501286926
1,46,-0.2600533400269612,-1.0895274509628625,0.3440120162541841,-2.80076929875425,2.730315374119443,2.918629770521898,-1.6470458501286926
1,47,-0.2600533400269612,-1.0895274509628625,0.3440120162541841,-2.80076929875425,2.730315374119443,2.918629770521898,-1.6470458501286926
1,48,-0.2600588218800022,-1.0895197848898561,0.3440149606174146,-2.800765344095224,2.730318002761979,2.9186246192902425,-1.6470475980197397
1,49,-0.26931821346954904,-1.0765710299000855,0.34898828112163804,-2.794085534138917,2.7347580398095035,2.909923679898189,-1.6499999587520684
1,50,-0.2739550336614595,-1.0700866893237075,0.35147876796538047,-2.7907404895553727,2.736981474603862,2.90556651549149,-1.6514784107351252
1,51,-0.2831936608075126,-1.0571669722775963,0.3564409356598769,-2.784075659258911,2.7414115547446616,2.8968850881983257,-1.6544241507162947
1,52,-0.287825620867047,-1.0506894283317256,0.3589288120733588,-2.7807341208194063,2.743632659022204,2.8925324907998187,-1.6559010530441887
1,53,-0.3065804537465858,-1.0241336090291746,0.3694973911405057,-2.7662475787680703,2.752864079474133,2.8758469023338193,-1.6624804285664931
1,54,-0.31742834078938215,-1.0087491773722732,0.3756471443434843,-2.7577973261963904,2.758221295118746,2.866265663685818,-1.6663305612736123
1,55,-0.3448107171440579,-0.9694593985063458,0.39189828491418227,-2.734993442637538,2.7720254396191586,2.843595955177931,-1.676970998960523
1,56,-0.36063760848308907,-0.9465232496375731,0.4016764583651817,-2.721003795825566,2.7801223020106396,2.831360479327831,-1.683635978267035
1,57,-0.395224088238583,-0.8960349200930979,0.42370327121163326,-2.689009079436335,2.7979763262275443,2.806202979890121,-1.6991349472304027
1,58,-0.4128886004475556,-0.8700052758070399,0.4354134085897748,-2.671652218041684,2.807183499969103,2.7945171488293252,-1.707745582386639
1,59,-0.4452136249948209,-0.8220278703916656,0.4575226723960098,-2.638359169388479,2.82413071645916,2.7749425285240688,-1.724618149249556
1,60,-0.4593231676746923,-0.8009414652339569,0.4674621591952953,-2.6231701072536007,2.831562488705536,2.7671936303478026,-1.7324951990953619
1,61,-0.4833643110432728,-0.7648023412800643,0.4848106167501353,-2.596347829587342,2.8442708589425534,2.755149768629459,-1.7467024786560699
1,62,-0.49319396127684406,-0.7499374076900044,0.49207194490466677,-2.584997418924366,2.849485777779431,2.750703590159587,-1.752853102974026
1,63,-0.5068320280764919,-0.7292618869879492,0.5022344334473575,-2.569050332646213,2.85673343032423,2.7447850375481173,-1.761582562219337
1,64,-0.510810674978514,-0.7231949509206128,0.5052594921958474,-2.564261291646369,2.8588562175284506,2.743230381852286,-1.7642637804964627
1,65,-0.518751377672878,-0.7110863781412722,0.5112969950822018,-2.55470318013073,2.8630929398330984,2.740127553434307,-1.7696150362679988
1,66,-0.5227229425867644,-0.7050302412150277,0.5143166692286663,-2.5499226636198338,2.8652119484778824,2.7385756650243054,-1.7722914819788487
1,67,-0.5270560892683591,-0.6984227375749673,0.5176112624912617,-2.5447069162495537,2.867523877270816,2.736882488591385,-1.7752115983818029
1,68,-0.5270560892683591,-0.6984227375749673,0.5176112624912617,-2.5447069162495537,2.867523877270816,2.736882488591385,-1.7752115983818029
1,69,-0.5270560892683591,-0.6984227375749673,0.5176112624912617,-2.5447069162495537,2.867523877270816,2.736882488591385,-1.7752115983818029
1,70,-0.5270560892683591,-0.6984227375749673,0.5176112624912617,-2.5447069162495537,2.867523877270816,2.736882488591385,-1.7752115983818029
1,71,-0.5270560892683591,-0.6984227375749673,0.5176112624912617,-2.5447069162495537,2.867523877270816,2.736882488591385,-1.7752115983818029
1,72,-0.5270560892683591,-0.6984227375749673,0.5176112624912617,-2.5447069162495537,2.867523877270816,2.736882488591385,-1.7752115983818029
1,73,-0.5270560892683591,-0.6984227375749673,0.5176112624912617,-2.5447069162495537,2.867523877270816,2.736882488591385,-1.7752115983818029
1,74,-0.5270560892683591,-0.6984227375749673,0.5176112624912617,-2.5447069162495537,2.867523877270816,2.736882488591385,-1.7752115983818029
1,75,-0.5270560892683591,-0.6984227375749673,0.5176112624912617,-2.5447069162495537,2.867523877270816,2.736882488591385,-1.7752115983818029
1,76,-0.5270560892683591,-0.6984227375749673,0.5176112624912617,-2.5447069162495537,2.867523877270816,2.736882488591385,-1.7752115983818029
1,77,-0.5270560892683591,-0.6984227375749673,0.5176112624912617,-2.5447069162495537,2.867523877270816,2.736882488591385,-1.7752115983818029
1,78,-0.5270499750489124,-0.6984231641481972,0.5176039520771506,-2.5446944861977867,2.867511922114951,2.736896894015165,-1.7752030487991008
1,79,-0.5230586233679148,-0.6987016304009789,0.5128317266271277,-2.5365801703073894,2.859707617432446,2.746300729274731,-1.7696218962764607
1,80,-0.5190788132033071,-0.6989792914321021,0.5080733006923192,-2.528489318024643,2.851925879919563,2.7556773721124186,-1.7640568823876623
1,81,-0.5150969816877118,-0.6992570934876401,0.503312457946516,-2.5203943563870346,2.844140190051629,2.7650587773597377,-1.7584890420207524
1,82,-0.5111141131592186,-0.6995349678928778,0.4985503753051238,-2.5122972865287254,2.8363524725085454,2.774442625864187,-1.752919751586894
1,83,-0.5067529545010742,-0.6997295879032208,0.49340622758955244,-2.50349624821176,2.8279117663141085,2.7845665058202727,-1.7469097326786507
1,84,-0.4963701916656939,-0.6986017117419506,0.48217862908683,-2.4834878452558367,2.809074649249599,2.806473954946919,-1.7338820113202205
1,85,-0.4859849312091695,-0.6974735642649053,0.470948329733875,-2.4634746291869614,2.7902330008303213,2.8283866740107695,-1.7208511560837618
1,86,-0.4716319649199646,-0.6940739518307346,0.45690946284188283,-2.437604684779276,2.766235543811903,2.8554539046590066,-1.7047614812978702
1,87,-0.4558512902034692,-0.6897858201040796,0.4420335361232657,-2.4099933630865094,2.7407049499011222,2.883962422812541,-1.6878366651611807
1,88,-0.43693929964966804,-0.683529969359135,0.4253650473901483,-2.3786528197092824,2.7118915009867264,2.9155291517231445,-1.6691461058667243
1,89,-0.4144254192241023,-0.674983039155858,0.40709944003453324,-2.344282796393437,2.680336134289708,2.9493603173509806,-1.6492705847432723
1,90,-0.3889518803163534,-0.6647400382185119,0.3876222315669902,-2.3080215166577145,2.6469640348993395,2.984610001238107,-1.6287687758391163
1,91,-0.36021236762725983,-0.6527845985495152,0.36686885599936464,-2.2701376150623087,2.6119337906460824,3.0210880796116504,-1.6078565280875485
1,92,-0.32765265788598685,-0.6391226959727,0.34470259116733165,-2.2311541850886956,2.575568769448805,3.0584353482589943,-1.5869593734476144
1,93,-0.2907028538237819,-0.6240921294493414,0.3208645398684484,-2.191990574186119,2.5385684096939007,3.0961127846159218,-1.5668351376909886
1,94,-0.2504865107390942,-0.6084646056861336,0.29568293188042505,-2.1533253764790197,2.5017583508085126,3.1336521862863047,-1.5478645157993838
1,95,-0.20756414156359856,-0.5925348178224396,0.2693555431281611,-2.115406515615899,2.4655031565184085,3.170839739301071,-1.5302008199268577
1,96,-0.16122155067689553,-0.5769204534878319,0.24148101912037687,-2.0797133266546397,2.431561585945276,3.2066142152264754,-1.515622192508373
1,97,-0.11536881232984084,-0.5625745863631321,0.21395871823150123,-2.047028617830541,2.4013178174814396,3.2397899753765875,-1.5041682112292614
1,98,-0.06998093864070778,-0.5493654166060278,0.186767172033607,-2.0170389402726006,2.374380200971182,3.2706345991790156,-1.4954988680146126
1,99,-0.0280579308322466,-0.5380661022823248,0.1615106889013777,-1.9907782497602948,2.3525379418433325,3.297709353604446,-1.4903129620841586
1,100,0.010546887605140387,-0.5285839564722885,0.13810920052925368,-1.9680697844893573,2.3355354341353745,3.3211924109146893,-1.488425978123836
1,101,0.04914999695790791,-0.5191022304489582,0.11470874817090898,-1.9453623245511815,2.3185336791501485,3.3446744285999928,-1.4865390777027037
1,102,0.07367954146442113,-0.5134247991527615,0.09970521945397078,-1.931080704085161,2.3094411339128644,3.359145544660572,-1.4870130232606582
1,103,0.0898209333784242,-0.5100153186359256,0.08970624484789581,-1.921821283664755,2.305065150973205,3.3682453084989383,-1.4888965294762604
1,104,0.1059504855902321,-0.5066083389711955,0.07971460448425942,-1.9125686550241945,2.3006923778146535,3.3773383976654747,-1.490778654141077
1,105,0.12208784718362775,-0.5031997097625776,0.06971812650757198,-1.90331154657497,2.2963174875077925,3.3864358893970783,-1.492661690066759
1,106,0.1382264437737645,-0.4997908196906246,0.0597208834976632,-1.8940537296766782,2.2919422623893677,3.3955340773622376,-1.4945448701017006
1,107,0.1543583957812782,-0.496383333126815,0.04972775655242032,-1.8847997244065504,2.28756883863853,3.404628519421654,-1.4964272747938008
1,108,0.17050073754381362,-0.4929736519773395,0.03972819355152757,-1.875539759110774,2.2831925981918975,3.4137288187403163,-1.4983108918452976
1,109,0.18664374158605965,-0.4895638309372163,0.029728220293697608,-1.8662794139018957,2.2788161781991185,3.422829491421387,-1.5001945861768677
1,110,0.19130583540285848,-0.4885790758355049,0.026840231579114075,-1.8636050295043725,2.2775522696642105,3.425457762449759,-1.5007385964287991
1,111,0.1913075857681301,-0.4885798573265735,0.02684174056954482,-1.863606289336806,2.2775524361312756,3.425456293181807,-1.500737668434749
1,112,0.1988035821477311,-0.49192661832317836,0.03330404131855004,-1.8690015628341192,2.278265336768632,3.419164105243327,-1.4967635036403193
1,113,0.20629547422255737,-0.4952715468579672,0.03976280374516592,-1.8743938822415884,2.2789778470694215,3.4128753624848724,-1.492791514831938
1,114,0.21375692977658783,-0.4986028863039261,0.04619532683798612,-1.879764294840985,2.279687462729662,3.4066121683392168,-1.4888356626041108
1,115,0.2212591463364298,-0.5019524244438975,0.052662990006260804,-1.8851640453380063,2.2804009549322,3.400314759141133,-1.484858200046438
1,116,0.2304699725153039,-0.5060648108753867,0.060603646044552956,-1.8917935744699137,2.281276943062526,3.392583131956271,-1.4799748811020337
1,117,0.24860687949606525,-0.5141624525774885,0.07623947904540215,-1.9048476861051364,2.2830018388457525,3.3773588947012687,-1.4703592071405387
1,118,0.2677958865839827,-0.5227298287117915,0.09278232786725753,-1.9186590510176027,2.28482679375374,3.361251517798236,-1.4601857395256939
1,119,0.29160516169868983,-0.5333600303922754,0.11330831115424952,-1.9357958723968383,2.287091155493622,3.341265857972092,-1.4475627367719495
1,120,0.31795391179917004,-0.5451240394285589,0.1360235765955526,-1.9547604910953356,2.289597031936051,3.319148546385945,-1.433593376366238
1,121,0.347168727104056,-0.5581676695791127,0.16120967771755745,-1.975787971734506,2.292375483178073,3.2946254410938223,-1.4181045094323634
1,122,0.379205506357613,-0.5724712308180724,0.1888285948143391,-1.9988465722584285,2.2954223150056405,3.267733560975584,-1.4011195172059956
1,123,0.41387577835665834,-0.5879505758166703,0.21871784680455547,-2.023800639761733,2.298719603018305,3.2386311099805596,-1.3827383217765439
1,124,0.45157707905614414,-0.604783193698621,0.25122014955536415,-2.0509363023444567,2.3023051545496482,3.206984393851951,-1.362750160849486
1,125,0.49169790255840046,-0.6226960635092871,0.28580832364718994,-2.0798134261810115,2.30612081282876,3.1733067146030955,-1.3414792375176523
1,126,0.5336962388940146,-0.6414471923589259,0.32201510212125556,-2.11004189741926,2.3101150304384475,3.138053038914788,-1.3192129101026833
1,127,0.5750753819456678,-0.6599218680424773,0.3576880738776967,-2.139824701804766,2.314050360174605,3.1033191180816897,-1.2972748614148442
1,128,0.6139271957510408,-0.6772681591166062,0.3911822343255218,-2.167788450815786,2.3177453303188904,3.0707066537961545,-1.2766767310521836
1,129,0.650011371584252,-0.6933787741913228,0.4222904132393712,-2.193760181281813,2.3211770865054295,3.040417362759996,-1.2575459238892277
1,130,0.6837795228211246,-0.7084553465059207,0.45140194664731265,-2.2180649437437263,2.3243885790569223,3.01207215777889,-1.2396430073158207
1,131,0.7147755965739706,-0.7222942606983304,0.47812367121675514,-2.2403744923041535,2.327336435434505,2.98605385260219,-1.223209767645464
1,132,0.7430049084259689,-0.734897890033633,0.5024601695135673,-2.2606926528754347,2.3300211611723913,2.9623579852949287,-1.2082433867066351
1,133,0.7687525871894779,-0.7463935368662972,0.5246572511732339,-2.279224648065311,2.3324698732143156,2.9407452168842494,-1.194592697285455
1,134,0.7925355623295762,-0.7570119963146914,0.5451605612441508,-2.2963425399322035,2.334731733716509,2.9207816334272274,-1.1819836380327333
1,135,0.8139542758275846,-0.7665748764579717,0.5636256406374088,-2.311758744987588,2.3367687430386628,2.902802626514059,-1.1706280432838612
1,136,0.8321619831529359,-0.7747041286118161,0.5793225106367708,-2.3248638154551555,2.338500372231062,2.88751895899099,-1.1609748329866139
1,137,0.8462055252081805,-0.7809741928467155,0.5914294524956626,-2.334971711246735,2.339835971873182,2.875730718781321,-1.1535293450756368
1,138,0.8538348261406484,-0.7843804707448252,0.5980066751400654,-2.3404629312313108,2.3405615503315893,2.869326634137291,-1.1494845059860084
1,139,0.8614885331350215,-0.787797645293884,0.604604938257828,-2.3459717175769548,2.3412894499086585,2.862902062886735,-1.1454267274941867
1,140,0.8691652624725853,-0.7912250987006608,0.6112230489446276,-2.351497074346565,2.3420195390069476,2.85645816653211,-1.1413567432086105
1,141,0.8767845677130452,-0.7946269137908324,0.6177916542999233,-2.3569810998916765,2.3427441668331985,2.850062472336728,-1.1373172035515406
1,142,0.8793660704890269,-0.7957794960335053,0.6200171849345316,-2.358839166135919,2.3429897003333386,2.8478955226575855,-1.1359485728277319
1,143,0.8756325893181328,-0.7983836518731345,0.6233654383104874,-2.363904464102691,2.3514036175927076,2.8431700522480248,-1.1414998401019276
1,144,0.8716707804397682,-0.8011470695130893,0.6269184601002556,-2.369279539411164,2.3603321029858746,2.8381555872578175,-1.1473906050385607
1,145,0.8677002219746182,-0.8039165901133858,0.6304793286775532,-2.374666485481032,2.3692803067855093,2.833130047907902,-1.1532943796282662
1,146,0.8637446801403991,-0.806675636401548,0.6340267300688897,-2.380033058149605,2.378194668526115,2.828123515120995,-1.159175826173972
1,147,0.8573806031934806,-0.8111149615687802,0.6400279050903644,-2.3890184310527394,2.392812474436486,2.819752079239855,-1.1687545332840372
1,148,0.8480443959384341,-0.8176277493454024,0.6490569163532011,-2.4024692589500534,2.414468214672461,2.8072284832541845,-1.1828956100739887
1,149,0.8372088943597006,-0.8251208412871572,0.6601289721384166,-2.4186813279387547,2.4401413985414395,2.792102300612901,-1.1995442591768224
1,150,0.8251711222226493,-0.8333415064261102,0.6730396384120885,-2.4372544616481857,2.469205192246092,2.7747129962339425,-1.2182805326914745
1,151,0.8119948889446512,-0.8421114507525429,0.6881166233157702,-2.4583532822429066,2.50183086081538,2.7548151883424477,-1.2391533798981995
1,152,0.7988389921052512,-0.8504996981111694,0.7042681380344591,-2.4801633399372274,2.535302699903278,2.7340039779051377,-1.2603987539039685
1,153,0.7873142985310524,-0.8574554941104833,0.7193413977631272,-2.4997817531575803,2.565336218697205,2.7150211598588316,-1.279331661892733
1,154,0.7777044430420574,-0.8627781373035466,0.7328095864196434,-2.516514431843337,2.591016764790249,2.698505269070764,-1.2954058077967794
1,155,0.7682765659358817,-0.8675945823703257,0.7466486202446885,-2.533100144374749,2.616608113391356,2.6818543358209417,-1.311353036825986
1,156,0.7598382660644635,-0.8715405305431799,0.7595457921470016,-2.548043571844346,2.639814050346986,2.666598419237882,-1.3257600060130292
1,157,0.7527779866889578,-0.8744883246292865,0.7707909389034567,-2.5606000523510697,2.6594777930557325,2.653531097227237,-1.3379234472509625
1,158,0.7486575160652665,-0.8760311607404949,0.7775439537522452,-2.5679176237071064,2.671035925842781,2.6457879180855617,-1.3450576573701605
1,159,0.7457574132398975,-0.8769935272273557,0.7824292530490886,-2.57306059279749,2.6792279995351556,2.640256700595093,-1.350103592499653
1,160,0.7428419496973618,-0.8779609909953494,0.7873404278770052,-2.5782308021956664,2.6874634634569716,2.634696186395999,-1.3551762539857721
1,161,0.7399353951823742,-0.8789254984028072,0.7922365952142788,-2.5833852125494423,2.6956737615779196,2.629152663928565,-1.360233414512863
1,162,0.7391713097137012,-0.8791790515671005,0.7935237172329133,-2.5847402224178584,2.6978321141755885,2.6276953628730415,-1.361562858998274
1,163,0.7391713097137012,-0.8791790515671005,0.7935237172329133,-2.5847402224178584,2.6978321141755885,2.6276953628730415,-1.361562858998274
1,164,0.7391713097137012,-0.8791790515671005,0.7935237172329133,-2.5847402224178584,2.6978321141755885,2.6276953628730415,-1.361562858998274
1,165,0.7391713097137012,-0.8791790515671005,0.7935237172329133,-2.5847402224178584,2.6978321141755885,2.6276953628730415,-1.361562858998274
1,166,0.7391713097137012,-0.8791790515671005,0.7935237172329133,-2.5847402224178584,2.6978321141755885,2.6276953628730415,-1.361562858998274
1,167,0.7391713097137012,-0.8791790515671005,0.7935237172329133,-2.5847402224178584,2.6978321141755885,2.6276953628730415,-1.361562858998274
1,168,0.7391713097137012,-0.8791790515671005,0.7935237172329133,-2.5847402224178584,2.6978321141755885,2.6276953628730415,-1.361562858998274
1,169,0.7391713097137012,-0.8791790515671005,0.7935237172329133,-2.5847402224178584,2.6978321141755885,2.6276953628730415,-1.361562858998274
1,170,0.7391713097137012,-0.8791790515671005,0.7935237172329133,-2.5847402224178584,2.6978321141755885,2.6276953628730415,-1.361562858998274
1,171,0.7391713097137012,-0.8791790515671005,0.7935237172329133,-2.5847402224178584,2.6978321141755885,2.6276953628730415,-1.361562858998274
1,172,0.7391713097137012,-0.8791790515671005,0.7935237172329133,-2.5847402224178584,2.6978321141755885,2.6276953628730415,-1.361562858998274
1,173,0.7391713097137012,-0.8791790515671005,0.7935237172329133,-2.5847402224178584,2.6978321141755885,2.6276953628730415,-1.361562858998274
1,174,0.7391713097137012,-0.8791790515671005,0.7935237172329133,-2.5847402224178584,2.6978321141755885,2.6276953628730415,-1.361562858998274
1,175,0.7391713097137012,-0.8791790515671005,0.7935237172329133,-2.5847402224178584,2.6978321141755885,2.6276953628730415,-1.361562858998274
1,176,0.7391713097137012,-0.8791790515671005,0.7935237172329133,-2.5847402224178584,2.6978321141755885,2.6276953628730415,-1.361562858998274
1,177,0.7391758475315858,-0.8791829896521807,0.7935204060071771,-2.5847442073384115,2.6978300474602492,2.6276963645948284,-1.3615608786006819
1,178,0.747353113117261,-0.8862795211609494,0.7875534913034002,-2.59192513758476,2.694105772787277,2.6295014932496845,-1.3579921507476722
1,179,0.7555032026121524,-0.8933524682596838,0.7816064068734465,-2.599082202932721,2.690393875262332,2.6313006227915507,-1.3544352831028337
1,180,0.7636223778257006,-0.9003985868092748,0.7756818804585128,-2.606212120660782,2.6866960574164485,2.633092928016105,-1.350891907089853
1,181,0.7717670001466594,-0.907466789293606,0.7697387854013127,-2.6133643849668493,2.6829866498751294,2.634890850681146,-1.3473374254328103
1,182,0.7799131965583167,-0.9145363578316775,0.7637945417370587,-2.620518031573074,2.679276525425932,2.6366891208261842,-1.343782256810026
1,183,0.7880588532887148,-0.9216054580145244,0.7578506918758441,-2.627671204253946,2.6755666467705423,2.6384872718367647,-1.3402273237153066
1,184,0.7961997022384436,-0.9286703858286681,0.7519103502310213,-2.634820154944317,2.67185895778303,2.640284361531363,-1.336674488835523
1,185,0.8144953058982517,-0.9448828471969165,0.739166485405586,-2.6502228396751066,2.6628337836140727,2.6457906155886084,-1.328721022898629
1,186,0.8333654750376388,-0.9616140354183218,0.7260397548699035,-2.6660902471649104,2.653505360881895,2.651511781244258,-1.3205186720923763
1,187,0.8522754170163737,-0.9783804881281539,0.7128853569963767,-2.6819910985440774,2.6441572765422374,2.657245005456502,-1.3122990331114135
1,188,0.8763449289344089,-0.9999253023588995,0.6969438859912058,-2.701195281563997,2.631452135407831,2.6664128823250293,-1.3018726101165092
1,189,0.9010356752631985,-1.0220494003508696,0.6806823915808775,-2.7207771278758255,2.618327153922225,2.6760305709356857,-1.2911811777108877
1,190,0.9280734847974914,-1.0462478630120475,0.6634540368649503,-2.7414064255460198,2.6034754952067565,2.6878114554632027,-1.2795015448228042
1,191,0.9577358521531799,-1.072766582740436,0.6451316255241523,-2.7632251298535606,2.586703674003255,2.7019834968560237,-1.2667162503688525
1,192,0.9890746705740058,-1.1005626105167885,0.6264020616543944,-2.785363355819502,2.568598058465529,2.7181644295391756,-1.253256654716431
1,193,1.0234643823090095,-1.1307545714285958,0.606728893964952,-2.808377694001223,2.548189577551051,2.737611711511878,-1.2385543559824388
1,194,1.0605431203064941,-1.1626186924340947,0.5865669647988565,-2.8316633288059503,2.5257938517251977,2.76031720312912,-1.2228503157586441
1,195,1.1000052350425513,-1.1959459599619398,0.5660007058738932,-2.8551473755261996,2.5016259920541253,2.7859583649756314,-1.206262465956835
1,196,1.1414765717534188,-1.2292575620322281,0.546193363286337,-2.87723915457323,2.4760543511831363,2.8154148918833224,-1.1892953849106562
1,197,1.1834198380194962,-1.2624549954732316,0.526680799206427,-2.8988369450771305,2.450141808733415,2.845929508319931,-1.172269252364843
1,198,1.224762939703427,-1.2921918486907062,0.5098166235164305,-2.9167681989512686,2.425136923271899,2.8787202428656236,-1.156556427426023
1,199,1.2659737559550341,-1.321713510062007,0.4931016678630531,-2.9345070806159224,2.4002336324897886,2.911515130816274,-1.140936888356909
1,200,1.307412678821537,-1.3478099066561557,0.4785397916333868,-2.9491114556763054,2.376673271620691,2.9466229206748777,-1.1270039398216918
1,201,1.3487070148763507,-1.3734277277733093,0.4642712140846352,-2.9633157927533373,2.353355017102633,2.9818383700449282,-1.1133110671925888
1,202,1.392566308134672,-1.3979295500056161,0.45049359809426276,-2.976267313976985,2.3304561133667105,3.0203921058103367,-1.1007407493678687
1,203,1.4389622468808978,-1.421649329641295,0.4370378983083293,-2.988233513735259,2.3077500303952054,3.0621105434530174,-1.089046180129977
1,204,1.4851933317391182,-1.4450032870568965,0.4237622326991995,-2.999924721551215,2.285468002740047,3.1037931489591686,-1.077743471561943
1,205,1.5298755147547312,-1.463341693330629,0.41291939340167805,-3.0077288752118627,2.269095332407184,3.1457692578153496,-1.0720864924634828
1,206,1.5745350530852957,-1.4816708058007393,0.40208204919558566,-3.01552907377028,2.25273095965376,3.1877240934100097,-1.066432380290973
1,207,1.618848926020309,-1.4997011228964159,0.3914673156752119,-3.0230403180375487,2.237018220554437,3.2294800098043552,-1.0613401230666815
1,208,1.6589026946305163,-1.51399841930212,0.38364081224653257,-3.0269167413976534,2.229505585270864,3.268824908908255,-1.0633392876996843
1,209,1.6989292163070098,-1.528285989844292,0.3758196328666889,-3.030790527786157,2.2219980605245184,3.308143043293251,-1.065337092383096
1,210,1.7387845918317197,-1.542512469324483,0.3680318954322655,-3.0346477505661964,2.214522636593231,3.3472930604621256,-1.0673263548157885
1,211,1.7676410534863216,-1.5530228517951297,0.36296492769461586,-3.0368771855197974,2.2108816539117635,3.376082534026205,-1.0704012545793273
1,212,1.7840354097123017,-1.5593162936121858,0.36096301212377196,-3.037279694436564,2.211530469253011,3.3931194836085345,-1.0746557018100416
1,213,1.8004829055907225,-1.5656301346023598,0.3589546076675956,-3.0376835080208426,2.2121813876241827,3.410211655705672,-1.0789239391429135
1,214,1.8169054157217737,-1.571934384099879,0.3569492542221463,-3.038086708163155,2.212831317171153,3.427277862713827,-1.08318569250397
1,215,1.83331286466849,-1.5782328519316833,0.3549457398985887,-3.038489538528155,2.213480650663766,3.4443284181993103,-1.087443537384992
1,216,1.8497006038624668,-1.5845237536120398,0.35294463233381823,-3.038891884985698,2.214129204132463,3.4613584913883817,-1.091696267450781
1,217,1.8661388193485782,-1.5908340320586023,0.3509373611067612,-3.0392954707207944,2.214779755227188,3.4784410193388564,-1.0959620964585675
1,218,1.8825638317972542,-1.5971392421422015,0.34893170210319496,-3.039698732299198,2.215429783804705,3.4955098267455043,-1.1002244991881103
1,219,1.8932131405781536,-1.6012272834340118,0.3476313145324148,-3.0399601906744236,2.2158512358468276,3.5065765459436222,-1.1029880674324137
2,0,0.0,-0.7853981633974483,0.0,-2.356194490192345,0.0,1.5707963267948966,0.7853981633974483
2,1,-0.0007280941664907491,-0.7864636736049283,0.001018623703221957,-2.357837249187643,0.010638460168342518,1.5760514680587523,0.7756511376432828
2,2,-0.0014577489192635724,-0.7875314676112489,0.0020394307094437243,-2.3594835292483065,0.0212997226550735,1.5813178731147715,0.7658832202580851
2,3,-0.0029076181944636247,-0.7896532405677378,0.004067837580783184,-2.3627547898948804,0.0424843128405181,1.5917825467874418,0.7464737622292412
2,4,-0.0036325468640718956,-0.790714118312282,0.005082032667068807,-2.3643904067529142,0.0530765207326481,1.5970148405487994,0.7367691131085637
2,5,-0.006733313837966602,-0.7952518539703302,0.009420090686404823,-2.371386497469091,0.09838300368674538,1.6193951441194947,0.6952590214979043
2,6,-0.008721680806853697,-0.798161677175997,0.012201870596789156,-2.37587274097223,0.12743578802713754,1.633746514844313,0.6686406732863192
2,7,-0.013688133618209919,-0.8054297015731342,0.019150074259735344,-2.387078276473086,0.2000025147545617,1.6695927175817202,0.6021545706816884
2,8,-0.01651193231195921,-0.8095621153054958,0.02310064606069314,-2.39344945882636,0.2412621090617922,1.6899739563270695,0.5643522645250395
2,9,-0.02294711660233377,-0.8189795160538872,0.032103645335321146,-2.4079688127313155,0.3352890287925975,1.7364209738438532,0.4782041948139503
2,10,-0.026565317419883498,-0.8242744766252559,0.03716560748993764,-2.416132361092748,0.3881559339953824,1.7625359426106904,0.42976719562416466
2,11,-0.03446527315812812,-0.835835458521747,0.04821786218408718,-2.4339565986003864,0.5035851852116838,1.8195551927205746,0.3240101719021285
2,12,-0.03872888022997562,-0.8420749218560483,0.05418276538546974,-2.4435763417490666,0.5658823661188317,1.8503284889332396,0.26693309334889975
2,13,-0.04786682181546298,-0.8554476014939327,0.0669669962254147,-2.4641937789281316,0.6994002983478397,1.9162831086825636,0.1446031035302856
2,14,-0.05273849520231915,-0.8625769234417006,0.07378260087463878,-2.4751854688038852,0.7705821669364024,1.9514452250921603,0.0793858168756845
2,15,-0.06300435004774403,-0.8776002179957957,0.08814481329255495,-2.498347754903535,0.9205804678339639,2.0255407471960742,-0.05804359290678344
2,16,-0.0684008958980214,-0.8854976507088179,0.09569472891007895,-2.5105236857749627,0.999431447167472,2.0644912182824857,-0.13028736824110634
2,17,-0.07964884843999581,-0.9019581702381656,0.11143092293453193,-2.5359018251248093,1.1637795502019195,2.1456751945559343,-0.2808641592030067
2,18,-0.08553965812899697,-0.9105789203318047,0.11967232721511735,-2.549192936428224,1.2498524060493659,2.188193097457694,-0.35972466433289046
2,19,-0.09743516960628022,-0.9279870929083427,0.13631447394609725,-2.5760321275415965,1.4236622384273416,2.2740509385117407,-0.5189703526851059
2,20,-0.10331357613977113,-0.9365896919311322,0.14453852587203003,-2.589295254284466,1.5095538670628006,2.3164793195668443,-0.5976648162756462
2,21,-0.11453309856432646,-0.9530086061548696,0.16023494538266148,-2.6146092483172962,1.6734865668627985,2.3974580967189962,-0.7478610121175316
2,22,-0.11992769467943351,-0.960903185579373,0.16778213326722058,-2.626780780108032,1.7523090578758351,2.436394495266141,-0.8200786862690769
2,23,-0.1301711438371513,-0.9758936911206505,0.18211299951367182,-2.6498925134815092,1.9019799807676574,2.5103283005764956,-0.9572081502132566
2,24,-0.13502369397518202,-0.9829950276542212,0.18890185021343067,-2.6608410566181826,1.9728824323106209,2.5453523917434424,-1.0221694331702815
2,25,-0.14414042970958083,-0.9963366741485468,0.20165641348623947,-2.6814106481967306,2.106090517802045,2.6111539547204154,-1.1442155394114526
2,26,-0.148388716500411,-1.0025537174216024,0.20759988319439757,-2.6909958250343347,2.168163848269412,2.641816674245815,-1.2010875247493948
2,27,-0.15625583692879857,-1.0140666473497786,0.21860620038971473,-2.7087459780304997,2.2831133303128426,2.69859893002216,-1.3064049808638984
2,28,-0.15987562110522766,-1.0193639250459445,0.22367037770681905,-2.7169130988378627,2.3360033705730765,2.7247253269461855,-1.354863176542388
2,29,-0.1668197505326454,-1.02952612813382,0.2333854051834177,-2.732580757784212,2.437466680838916,2.7748457410012293,-1.447824515177367
2,30,-0.17007155935803023,-1.0342849020063274,0.23793477489454753,-2.7399176359584145,2.4849800936034456,2.7983162143643296,-1.4913566101004918
2,31,-0.17582973532483193,-1.0427115527768793,0.2459906209609667,-2.7529094930578384,2.5691149878031583,2.8398768112216417,-1.5684415422816462
2,32,-0.17841315555057283,-1.0464921909792213,0.2496048966940166,-2.7587383226375692,2.606862321093988,2.858523078222523,-1.6030258922641412
2,33,-0.1829483594767524,-1.0531291155677518,0.25594977134178026,-2.768970854895245,2.6731279067070615,2.8912566700975098,-1.6637388487789861
2,34,-0.18474300421798973,-1.0557554410879868,0.2584605285438299,-2.7730200135449308,2.699350142064335,2.904209818285874,-1.6877638297738586
2,35,-0.18726063286156697,-1.0594397983343922,0.26198276004943133,-2.778700401180764,2.736136169581169,2.9223812235529922,-1.7214674252121338
2,36,-0.18798683850716297,-1.0605025448357708,0.2629987416601384,-2.780338899209788,2.7467470358540504,2.927622734101841,-1.7311891692614794
2,37,-0.1894389836564161,-1.0626276483601258,0.26503033254168246,-2.783615294786354,2.767964879698947,2.93810383427564,-1.7506290945073804
2,38,-0.19016497863625934,-1.063690086568264,0.266046019425225,-2.785253317501777,2.7785726678545704,2.94334382430923,-1.7603480183658604
2,39,-0.19050755462764785,-1.0641914203688372,0.26652529263059205,-2.7860262529506885,2.7835781756676363,2.945816423749257,-1.764934096876716
2,40,-0.19050755462764785,-1.0641914203688372,0.26652529263059205,-2.7860262529506885,2.7835781756676363,2.945816423749257,-1.764934096876716
2,41,-0.19050755462764785,-1.0641914203688372,0.26652529263059205,-2.7860262529506885,2.7835781756676363,2.945816423749257,-1.764934096876716
2,42,-0.19050755462764785,-1.0641914203688372,0.26652529263059205,-2.7860262529506885,2.7835781756676363,2.945816423749257,-1.764934096876716
2,43,-0.19050755462764785,-1.0641914203688372,0.26652529263059205,-2.7860262529506885,2.7835781756676363,2.945816423749257,-1.764934096876716
2,44,-0.19050755462764785,-1.0641914203688372,0.26652529263059205,-2.7860262529506885,2.7835781756676363,2.945816423749257,-1.764934096876716
2,45,-0.19050755462764785,-1.0641914203688372,0.26652529263059205,-2.7860262529506885,2.7835781756676363,2.945816423749257,-1.764934096876716
2,46,-0.19050755462764785,-1.0641914203688372,0.26652529263059205,-2.7860262529506885,2.7835781756676363,2.945816423749257,-1.764934096876716
2,47,-0.19050755462764785,-1.0641914203688372,0.26652529263059205,-2.7860262529506885,2.7835781756676363,2.945816423749257,-1.764934096876716
2,48,-0.19050755462764785,-1.0641914203688372,0.26652529263059205,-2.7860262529506885,2.7835781756676363,2.945816423749257,-1.764934096876716
2,49,-0.19426645547583848,-1.0576030091402246,0.2685153016488981,-2.782837166007067,2.7852794688184703,2.9416104722663756,-1.7660893006992826
2,50,-0.19801564341327643,-1.051031622210164,0.2705001685310389,-2.779656319588567,2.7869763658681017,2.937415388862498,-1.7672415195025357
2,51,-0.2055147088092052,-1.0378876397924273,0.2744702673363709,-2.773294041755399,2.790370472047276,2.9290244505281153,-1.7695461690160295
2,52,-0.20926478491274972,-1.031314696129751,0.27645560442473255,-2.7701124418083944,2.792067771084344,2.924828373327459,-1.7706986607748412
2,53,-0.21882965841172647,-1.0144819215293126,0.28162552412697706,-2.7617651330643573,2.796464838370406,2.914345153151297,-1.7737823139502968
2,54,-0.2279873035302972,-0.9982526017354938,0.28675219758712345,-2.753386050364687,2.800787939575286,2.9046734912091967,-1.7769748108385874
2,55,-0.2481748442395388,-0.9623117969994153,0.2983022646341434,-2.7343323392071555,2.8104621321083365,2.8839152066369906,-1.7843753786919125
2,56,-0.2599094649401458,-0.9412938542456829,0.30520731712101784,-2.7228087294187335,2.816196433903182,2.8722814307859124,-1.788956325837484
2,57,-0.28648073257482426,-0.8932557743745873,0.32149332650001317,-2.695088818326225,2.829523168544377,2.847540169407977,-1.8003615024759991
2,58,-0.30143413862793794,-0.8659207500727429,0.33107813614944165,-2.6783851583347436,2.8372287074150164,2.8347167884492865,-1.8074991636888693
2,59,-0.32981946865662437,-0.8136223406184331,0.3498004312533413,-2.645201397019197,2.8520979364510772,2.811858063469714,-1.8220531651349356
2,60,-0.3420327241497822,-0.7908219106987449,0.35821037855636806,-2.6298914687441215,2.858655705403531,2.803058500224613,-1.8290467441317562
2,61,-0.3640509343226828,-0.7494306255695188,0.37366639125562207,-2.601382854157972,2.870614191329529,2.7880948486233423,-1.8423410303488867
2,62,-0.37372624463244786,-0.7311053119397092,0.3805918118465005,-2.5884370990167813,2.8759324154119312,2.781931267713275,-1.8485058019188996
2,63,-0.3895182891100339,-0.7008847828070002,0.39217008024119115,-2.5664220677999463,2.8847496164368858,2.7727290951606443,-1.8592776806018758
2,64,-0.39414513832286524,-0.6919649363559387,0.39561165072056803,-2.559806134249652,2.88736053102625,2.770188131918517,-1.8625748660554402
2,65,-0.40064361612158594,-0.6793411240352902,0.4005172920881237,-2.550272078607026,2.8910678511614147,2.7668455984950597,-1.8674117220384652
2,66,-0.4038958656895046,-0.6730233694107538,0.40297238549802,-2.5455006337695374,2.8929232287869415,2.765172783226793,-1.869832390888634
2,67,-0.4103935754043217,-0.6604010491544542,0.4078774470460721,-2.5359677049992198,2.8966301107375023,2.761830644872181,-1.874668675182205
2,68,-0.41156538353165334,-0.658124718245367,0.4087620342682378,-2.534248520255577,2.897298616193636,2.7612279179024504,-1.8755408589961986
2,69,-0.41156538353165334,-0.658124718245367,0.4087620342682378,-2.534248520255577,2.897298616193636,2.7612279179024504,-1.8755408589961986
2,70,-0.41156538353165334,-0.658124718245367,0.4087620342682378,-2.534248520255577,2.897298616193636,2.7612279179024504,-1.8755408589961986
2,71,-0.41156538353165334,-0.658124718245367,0.4087620342682378,-2.534248520255577,2.897298616193636,2.7612279179024504,-1.8755408589961986
2,72,-0.41156538353165334,-0.658124718245367,0.4087620342682378,-2.534248520255577,2.897298616193636,2.7612279179024504,-1.8755408589961986
2,73,-0.41156538353165334,-0.658124718245367,0.4087620342682378,-2.534248520255577,2.897298616193636,2.7612279179024504,-1.8755408589961986
2,74,-0.41156538353165334,-0.658124718245367,0.4087620342682378,-2.534248520255577,2.897298616193636,2.7612279179024504,-1.8755408589961986
2,75,-0.41156538353165334,-0.658124718245367,0.4087620342682378,-2.534248520255577,2.897298616193636,2.7612279179024504,-1.8755408589961986
2,76,-0.41156538353165334,-0.658124718245367,0.4087620342682378,-2.534248520255577,2.897298616193636,2.7612279179024504,-1.8755408589961986
2,77,-0.41156538353165334,-0.658124718245367,0.4087620342682378,-2.534248520255577,2.897298616193636,2.7612279179024504,-1.8755408589961986
2,78,-0.4115635902829426,-0.6581250722888023,0.4087600869839484,-2.534244384727924,2.897295315726954,2.7612327441117994,-1.8755383450988685
2,79,-0.40792348357447983,-0.6588437433110584,0.404807304214484,-2.525849697552815,2.890595714696928,2.771029442652773,-1.870435397314399
2,80,-0.40430526068952105,-0.6595580937814549,0.40087828503422307,-2.51750547808847,2.8839363907516775,2.7807672447824703,-1.8653631277538412
2,81,-0.4006953816501984,-0.6602707969155085,0.39695832641506734,-2.5091805009100145,2.877292423619096,2.7904825909385065,-1.8603025551604364
2,82,-0.39707092023593726,-0.6609863790668942,0.3930225328314418,-2.500821894366905,2.870621617687001,2.8002371829581185,-1.8552215400075565
2,83,-0.3836621107794495,-0.6615720103722296,0.37945699559728446,-2.4714685259140166,2.8474980499109486,2.8330299159612395,-1.8381288934968811
2,84,-0.37423433753150037,-0.6614964782691296,0.37015421341915855,-2.4512010607306953,2.831607402826243,2.855307864983557,-1.8265139258236047
2,85,-0.34674009619858026,-0.6568073452908094,0.34574115736137256,-2.397289097974138,2.7899731074417633,2.9113787468591026,-1.7974393561957869
2,86,-0.32941423951832355,-0.6522637954473527,0.33152591790955066,-2.3658837830912804,2.7659421000323845,2.9428387621378254,-1.7812805353702514
2,87,-0.3087864935616302,-0.6457630562808037,0.3156571360732071,-2.331252193285475,2.7395850922465574,2.9766462762382107,-1.7641827284845208
2,88,-0.28499120410274414,-0.6375373564982817,0.2982251873582593,-2.293874875846114,2.7112409779827122,3.0124793726045795,-1.746390604203028
2,89,-0.25733588309394534,-0.6273405218310505,0.2789397417555503,-2.2536079235717628,2.680813298083354,3.050425944500824,-1.7280483061866674
2,90,-0.19095546566004307,-0.6021789766779657,0.2358950916418747,-2.1705576810258393,2.6186178951935934,3.127171039499423,-1.6939862032671218
2,91,-0.1537928301778283,-0.5885285279598491,0.2127929196429984,-2.129843076989844,2.5886848013655928,3.1644930821422457,-1.6794030079412543
2,92,-0.11392937338784521,-0.5743250531101994,0.1884050708430557,-2.0891687001464856,2.559303357385102,3.2016935535495348,-1.6662723832644732
2,93,-0.07204101496770474,-0.5603583301356898,0.16313429608206692,-2.050714740799231,2.532848331989581,3.236803323680944,-1.656577275554448
2,94,-0.03115068531480181,-0.5473766097806709,0.1384925958606874,-2.0151679000329716,2.5097576016797754,3.269149563864431,-1.6496955026584752
2,95,0.044295899329801276,-0.5249977675693581,0.09295272792287217,-1.9538217514300658,2.4741090596277027,3.3244724715991714,-1.6436281210746706
2,96,0.07703957370383911,-0.5159294199274097,0.07305059790844513,-1.9284960351226685,2.4617640750094725,3.346924377678532,-1.6440189816757813
2,97,0.1255500874767542,-0.5027011038169371,0.04342495604729888,-1.8910630586014086,2.445195993911856,3.379676975297937,-1.646307046085023
2,98,0.13947656651912582,-0.49907350353846297,0.03480465983963354,-1.880388853104571,2.441855670139454,3.388659734352541,-1.6483698530621533
2,99,0.16728187779179732,-0.4918307141292436,0.017593560136147622,-1.8590769618846144,2.4351864508801886,3.4065945196518794,-1.652488409512785
2,100,0.18119286583052263,-0.4882071489819013,0.008982852643589563,-1.8484146297518749,2.431849842689276,3.4155672868088294,-1.6545489219436549
2,101,0.19507026220952564,-0.4845923338648999,0.0003929379196870031,-1.8377780445633387,2.4285212915973027,3.4245183869109117,-1.6566044587371196
2,102,0.2089826130760149,-0.4809684137251463,-0.00821861314424107,-1.8271146678662433,2.425184356526497,3.433492033109391,-1.658665173031692
2,103,0.210776016799784,-0.48050126392885056,-0.009328705025454055,-1.8257400806623951,2.424754201203404,3.434648801700306,-1.658930814167757
2,104,0.21077586454263922,-0.48050401593555275,-0.009326316918708277,-1.8257419313720558,2.424753781835127,3.4346453930527376,-1.6589273616051101
2,105,0.21046656761085372,-0.48609447430467023,-0.004475089146407241,-1.829501484465736,2.4239018722476002,3.4277210268043623,-1.651913785755507
2,106,0.21015936571114816,-0.4916470655357039,0.00034327868851468865,-1.8332355721133415,2.423055733095315,3.4208435629592526,-1.64494771657309
2,107,0.2098505604838546,-0.4972286364791489,0.005186794226254647,-1.836989148461203,2.4222051778302145,3.413930204715283,-1.6379452905487688
2,108,0.20954333457806318,-0.5027816616136902,0.010005538589290645,-1.8407235279065766,2.4213589725569538,3.4070522034353865,-1.63097867700756
2,109,0.20923580387164567,-0.5083401959370912,0.01482906365691921,-1.8444616122517372,2.4205119277584703,3.400167378450012,-1.6240051518481284
2,110,0.20877523086120658,-0.5166649285037385,0.02205301045301582,-1.850059949992322,2.419243352085625,3.3898563281916507,-1.613561259875625
2,111,0.20801687639869548,-0.5303719802589203,0.03394756824427672,-1.8592778683505198,2.4171545843968314,3.372878713786608,-1.5963649155310415
2,112,0.20724681209344148,-0.544290684253862,0.046025791337342664,-1.868638121698129,2.4150335637941676,3.355638945989371,-1.5789030403588797
2,113,0.20628001351515268,-0.5617653070121431,0.061189731329053865,-1.8803897112305203,2.4123706696836558,3.3339948016202854,-1.5569800451291071
2,114,0.20527654904007916,-0.5799026559357249,0.07692876469706092,-1.8925869805337838,2.409606785146806,3.3115298017170147,-1.5342256189287493
2,115,0.20413641459245038,-0.6005102776404427,0.09481142478219139,-1.906445494955669,2.406466464738851,3.2860051111156663,-1.5083720827134743
2,116,0.20289309403999026,-0.6229829602754486,0.1143125273607011,-1.9215582527914932,2.403041934489247,3.2581703478683623,-1.480178712188554
2,117,0.20156199846998174,-0.6470421526072043,0.1351903542422509,-1.9377379298394377,2.399375641805844,3.2283705267543223,-1.4499949671076304
2,118,0.20012998995737566,-0.6729253190768226,0.15765096976282147,-1.9551442196550715,2.395431400347431,3.1963115232755777,-1.4175229336397865
2,119,0.19859378127861085,-0.7006918753608912,0.1817459330185263,-1.9738170789603622,2.3912001559754743,3.1619197449145875,-1.3826880711432916
2,120,0.19696371330098336,-0.7301549130805078,0.20731305066872363,-1.9936308128788363,2.3867103909770186,3.125426697208995,-1.3457248677416236
2,121,0.19524336986401258,-0.7612496553058837,0.23429611128672073,-2.0145418592746713,2.381971976472442,3.086912613148062,-1.3067145901003006
2,122,0.1934332002849876,-0.7939679807485696,0.26268806746826684,-2.036544756625198,2.3769861500353113,3.046387551795272,-1.2656674268780657
2,123,0.19154420719296017,-0.8281110198649537,0.292316346341992,-2.0595057662352048,2.37178321667099,3.0040978338393214,-1.2228328722194417
2,124,0.18956639231086708,-0.8638594888081584,0.32333776782552104,-2.0835464187427326,2.3663356377031657,2.95981962346057,-1.1779842065312425
2,125,0.1875204599290016,-0.9008391631321852,0.35542759145829883,-2.1084150502267245,2.3607004398320455,2.9140164366986876,-1.1315909175304832
2,126,0.18540226635428728,-0.9391249389684128,0.38865080979882277,-2.134162027931481,2.3548662099089785,2.866595506876952,-1.0835590433872773
2,127,0.1832067882450208,-0.9788076118591844,0.4230862124252516,-2.160848411369401,2.3488191119319928,2.8174443742385082,-1.0337746754771466
2,128,0.18100483816341198,-1.018607263899205,0.45762312595832666,-2.1876134626541095,2.3427541879285507,2.7681483507128877,-0.9838435499879571
2,129,0.17888968976322572,-1.0568379990296368,0.49079858166778656,-2.213323425781153,2.3369283454581535,2.7207955945506868,-0.935880727814988
2,130,0.17684251392701936,-1.0938401484544882,0.5229079085015732,-2.2382071716492002,2.3312897226882847,2.6749645700303772,-0.8894592424099357
2,131,0.17487385107602352,-1.1294231969114739,0.5537857831766178,-2.262136579772161,2.325867351545808,2.630891250191173,-0.844818106954603
2,132,0.17298920782989957,-1.1634876137399,0.5833458360478078,-2.285044716317669,2.3206763991455657,2.588698914145821,-0.8020821888197942
2,133,0.17118130047277352,-1.1961650501337524,0.6117023099708007,-2.3070201160034447,2.315696803641647,2.548224498148201,-0.761086323438716
2,134,0.16946401511006143,-1.2272045184941918,0.6386374056294047,-2.3278939910233025,2.3109668121200126,2.5097788765387374,-0.7221453902801953
2,135,0.16782223826173143,-1.2568791908842014,0.6643881733352514,-2.347850048115884,2.3064447968850184,2.4730236972024446,-0.6849166780928061
2,136,0.1662724214044247,-1.2848917113140463,0.6886965767091355,-2.3666883169822754,2.302176070932816,2.4383272665720215,-0.6497732383601016
2,137,0.1648155975936866,-1.3112234075842137,0.7115464125908036,-2.384396240669038,2.298163479651875,2.4057127121156556,-0.6167384965114322
2,138,0.1634462395265656,-1.3359741842002728,0.7330243750364481,-2.4010410044171993,2.2943917989584954,2.3750562916747,-0.5856871161644726
2,139,0.16218518018030248,-1.35876749073446,0.7528037051701013,-2.416369380095513,2.290918410000773,2.346824402260036,-0.5570915031242468
2,140,0.1610434753158183,-1.3794034972990004,0.7707109967632751,-2.4302469831824975,2.287773764127422,2.3212645540468526,-0.5312023563464381
2,141,0.15997133434022695,-1.3987821553906532,0.7875272000362447,-2.4432790262046415,2.28482072100794,2.297262063165262,-0.5068906310073963
2,142,0.159038877330039,-1.4156360635958036,0.8021525030361388,-2.4546131885486995,2.2822524153272163,2.2763867385633207,-0.48574636058190535
2,143,0.1581839071416443,-1.4310894184592522,0.815562448936625,-2.465005486326205,2.279897534868694,2.2572461454713935,-0.4663591709617564
2,144,0.15748806321065695,-1.4436666092678752,0.8264765481606484,-2.4734635792932456,2.277980942574008,2.241667981788841,-0.450580307067787
2,145,0.15679129479593434,-1.456260509869916,0.8374051476292934,-2.481932909506213,2.276061803934769,2.2260691212828934,-0.4347804797043076
2,146,0.15641257616189583,-1.4631057467268715,0.843345233567843,-2.4865362943636526,2.275018683224034,2.2175905808976757,-0.42619270662116143
2,147,0.15609991381571828,-1.4687570340506928,0.8482492468355247,-2.490336754601209,2.274157504133671,2.210590871639288,-0.4191028170850055
2,148,0.15578785178732107,-1.4743974707930356,0.853143844302437,-2.494129917881259,2.273297978523896,2.203604601958696,-0.41202654027453106
2,149,0.1554755951509276,-1.4800414250222649,0.8580414941362476,-2.4979254466522636,2.2724379168971067,2.1966139755034235,-0.40494585055916565
2,150,0.1551632142862957,-1.4856876246432968,0.8629410924519809,-2.5017224854371416,2.2715775131032396,2.189620567896019,-0.39786234386088426
2,151,0.1549256675454777,-1.4899812607980922,0.8666669797982994,-2.504609935405315,2.270923227400491,2.184302455333877,-0.39247571771281786
2,152,0.1576014822010065,-1.4930339192868902,0.8716943216601777,-2.510025821822005,2.277466010122418,2.1853023295634353,-0.3958223067604413
2,153,0.16036924431239694,-1.4961914744960494,0.8768944151336039,-2.5156278111798014,2.2842336186648833,2.1863365618870416,-0.39928389269251174
2,154,0.16313814151298536,-1.4993503246527748,0.8820966412216453,-2.5212320979740657,2.2910040026768588,2.1873712183605174,-0.4027468982584384
2,155,0.16613754870972497,-1.5027596524559004,0.8877692976724396,-2.527281041236085,2.2983737487306044,2.188489763557336,-0.4064942396361004
2,156,0.17259450138901425,-1.5099282154207168,0.9004916691293398,-2.5400034574334445,2.3147274091740195,2.190866994165252,-0.4145071811948577
2,157,0.1797469581901114,-1.5177609803432874,0.9148907196204937,-2.5539129843188433,2.3331342344408053,2.19348592090617,-0.42335288349370986
2,158,0.18797621088728494,-1.5265969521660372,0.9319533252659423,-2.5696192887931453,2.3547841569452626,2.196477007665921,-0.43348211615704774
2,159,0.19723565444269867,-1.5362414893113743,0.9519580308516201,-2.586802725850826,2.3799107814128666,2.199816748844339,-0.4448094417012855
2,160,0.20723105518631135,-1.5462954996389555,0.974483537770487,-2.6047839376372495,2.4079218112463643,2.2034072133589393,-0.4569733775454473
2,161,0.2174295902841703,-1.556167072911777,0.9984486885381617,-2.622533971590531,2.437444422417631,2.207070695136627,-0.4693401680892478
2,162,0.22633496084661908,-1.5644304796257782,1.020266484669583,-2.6374998752569123,2.4640885890121376,2.210283974844053,-0.48012454220575057
2,163,0.23390109837935977,-1.5711959928994104,1.0394404572447822,-2.6498438352891713,2.4873532850341724,2.213033734715438,-0.4892979138150783
2,164,0.24065891617914792,-1.5770759418766176,1.0569742992254918,-2.6606354707657447,2.508538020265138,2.2155052950123353,-0.49750569456602844
2,165,0.24623443904501618,-1.5816996203188856,1.0720195343192813,-2.6692198873592066,2.52660059995104,2.2175731488340062,-0.5043167225281316
2,166,0.25077233781829283,-1.5854310572213945,1.0843488958202119,-2.676163348114737,2.541388570779577,2.2192614226552143,-0.5098697705910178
2,167,0.25293039264365647,-1.5871173565209542,1.0904459151893366,-2.679344918688018,2.548662599997976,2.220078901182326,-0.5125371962611175
2,168,0.2550949661582591,-1.5888087495099648,1.096561351409639,-2.682536099614852,2.5559586013810454,2.2208988490111508,-0.5152126792422769
2,169,0.2572654127699476,-1.5905047317241356,1.1026933805293746,-2.685735939113583,2.563274398869062,2.22172102158918,-0.5178954215616817
2,170,0.25942517621407746,-1.5921923661346458,1.1087952271538546,-2.6889200286641968,2.5705541872288338,2.222539147346907,-0.5205649591399238
2,171,0.26024485385573365,-1.5928328604431057,1.1111110119054186,-2.6901284605509215,2.573317026729017,2.2228496440327796,-0.5215781072568593
2,172,0.26024485385573365,-1.5928328604431057,1.1111110119054186,-2.6901284605509215,2.573317026729017,2.2228496440327796,-0.5215781072568593
2,173,0.26024485385573365,-1.5928328604431057,1.1111110119054186,-2.6901284605509215,2.573317026729017,2.2228496440327796,-0.5215781072568593
2,174,0.26024485385573365,-1.5928328604431057,1.1111110119054186,-2.6901284605509215,2.573317026729017,2.2228496440327796,-0.5215781072568593
2,175,0.26024485385573365,-1.5928328604431057,1.1111110119054186,-2.6901284605509215,2.573317026729017,2.2228496440327796,-0.5215781072568593
2,176,0.26024485385573365,-1.5928328604431057,1.1111110119054186,-2.6901284605509215,2.573317026729017,2.2228496440327796,-0.5215781072568593
2,177,0.26024485385573365,-1.5928328604431057,1.1111110119054186,-2.6901284605509215,2.573317026729017,2.2228496440327796,-0.5215781072568593
2,178,0.26024485385573365,-1.5928328604431057,1.1111110119054186,-2.6901284605509215,2.573317026729017,2.2228496440327796,-0.5215781072568593
2,179,0.26024485385573365,-1.5928328604431057,1.1111110119054186,-2.6901284605509215,2.573317026729017,2.2228496440327796,-0.5215781072568593
2,180,0.26024485385573365,-1.5928328604431057,1.1111110119054186,-2.6901284605509215,2.573317026729017,2.2228496440327796,-0.5215781072568593
2,181,0.26024485385573365,-1.5928328604431057,1.1111110119054186,-2.6901284605509215,2.573317026729017,2.2228496440327796,-0.5215781072568593
2,182,0.26024485385573365,-1.5928328604431057,1.1111110119054186,-2.6901284605509215,2.573317026729017,2.2228496440327796,-0.5215781072568593
2,183,0.26024485385573365,-1.5928328604431057,1.1111110119054186,-2.6901284605509215,2.573317026729017,2.2228496440327796,-0.5215781072568593
2,184,0.26024485385573365,-1.5928328604431057,1.1111110119054186,-2.6901284605509215,2.573317026729017,2.2228496440327796,-0.5215781072568593
2,185,0.26024485385573365,-1.5928328604431057,1.1111110119054186,-2.6901284605509215,2.573317026729017,2.2228496440327796,-0.5215781072568593
2,186,0.26025039499113367,-1.5928348642357986,1.1111085115938144,-2.690133985331637,2.5733138763533225,2.222849670545376,-0.5215774274471805
2,187,0.2698453764348565,-1.5963046140825898,1.1067789939564896,-2.6997006471469147,2.567858713440183,2.2228955795252183,-0.5204002749716815
2,188,0.2793982222032772,-1.5997591267708957,1.1024684890864591,-2.709225297650515,2.5624275064851223,2.2229412868990566,-0.5192282918771531
2,189,0.2889524650796561,-1.6032141446832244,1.0981573538031668,-2.7187513411385034,2.5569955052136195,2.2229870009576187,-0.518056137379574
2,190,0.29851959007108403,-1.6066738210429903,1.093840405757793,-2.7282902287199233,2.5515561799012447,2.223032776653065,-0.5168824024502131
2,191,0.3080638425076462,-1.6101252261992935,1.0895337784337549,-2.7378063112549205,2.5461298586278844,2.223078442910502,-0.5157114736215975
2,192,0.3245538081327124,-1.6165908656504575,1.0819784494874984,-2.7536951255532696,2.5361291981680836,2.223744156096967,-0.5131744924932469
2,193,0.348623945059955,-1.6263484105407653,1.070877132814167,-2.77653622333638,2.5211334481491803,2.225089281352145,-0.5091442885615193
2,194,0.3741441659553661,-1.6370040164177861,1.0590663812257959,-2.8004190135475424,2.5048401426610614,2.2268660025189977,-0.5045327131571569
2,195,0.40458769404406897,-1.6507474993237763,1.0448418824987888,-2.82779673721385,2.4840921074144044,2.230151907665596,-0.4979049362215918
2,196,0.43567411951545965,-1.6653588651622078,1.0303053406175144,-2.855134977665101,2.4621459793374916,2.2341375896910884,-0.49045143957424625
2,197,0.4679748286338101,-1.681484791260026,1.0151819370386403,-2.882531941982085,2.438100943053313,2.2393089377005158,-0.48158635020079116
2,198,0.49648096438952843,-1.696421641147137,1.0019153167563215,-2.905952459885688,2.415905611207229,2.2446103190594893,-0.4728325480755843
2,199,0.5222307156090307,-1.710532756450418,0.9900017858958584,-2.9264436328557104,2.3950013617016914,2.2500459048257584,-0.46410945720538105
2,200,0.5451650267485856,-1.7231959858476897,0.9794177656908503,-2.9445902235134334,2.376241755162656,2.2549803619324402,-0.45619720549987947
2,201,0.5555504672389934,-1.729392528579373,0.9747558437756004,-2.9523011256425273,2.3670607969052515,2.257668234475932,-0.4519188925538071
2,202,0.5659582395822308,-1.7356023957608437,0.9700838973116362,-2.960028608554275,2.357860096797819,2.2603618867621433,-0.44763137993486973
2,203,0.5763866350934028,-1.741824567893798,0.9654026933107728,-2.9677714035974314,2.3486411653554597,2.263060876563591,-0.4433353715408668
2,204,0.5867698814238541,-1.7480198014652253,0.9607417563323097,-2.975480676623485,2.3394621467838097,2.2657481812330182,-0.4390579624854822
2,205,0.5971779269443769,-1.7542298316397558,0.9560696872417536,-2.9832083623618058,2.3302612051816367,2.2684419042206816,-0.4347703373303536
2,206,0.6076001920450615,-1.7604483460221714,0.951391235121759,-2.9909466057448455,2.321047693157244,2.271139307400739,-0.43047685437709404
2,207,0.6078582015909846,-1.7606022891484134,0.951275417178592,-2.991138170691833,2.3208196070328935,2.2712060832659597,-0.4303705665810634
3,0,9.856490486302658e-07,-0.7853990326748477,-1.1751882838123081e-06,-2.356195466493842,-4.622279774974188e-06,1.570798582863962,0.7854016958396192
3,1,0.0022350326825018078,-0.7873693146915771,-0.0026648270254649195,-2.358408326604359,-0.010481363908473401,1.5759121315550588,0.7934082393083345
3,2,0.004460254735736169,-0.78933181365828,-0.005317956848372852,-2.360612445427692,-0.020916720089038266,1.5810054805971012,0.8013831551583496
3,3,0.00668073525963588,-0.7912901309090924,-0.007965433351035433,-2.3628118676887016,-0.03132984048986342,1.5860879766710727,0.8093410779638326
3,4,0.008917375154226736,-0.7932626996581936,-0.010632176653718168,-2.365027296070566,-0.041818741547531686,1.5912074602066373,0.8173569139206184
3,5,0.011135552603817085,-0.7952189857494883,-0.013276907203397918,-2.3672244370988196,-0.05222106149781593,1.5962846847341983,0.8253065827975612
3,6,0.01623818493404911,-0.7997191706460877,-0.019360770155859394,-2.372278677843587,-0.07615026251712148,1.6079641876643918,0.8435937750299136
3,7,0.021644932780427752,-0.8044875653536264,-0.025807229705961478,-2.3776341499790075,-0.10150563748900561,1.6203397858317254,0.8629708790067717
3,8,0.028291149124713273,-0.8103490894604838,-0.03373150619193827,-2.384217335925369,-0.1326735987739941,1.6355524247686668,0.8867900821238862
3,9,0.035460644283424825,-0.8166721109406555,-0.04227968743664766,-2.3913188380923747,-0.16629551776731213,1.6519628055868303,0.9124846506702969
3,10,0.0436775999044585,-0.8239189234069814,-0.052076754646182166,-2.3994578669719826,-0.20482958608680762,1.6707707366785005,0.9419331857168577
3,11,0.05280160989719993,-0.8319656979555777,-0.06295530179210278,-2.408495348035974,-0.24761735817943936,1.6916548401272187,0.9746324895014162
3,12,0.06263192158510178,-0.8406353839771745,-0.07467597167749421,-2.418232432476174,-0.29371738836749256,1.7141556096777353,1.0098630896909515
3,13,0.07321673658573183,-0.8499704921167349,-0.08729623503831985,-2.428716864782819,-0.343355721978474,1.738383374841798,1.0477977348178535
3,14,0.08446114784884881,-0.8598873206206473,-0.10070293430226765,-2.4398546379710333,-0.39608728483568556,1.7641209012392574,1.0880962899557463
3,15,0.09633769152340019,-0.8703616481851396,-0.11486332434973325,-2.4516185486473496,-0.4517832830206025,1.7913053263889305,1.130660328118099
3,16,0.10891244383561095,-0.8814517496801292,-0.12985618779305322,-2.4640740463941078,-0.5107535862627305,1.8200878933018492,1.1757266581856542
3,17,0.12209704180892698,-0.89307969479303,-0.14557616955182295,-2.477133606238407,-0.5725838093405241,1.850266346440715,1.2229785983687227
3,18,0.13586273965261406,-0.9052201316338896,-0.16198899605115616,-2.4907687550045665,-0.6371391465771442,1.8817748890705526,1.2723131273702544
3,19,0.15029238096299782,-0.9179461227862605,-0.17919344162044132,-2.505061550629136,-0.7048080996206311,1.914803143324295,1.324027146215677
3,20,0.16524830408320648,-0.9311362597556635,-0.19702537241659218,-2.5198756369903883,-0.774945093158725,1.9490360130670936,1.377627292848053
3,21,0.18073772923767692,-0.9447969103034531,-0.2154933971053164,-2.53521816583867,-0.8475839870094125,1.9844900247948847,1.4331394436432792
3,22,0.19681902216893882,-0.9589795491618879,-0.23466710509766475,-2.551146949396163,-0.9229984919743441,2.0212987728599123,1.4907727740787062
3,23,0.21329741530599866,-0.9735124041897263,-0.2543142752315347,-2.567469067199592,-1.000275230005344,2.0590164504180013,1.5498292616865421
3,24,0.2302653360192546,-0.9884769902266389,-0.27454510855967057,-2.584276070070409,-1.0798476466228426,2.0978546160674467,1.610640154532611
3,25,0.24779797424102054,-1.0039396198297292,-0.2954492539562215,-2.6016424348658314,-1.1620683510074594,2.137985373337945,1.6734749238735451
3,26,0.26576964831545874,-1.019789450074644,-0.3168768613202455,-2.6194436718510143,-1.2463479490166538,2.179121047325128,1.7378831424687289
3,27,0.28351550797080116,-1.0354401269076565,-0.3380352303990949,-2.6370212359622984,-1.3295685723088992,2.2197398508033617,1.8014820705989938
3,28,0.30069107866856554,-1.0505878465241782,-0.3585136445768925,-2.654033919537589,-1.4101147800795482,2.259053310074915,1.8630371548619618
3,29,0.3174454501203095,-1.065364096208569,-0.37848986335384055,-2.670629398373614,-1.4886857404141849,2.297402679145623,1.9230827140246278
3,30,0.3336198210881264,-1.0796288237512754,-0.3977745481874811,-2.6866503772480246,-1.5645367422503509,2.3344244751299055,1.9810496244315152
3,31,0.3494498237917687,-1.0935898412163174,-0.41664864311598543,-2.702330253726779,-1.6387728016637053,2.3706580406695488,2.037782362309771
3,32,0.36466044775151363,-1.107004607513693,-0.43478425344484234,-2.7173966254336333,-1.7101042350898035,2.4054738995460268,2.0922953247032874
3,33,0.3792407705292276,-1.1198634897739457,-0.45216835636299846,-2.7318386735150475,-1.7784798208844421,2.438847051202779,2.1445493669681115
3,34,0.3932159671812841,-1.132188690735021,-0.4688309680626629,-2.745681334275941,-1.8440176194810698,2.470835119259468,2.1946347133386315
3,35,0.40659863165595994,-1.1439913174279879,-0.4847871042946066,-2.758937082227977,-1.9067766912039337,2.5014669302209813,2.2425964989408373
3,36,0.4193362379400076,-1.1552250453763415,-0.49997413835062177,-2.7715538894962988,-1.9665107111273104,2.5306222563919,2.28824647715234
3,37,0.4313799782025554,-1.1658468292949995,-0.5143338767072853,-2.7834834111264812,-2.022990791038086,2.558189380688414,2.3314097268485448
3,38,0.4427436999488827,-1.175868881769561,-0.5278828297300121,-2.794739363298893,-2.076281869915986,2.5841999989036006,2.37213587574601
3,39,0.45334723637698493,-1.185220500972373,-0.5405254146283588,-2.8052423394855213,-2.126007999153295,2.6084706158651016,2.4101376161133468
3,40,0.463149290203574,-1.1938652654255595,-0.5522123926965801,-2.81495143405211,-2.171975511848421,2.63090670551069,2.4452669436834857
3,41,0.472173027624683,-1.2018236061848486,-0.562971384964896,-2.8238895934945685,-2.2142930477241305,2.651561293345034,2.4776068831881197
3,42,0.4804522847710683,-1.2091253644840854,-0.5728427342150398,-2.832090333053589,-2.2531192840125227,2.6705118274699644,2.507278699062445
3,43,0.4881720515955348,-1.2159336892506776,-0.5820470037656302,-2.8397368883017804,-2.2893217458419493,2.688181734571162,2.5349453720209367
3,44,0.494880603998914,-1.221850189646927,-0.5900456034667592,-2.84638181913379,-2.32078203704457,2.703537055586239,2.5589879797304023
3,45,0.5007949496396626,-1.2270662521031757,-0.5970972713125133,-2.852240075183125,-2.3485178323313707,2.7170745030782,2.5801842503337413
3,46,0.5057410553711621,-1.2314283908718267,-0.6029945077723189,-2.857139273772834,-2.371712989389925,2.728395729583554,2.59791047093121
3,47,0.5102876689689368,-1.2354382039485312,-0.6084154301975491,-2.86164276887289,-2.39303469624575,2.738802551670861,2.6142049619875456
3,48,0.5124916504167112,-1.2373819701032853,-0.6110432348697735,-2.8638258485292583,-2.403370442914022,2.743847282725627,2.622103754180194
3,49,0.514706323220046,-1.23933516532792,-0.6136837868335516,-2.8660195181480987,-2.4137563275463516,2.748916485408077,2.6300408628459286
3,50,0.5169109980078029,-1.2412795429627725,-0.6163124181742798,-2.8682032845690544,-2.4240953256877353,2.753962803460658,2.637942139881835
3,51,0.5191202813853281,-1.2432279850695926,-0.6189465443315534,-2.8703916158735203,-2.434455936178165,2.7590196701936485,2.6458599335235933
3,52,0.521308384088087,-1.2451577472193802,-0.6215554167934442,-2.8725589673733527,-2.4447172182060677,2.7640280561157584,2.6537018182920504
3,53,0.521308384088087,-1.2451577472193802,-0.6215554167934442,-2.8725589673733527,-2.4447172182060677,2.7640280561157584,2.6537018182920504
3,54,0.521308384088087,-1.2451577472193802,-0.6215554167934442,-2.8725589673733527,-2.4447172182060677,2.7640280561157584,2.6537018182920504
3,55,0.521308384088087,-1.2451577472193802,-0.6215554167934442,-2.8725589673733527,-2.4447172182060677,2.7640280561157584,2.6537018182920504
3,56,0.521308384088087,-1.2451577472193802,-0.6215554167934442,-2.8725589673733527,-2.4447172182060677,2.7640280561157584,2.6537018182920504
3,57,0.521308384088087,-1.2451577472193802,-0.6215554167934442,-2.8725589673733527,-2.4447172182060677,2.7640280561157584,2.6537018182920504
3,58,0.521308384088087,-1.2451577472193802,-0.6215554167934442,-2.8725589673733527,-2.4447172182060677,2.7640280561157584,2.6537018182920504
3,59,0.521308384088087,-1.2451577472193802,-0.6215554167934442,-2.8725589673733527,-2.4447172182060677,2.7640280561157584,2.6537018182920504
3,60,0.521308384088087,-1.2451577472193802,-0.6215554167934442,-2.8725589673733527,-2.4447172182060677,2.7640280561157584,2.6537018182920504
3,61,0.521308384088087,-1.2451577472193802,-0.6215554167934442,-2.8725589673733527,-2.4447172182060677,2.7640280561157584,2.6537018182920504
3,62,0.521308384088087,-1.2451577472193802,-0.6215554167934442,-2.8725589673733527,-2.4447172182060677,2.7640280561157584,2.6537018182920504
3,63,0.521308384088087,-1.2451577472193802,-0.6215554167934442,-2.8725589673733527,-2.4447172182060677,2.7640280561157584,2.6537018182920504
3,64,0.521308384088087,-1.2451577472193802,-0.6215554167934442,-2.8725589673733527,-2.4447172182060677,2.7640280561157584,2.6537018182920504
3,65,0.521308384088087,-1.2451577472193802,-0.6215554167934442,-2.8725589673733527,-2.4447172182060677,2.7640280561157584,2.6537018182920504
3,66,0.521308384088087,-1.2451577472193802,-0.6215554167934442,-2.8725589673733527,-2.4447172182060677,2.7640280561157584,2.6537018182920504
3,67,0.5213135457901021,-1.2451539496620867,-0.6215580159015103,-2.8725560331398525,-2.44472053535702,2.7640248618038417,2.6537040006897867
3,68,0.5291785067346984,-1.2393675560054904,-0.6255183149212031,-2.8680850985886805,-2.449774926836992,2.7591576419609396,2.6570293520776653
3,69,0.5369869910115866,-1.233622713252207,-0.6294501758477721,-2.8636462688994104,-2.4547930237708004,2.754325372623153,2.660330824800835
3,70,0.5448336187067702,-1.2278498076979487,-0.6334012433976347,-2.8591857561111453,-2.459835633447877,2.749469498285455,2.6636484247838674
3,71,0.5526653372193401,-1.2220878710983119,-0.6373448036220694,-2.8547337186325668,-2.4648686617874103,2.744622850474115,2.6669597210774802
3,72,0.5604763304742465,-1.2163411824446366,-0.6412779279119603,-2.8502934626836383,-2.4698883711077526,2.7397890284588664,2.6702622546111985
3,73,0.5720403653807412,-1.2076959047536935,-0.6473015991674543,-2.8434421424998995,-2.4772255649176698,2.7329450619235,2.675128810956687
3,74,0.5903780959735089,-1.1938162676205606,-0.6571025342442732,-2.832233490379453,-2.4887435401111566,2.7224795032445295,2.682817732833969
3,75,0.6089450180690197,-1.1797462356469317,-0.667060877975552,-2.8208360415823273,-2.5003834528370548,2.7119429452148296,2.69059640405125
3,76,0.6322862808518727,-1.1617532934781807,-0.6802090094559546,-2.80563020721321,-2.5146197466390374,2.699774543962422,2.700260891990481
3,77,0.6566448844067913,-1.1429122485674565,-0.6941542546259094,-2.7894478617417424,-2.5293008619305697,2.6874948378483534,2.710293466462454
3,78,0.6834778686227506,-1.1220230800643793,-0.7099869048637163,-2.770962336696146,-2.5451041284474476,2.6748483909961958,2.721233480382128
3,79,0.7132161030444791,-1.098819258450173,-0.7281709566145178,-2.749587548397172,-2.5620253134282396,2.6621216002293595,2.7331779154329947
3,80,0.741733325740724,-1.0766053969788962,-0.7460721806459467,-2.728453160832225,-2.5777686923447916,2.650907546889809,2.7444868754353453
3,81,0.7683228219073871,-1.0559631280039663,-0.7631420590061996,-2.708234120609769,-2.5920278946127655,2.6412850771075056,2.7549062654755625
3,82,0.7923894846713809,-1.037415789172603,-0.7790031360273445,-2.689390036357433,-2.6044411177232716,2.6335153541048455,2.76419189361911
3,83,0.8146232874960615,-1.0204412563042768,-0.7939502127052942,-2.6716131733114463,-2.6155210957596218,2.627039288937543,2.7726575672289275
3,84,0.8360476045815008,-1.004162291459636,-0.8084953352779977,-2.6543055029412668,-2.626009979772771,2.6211386671122243,2.7807604482043033
3,85,0.8528002883982951,-0.9916684634968275,-0.8201777571977459,-2.6404157489985165,-2.633770988297031,2.617284707725124,2.786968407215319
3,86,0.8694839003063733,-0.9792282424632499,-0.831814759781245,-2.626580095762482,-2.6414960774918086,2.6134533986729824,2.793149631448552
3,87,0.8780672979869822,-0.9729267567165185,-0.8379022956897769,-2.6193588696373284,-2.6453175163073515,2.6117337075762164,2.7962845245806762
3,88,0.8850107937345133,-0.9678688175042576,-0.8428670953730424,-2.6134759635922555,-2.6483474940722918,2.6104434246153,2.798802339764902
3,89,0.8919383793014212,-0.9628224679478953,-0.8478205188183737,-2.607606537514791,-2.6513705290096885,2.609156098181716,2.801314385680186
3,90,0.8988519028714999,-0.9577863617513263,-0.852763887530478,-2.601749025523424,-2.6543874276233552,2.607871384834619,2.8038213325055565
3,91,0.9057843486004697,-0.9527364718450934,-0.8577207861318321,-2.5958754816531626,-2.657412583420837,2.6065831552559158,2.8063351407881387
3,92,0.9083799718073111,-0.9508457089101833,-0.8595767315725397,-2.5936763289483182,-2.6585452521641986,2.6061008206339156,2.8072763525005584
3,93,0.9083799718073111,-0.9508457089101833,-0.8595767315725397,-2.5936763289483182,-2.6585452521641986,2.6061008206339156,2.8072763525005584
3,94,0.9083799718073111,-0.9508457089101833,-0.8595767315725397,-2.5936763289483182,-2.6585452521641986,2.6061008206339156,2.8072763525005584
3,95,0.9083799718073111,-0.9508457089101833,-0.8595767315725397,-2.5936763289483182,-2.6585452521641986,2.6061008206339156,2.8072763525005584
3,96,0.9083799718073111,-0.9508457089101833,-0.8595767315725397,-2.5936763289483182,-2.6585452521641986,2.6061008206339156,2.8072763525005584
3,97,0.9083799718073111,-0.9508457089101833,-0.8595767315725397,-2.5936763289483182,-2.6585452521641986,2.6061008206339156,2.8072763525005584
3,98,0.9083799718073111,-0.9508457089101833,-0.8595767315725397,-2.5936763289483182,-2.6585452521641986,2.6061008206339156,2.8072763525005584
3,99,0.9083799718073111,-0.9508457089101833,-0.8595767315725397,-2.5936763289483182,-2.6585452521641986,2.6061008206339156,2.8072763525005584
3,100,0.9083799718073111,-0.9508457089101833,-0.8595767315725397,-2.5936763289483182,-2.6585452521641986,2.6061008206339156,2.8072763525005584
3,101,0.9083799718073111,-0.9508457089101833,-0.8595767315725397,-2.5936763289483182,-2.6585452521641986,2.6061008206339156,2.8072763525005584
3,102,0.9083799718073111,-0.9508457089101833,-0.8595767315725397,-2.5936763289483182,-2.6585452521641986,2.6061008206339156,2.8072763525005584
3,103,0.9083799718073111,-0.9508457089101833,-0.8595767315725397,-2.5936763289483182,-2.6585452521641986,2.6061008206339156,2.8072763525005584
3,104,0.9083799718073111,-0.9508457089101833,-0.8595767315725397,-2.5936763289483182,-2.6585452521641986,2.6061008206339156,2.8072763525005584
3,105,0.9083799718073111,-0.9508457089101833,-0.8595767315725397,-2.5936763289483182,-2.6585452521641986,2.6061008206339156,2.8072763525005584
3,106,0.9083799718073111,-0.9508457089101833,-0.8595767315725397,-2.5936763289483182,-2.6585452521641986,2.6061008206339156,2.8072763525005584
3,107,0.9083786280436715,-0.9508449229903952,-0.8595741323958738,-2.5936737890373753,-2.658540801452685,2.6061033556174795,2.8072737997514876
3,108,0.9050946197257103,-0.9489242227680478,-0.8532220347951762,-2.5874665302471453,-2.6476637593883177,2.6122985724439367,2.801035166009965
3,109,0.8985423300102473,-0.9450920204424497,-0.8405482594112861,-2.575081738859744,-2.6259617647669233,2.62465933757204,2.788587774972754
3,110,0.8952567917344602,-0.9431704254019252,-0.8341932024875619,-2.5688715882241704,-2.6150796552928486,2.630857440633716,2.7823462347688874
3,111,0.8855722025066617,-0.9368792489447042,-0.8164138308332248,-2.55051244937614,-2.5833938943622825,2.6486894181267524,2.763944142865196
3,112,0.877464481374695,-0.931169602565735,-0.802202426812835,-2.5351045652561,-2.557143281813504,2.6633087522521146,2.748535309220793
3,113,0.8572368114599169,-0.9155876003404405,-0.7696095278883122,-2.497180429942563,-2.4931992107325818,2.6982308866232025,2.710278132965111
3,114,0.8446890217518698,-0.9051741754165655,-0.7515133731450938,-2.4743599579283124,-2.454800133755124,2.718622423889263,2.6867351903250127
3,115,0.8152098786301452,-0.87970529327978,-0.7135680370397164,-2.423101763578361,-2.367502945999388,2.763452365018125,2.631859057238974
3,116,0.7979162367018052,-0.8645173556296791,-0.694316027235617,-2.3951923041348513,-2.318195843062041,2.787451601445984,2.5998331677912003
3,117,0.7618649042989523,-0.8331839791450532,-0.6586842952688086,-2.34133826313929,-2.217785402171831,2.8334745597298703,2.5326653649307103
3,118,0.7458054747564934,-0.8197045586930507,-0.6448356648531973,-2.319841733290581,-2.1734588390578917,2.8518250185602154,2.5017994216221506
3,119,0.7123169466052665,-0.7924014859815439,-0.6177729840559829,-2.2779006696209296,-2.07940224372444,2.8875684988576658,2.434469551982272
3,120,0.6948312211357603,-0.7785762918178315,-0.6043858886083674,-2.257358483075426,-2.0282543983353194,2.9049105239821946,2.3966808527478984
3,121,0.6631733753029395,-0.7542681993181797,-0.5809028032399579,-2.2220169475142826,-1.9248053200199438,2.9333905945208487,2.316634357944839
3,122,0.6518782668390454,-0.7455326246564914,-0.5722567028169133,-2.2090311219133296,-1.8794541973797807,2.9425231555247064,2.2797312680410475
3,123,0.6351145874375916,-0.7315256546549592,-0.55816102210158,-2.186680650706769,-1.7957131767864345,2.9553079406984186,2.209465475280088
3,124,0.630165597576573,-0.726554398362505,-0.5529858462413154,-2.177612996236426,-1.7578056012812382,2.9584649746821468,2.1762879363330216
3,125,0.624374830038291,-0.7194900406811523,-0.5456290184348092,-2.1634675873103624,-1.698736878245608,2.961710582342232,2.1237804367132016
3,126,0.625013662655636,-0.7184193168980801,-0.5445106785274532,-2.1597851641883508,-1.683433748343936,2.9606875533090515,2.1092759699347092
3,127,0.6262884675538605,-0.7162826634363664,-0.5422790060156418,-2.1524368057830063,-1.6528960074284922,2.9586460757966098,2.0803319792972204
3,128,0.6269247497477106,-0.7152162143240275,-0.5411651308777694,-2.1487690840682077,-1.637653972500663,2.957627131021514,2.065885418974736
3,129,0.6282002981808118,-0.7130783146509362,-0.5389321567343529,-2.141416439704464,-1.6070984203299763,2.9555844628094348,2.0369245466430046
3,130,0.6287802364142997,-0.712106301572003,-0.5379169172918108,-2.1380735015038286,-1.5932060956723904,2.954655747471174,2.0237572558491146
3,131,0.6303255460597845,-0.7120029656734771,-0.5349947903210648,-2.1385468966714116,-1.5807669294697018,2.954782507216523,2.0131798987641956
3,132,0.6318628255929782,-0.7119001667539774,-0.5320878480142939,-2.1390178318683573,-1.5683924026755025,2.9549086082621785,2.002657506304253
3,133,0.6349385838033612,-0.7116944887274101,-0.5262716958610251,-2.1399600696119085,-1.5436336964252524,2.955160908717716,1.9816045134667661
3,134,0.6364761196368587,-0.7115916726689363,-0.5233642688992645,-2.1404310833247204,-1.5312571065092144,2.9552870307873533,1.9710803666789176
3,135,0.6418510849250899,-0.7112322451139292,-0.5132003958648501,-2.1420776676198554,-1.4879906409504555,2.9557279322165164,1.9342897290621917
3,136,0.6455623829740866,-0.7109840681095914,-0.506182459908042,-2.1432145986983544,-1.458116076073395,2.956032365180472,1.9088865842442577
3,137,0.6546376073399129,-0.7103772017337113,-0.48902152522906894,-2.1459947323576944,-1.3850639052395162,2.956776794061089,1.8467683615155164
3,138,0.6599265735172711,-0.7100235249972671,-0.4790202735321169,-2.147614971406346,-1.3424897004432257,2.957210641094762,1.810566371816279
3,139,0.6717852892803464,-0.70923052467379,-0.45659585311194884,-2.151247808846004,-1.2470314621811778,2.9581833961634194,1.7293956682222777
3,140,0.6783710147487145,-0.7087901327687063,-0.4441424745484512,-2.153265301340705,-1.1940188288195288,2.9587236146793305,1.6843176023823943
3,141,0.6927319282095731,-0.707829808797088,-0.416986485021603,-2.1576646701366706,-1.0784188324796404,2.9599016217788088,1.5860198209733765
3,142,0.7007427011100812,-0.7072941230088187,-0.4018383911638498,-2.1601187162825597,-1.0139350988715796,2.960558735086735,1.531187570529305
3,143,0.7178798478709841,-0.7061481504434599,-0.3694326407060148,-2.165368565389811,-0.8759874600785461,2.961964473001957,1.4138869885803347
3,144,0.7269999683371648,-0.7055382818350604,-0.35218680905761557,-2.1681624526661123,-0.8025738923843082,2.962712584651438,1.3514614603956572
3,145,0.7463265736514147,-0.7042458986991363,-0.31564086837398425,-2.1740830276060836,-0.6470019289657502,2.9642979210112075,1.2191744419036643
3,146,0.7564585157005348,-0.7035683688988673,-0.29648171718750466,-2.1771868795870124,-0.5654435749664338,2.965129031072409,1.1498231831896726
3,147,0.7777619222862383,-0.7021437957282859,-0.25619771382627504,-2.183713034238411,-0.3939590987145133,2.9668765218757924,1.0040053276934717
3,148,0.7885879844441215,-0.7014198496480605,-0.23572600557611573,-2.187029525224196,-0.3068133367657551,2.967764569708971,0.9299029459462027
3,149,0.8102074236956534,-0.6999741431599059,-0.1948443953992215,-2.193652494347204,-0.13278491544288729,2.9695379842619145,0.7819219056366971
3,150,0.8210114365526735,-0.6992516715313046,-0.1744143816126448,-2.1969622306786665,-0.045816642141073075,2.97042422341955,0.70797044725251
3,151,0.8426068700313656,-0.6978075703253751,-0.13357816552001958,-2.2035778457953823,0.12801854166525506,2.972195668810092,0.5601537219928509
3,152,0.8534124627095977,-0.6970849930530637,-0.11314516434629635,-2.2068880660943972,0.21499953193850813,2.9730820375584113,0.48619145002632563
3,153,0.8750306442394742,-0.6956393706696047,-0.07226593247745307,-2.213510649922876,0.3890178290712146,2.974855348942079,0.3382190185876068
3,154,0.8858413850548132,-0.6949164491378916,-0.051823196354923336,-2.216822447318905,0.47604025992777954,2.9757421399854067,0.2642215085801749
3,155,0.9074540522582667,-0.6934711955011607,-0.010954391886189144,-2.223443341870746,0.6500141687897789,2.9775149990360323,0.11628682168011734
3,156,0.9182578212945297,-0.6927487401770179,0.00947516084378782,-2.226753003509367,0.7369804794254494,2.9784012181933672,0.04233703220366073
3,157,0.9398800457497442,-0.6913028474404141,0.050362037744295374,-2.2333768258607027,0.9110313205990033,2.980174861212955,-0.10566307230698413
3,158,0.9506852654358195,-0.6905802951103398,0.07079433360278024,-2.2366869318960907,0.9980093084245311,2.9810611993652123,-0.17962279121157596
3,159,0.9723035192709111,-0.6891346678917822,0.1116737021982786,-2.243309537874783,1.172028187587247,2.982834516679983,-0.3275957175660426
3,160,0.9831073752854919,-0.6884122067513407,0.1321034194012392,-2.2466192261586237,1.2589951983659298,2.9837207429720363,-0.40154610239290506
3,161,1.0045005178570903,-0.6869816328748427,0.1725571104010573,-2.253172870822917,1.4312020158302874,2.98547559470192,-0.547978184021035
3,162,1.0147294647535303,-0.6862976162949898,0.19189969439110108,-2.2563064395833194,1.5135412226650224,2.9863146619448937,-0.6179934228713485
3,163,1.0341943015716013,-0.6849959895251483,0.22870702605660018,-2.2622693608103974,1.6702258981251472,2.9879113372555817,-0.7512266102949696
3,164,1.043379640368577,-0.6843817597229694,0.24607618330770967,-2.2650832272816306,1.744164449054035,2.9886647986801242,-0.8140985458228731
3,165,1.0605948840101562,-0.6832305647665123,0.27862961225963917,-2.270357000840543,1.882740738604204,2.9900769427811458,-0.9319336863935048
3,166,1.0686385202146782,-0.6826926813869325,0.2938398494860614,-2.272821114437545,1.9474890095506514,2.9907367518232637,-0.9869908800407473
3,167,1.0834436956761195,-0.6817026493156171,0.3218359230554659,-2.277356579895323,2.0666651492731516,2.9919512011582685,-1.0883295522079075
3,168,1.0901945803547095,-0.6812512131027222,0.33460161196017374,-2.279424667798025,2.121007252668109,2.9925049674699182,-1.1345381021209895
3,169,1.1029265109892052,-0.6803998203116849,0.35867725143180457,-2.2833250087128603,2.223494544911664,2.9935493512215774,-1.221685799085776
3,170,1.1086309033885682,-0.6800183637435108,0.36946405971362756,-2.2850725107774124,2.2694127758295615,2.9940172751292713,-1.2607313040024475
3,171,1.1187467859175384,-0.6793419078541886,0.38859284290421464,-2.288171443032864,2.3508418566823197,2.9948470678488706,-1.3299726382881976
3,172,1.1232624577725918,-0.6790399418307744,0.3971318218442898,-2.2895547885913543,2.387191330644341,2.9952174825525497,-1.3608815721894227
3,173,1.1306180070290892,-0.6785480712896222,0.41104091050484587,-2.2918081114015236,2.4464007583347516,2.995820848715039,-1.41122893866643
3,174,1.1328085090180997,-0.6784015909438101,0.41518307383131103,-2.2924791568837084,2.4640334822281376,2.9960005327512604,-1.4262225173324836
3,175,1.1358822817276506,-0.678196045689023,0.42099547147133476,-2.2934207863824967,2.488776205937337,2.9962526703387407,-1.4472619197860925
3,176,1.137422851032417,-0.6780930267802788,0.42390863462210804,-2.293892729378733,2.5011772141655197,2.99637904124009,-1.4578068301205291
3,177,1.1404993489224122,-0.6778872992908369,0.4297261854838826,-2.2948351937181353,2.525941874560729,2.996631402370587,-1.4788648859273774
3,178,1.1408932658612425,-0.6778609609266704,0.4304710906695408,-2.294955879736716,2.5291128372175566,2.996663705892371,-1.481561237918731
3,179,1.1293025183319636,-0.6829680781500694,0.43890345814907883,-2.308341377041412,2.544194354075333,2.983282298641408,-1.49062559636866
3,180,1.1233733999667956,-0.6855805673312746,0.4432169422240687,-2.315188579751651,2.5519091367802584,2.9764371881528002,-1.4952623684162074
3,181,1.105227863730074,-0.6935358101852666,0.45686849965602483,-2.33713307815141,2.5764178444425423,2.9545084518923694,-1.510154088827997
3,182,1.091359744318622,-0.6995623076171607,0.4676431709916663,-2.3546130502006015,2.595801582736691,2.937028926348548,-1.5220454579833234
3,183,1.0577378154359383,-0.7135099309370563,0.495783930190484,-2.400589325488939,2.6462594550322867,2.8907037569163614,-1.553597709525361
3,184,1.0390977072304186,-0.7205302402980366,0.512760955008354,-2.4281230522877153,2.676341279075742,2.8625243864061383,-1.5727683804381105
3,185,1.0095917661288625,-0.7296543909658965,0.5423121098339866,-2.4748611423737032,2.727585691411738,2.813389822832857,-1.6060838158641413
3,186,0.9985673879076804,-0.7321572126334414,0.5543235461991318,-2.4932457542886235,2.747924643442301,2.7934606907852064,-1.6195447992130927
3,187,0.9801214010799706,-0.7349768765334759,0.5756404723953904,-2.524925285479848,2.783323844038231,2.7581971903241542,-1.64328919435118
3,188,0.9754446123134665,-0.7352933725418787,0.5813544144250348,-2.5331420771192463,2.792619350746015,2.748777502873823,-1.649611650621996
3,189,0.9686448073554876,-0.735456120327509,0.5898804604663426,-2.5452046004310334,2.8063525170980825,2.7347455975602943,-1.6590155488660232
3,190,0.9652368351713893,-0.7355376873621342,0.5941536018179963,-2.5512501773513496,2.813235398183153,2.7277129924644234,-1.66372865811486
3,191,0.965075135870263,-0.7355415575030219,0.5943563511166556,-2.551537024047893,2.8135619727562626,2.7273793138814804,-1.663952282731054
3,192,0.965075135870263,-0.7355415575030219,0.5943563511166556,-2.551537024047893,2.8135619727562626,2.7273793138814804,-1.663952282731054
3,193,0.965075135870263,-0.7355415575030219,0.5943563511166556,-2.551537024047893,2.8135619727562626,2.7273793138814804,-1.663952282731054
3,194,0.965075135870263,-0.7355415575030219,0.5943563511166556,-2.551537024047893,2.8135619727562626,2.7273793138814804,-1.663952282731054
3,195,0.965075135870263,-0.7355415575030219,0.5943563511166556,-2.551537024047893,2.8135619727562626,2.7273793138814804,-1.663952282731054
3,196,0.965075135870263,-0.7355415575030219,0.5943563511166556,-2.551537024047893,2.8135619727562626,2.7273793138814804,-1.663952282731054
3,197,0.965075135870263,-0.7355415575030219,0.5943563511166556,-2.551537024047893,2.8135619727562626,2.7273793138814804,-1.663952282731054
3,198,0.965075135870263,-0.7355415575030219,0.5943563511166556,-2.551537024047893,2.8135619727562626,2.7273793138814804,-1.663952282731054
3,199,0.965075135870263,-0.7355415575030219,0.5943563511166556,-2.551537024047893,2.8135619727562626,2.7273793138814804,-1.663952282731054
3,200,0.965075135870263,-0.7355415575030219,0.5943563511166556,-2.551537024047893,2.8135619727562626,2.7273793138814804,-1.663952282731054
3,201,0.9711468820857616,-0.7432863726245678,0.5898234823715711,-2.557909848986177,2.8104706616518387,2.729429720440679,-1.660319971945826
3,202,0.9771980394056943,-0.751004925582964,0.5853059842888784,-2.5642610640905743,2.80738983298183,2.731473174204913,-1.65669997808966
3,203,0.9893131448873969,-0.7664583468564532,0.5762614391065989,-2.5769769193986654,2.8012216634342857,2.735564401154033,-1.6494523384908515
3,204,0.995356346540127,-0.7741667519645496,0.5717498803359145,-2.5833197843394444,2.79814488523699,2.7376051683184595,-1.6458371039666404
3,205,1.0074611521265762,-0.789607035207944,0.5627130245516457,-2.5960248290129995,2.7919819596801267,2.7416929170305067,-1.638595626091212
3,206,1.016036412200237,-0.8005088040361267,0.5564683527922137,-2.604750245134416,2.787587128146127,2.7450007958935174,-1.6337038849746965
3,207,1.0459410513861067,-0.8383956837506457,0.5352570325336934,-2.634188454703391,2.7721569211059496,2.758019536452537,-1.6175024045895143
3,208,1.0612683588654688,-0.8577932302070287,0.5244522960884892,-2.6491530121027855,2.764238596732896,2.76486197907935,-1.6092862814471118
3,209,1.1003939165013217,-0.9068837757661222,0.4982269683787658,-2.6848463998858594,2.743828484022242,2.785769532064083,-1.5900917608140959
3,210,1.1223378560890092,-0.9341699833062621,0.48408631080796233,-2.703795457137843,2.732352832116246,2.798836561176688,-1.5799820905024173
3,211,1.1713841416937492,-0.9945197012235318,0.45378017712584884,-2.7437137323928393,2.706714022790138,2.8309794828948442,-1.5588306576277973
3,212,1.198880480434734,-1.0278091622637333,0.43773888581234444,-2.7643287063513378,2.692429043328394,2.851004626290138,-1.5479677707037474
3,213,1.259019604672184,-1.099025099930371,0.40490395183139033,-2.8053960373379407,2.661802932108938,2.8989168409709896,-1.5264516166112383
3,214,1.2926081790835413,-1.1375290028519067,0.3881750181903027,-2.8255853512188907,2.6453926595163635,2.9282666258979893,-1.5160391935244353
3,215,1.3635911769970268,-1.2162034968154127,0.35599600469937764,-2.8631745039588337,2.6126838154876784,2.994647141817688,-1.4972841251685522
3,216,1.3995908396050878,-1.2549062388453096,0.34106081313918596,-2.8801376012418154,2.5971406172772205,3.03000300239386,-1.4892335378319057
3,217,1.4687838771075536,-1.3258900188983138,0.31644858903816775,-2.9070911452819392,2.571177413277611,3.102152436207952,-1.4783410013730895
3,218,1.5006397814416828,-1.3571473218728853,0.30714822036768996,-2.9170287486402393,2.5615614309387524,3.1371293550638,-1.475735316855184
3,219,1.5613067058792192,-1.4159070251972445,0.2911349415843081,-2.9342025156537814,2.545452298466157,3.2050424410092417,-1.472835098554868
3,220,1.5893987926010615,-1.4425289584467174,0.2850194347629511,-2.9408147863683634,2.5396789363696093,3.2374863899523643,-1.4730698329551903
3,221,1.6387400730006982,-1.4889864456977862,0.2762778950936039,-2.9507133720171237,2.532227616557055,3.2959276696779813,-1.4758056449351975
3,222,1.6606308910723047,-1.5094552823576317,0.27334484683718985,-2.9542942405256887,2.5301927821528847,3.3225441605736687,-1.4781176598695136
3,223,1.6967008346265045,-1.5432373613584012,0.26901315179069674,-2.9598297972490584,2.527488438976893,3.366765376953479,-1.4824453487376907
3,224,1.7055034373104239,-1.551561675885121,0.2686832608317046,-2.960651465905909,2.5277695094289654,3.3780864418646117,-1.4842533668923212
3,225,1.7230981314259455,-1.568200364813634,0.26802387283892976,-2.962293822059051,2.528331314704826,3.400715053120374,-1.4878672442338658
3,226,1.7319160886217946,-1.5765391995670748,0.2676934064461884,-2.963116923964867,2.528612875432305,3.4120558655348843,-1.4896784161416896
3,227,1.749527227999706,-1.5931934402069992,0.2670334021421275,-2.9647608151818017,2.529175205811649,3.43470562711285,-1.493295671272057
3,228,1.7583421195236995,-1.601529375861426,0.2667030506401139,-2.9655836309260626,2.52945666865106,3.4460424967536922,-1.4951062135035715
3,229,1.7654133232023674,-1.6082163667000857,0.26643804649911745,-2.9662436841668596,2.529682454874297,3.4551368020086914,-1.49655860946931
4,0,1.2682594119394148e-06,-0.7853992975733218,-1.558728683107812e-06,-2.3561958638986344,-6.765838313320669e-06,1.570799691503532,0.7854035129782172
4,1,0.0019714570507630962,-0.7871611931071106,-0.0024229795762685563,-2.3583298600737557,-0.010517217157270593,1.5760266278678046,0.793713866498981
4,2,0.003937595434474187,-0.7889194664524256,-0.004839422351933218,-2.3604594690782412,-0.021006060591486197,1.5812428184481824,0.802007135200493
4,3,0.0059041860853904565,-0.7906781442501324,-0.007256420977496177,-2.3625895679527793,-0.03149731675511335,1.5864602088993094,0.810302311587389
4,4,0.007870056895860034,-0.7924361783107143,-0.009672534897658208,-2.364718887137185,-0.04198473275478993,1.5916756896044142,0.8185944516517677
4,5,0.009836578352902341,-0.7941947942298956,-0.012089448481884178,-2.366848911064863,-0.05247561978686631,1.596892896483298,0.8268893361754897
4,6,0.014302650645131542,-0.7981887022552578,-0.01757838467048725,-2.371686305953754,-0.07630096871813657,1.6087414440804622,0.8457274494368383
4,7,0.019092063077264274,-0.8024717660970024,-0.023464715544848674,-2.37687392444804,-0.10185125427215061,1.6214478172538906,0.865929427360217
4,8,0.024941982683251637,-0.8077032176574104,-0.03065444139894929,-2.3832102238518056,-0.13305907329358418,1.6369677296860579,0.8906046768628102
4,9,0.03123720359235957,-0.8133328921600068,-0.03839145584973999,-2.390028848239759,-0.16664246042770975,1.6536690322390888,0.917158229230811
4,10,0.03845416376439571,-0.819786857358906,-0.047261315374612034,-2.39784584804746,-0.20514308985572466,1.6728157209870507,0.9475997232836535
4,11,0.04633361660307882,-0.8268332748525583,-0.0569453981665301,-2.4063804221418876,-0.2471779475528912,1.6937200113544926,0.9808356440883474
4,12,0.05487031113462813,-0.8344674488131869,-0.0674372506219418,-2.415626882967609,-0.2927190209223751,1.7163679724400096,1.01684384277843
4,13,0.06401928726981551,-0.8426491724439825,-0.0786816154488331,-2.4255365323192204,-0.34152645943248977,1.7406403245449458,1.0554346754794406
4,14,0.07383805679602186,-0.8514298772431707,-0.09074917635099801,-2.436171663685972,-0.39390707370168304,1.766689647185617,1.0968507297478838
4,15,0.08433828702681216,-0.8608199970269176,-0.10365427280515345,-2.4475449144367447,-0.4499231058520226,1.7945468938959255,1.1411412188879806
4,16,0.09550606343140398,-0.8708070883432311,-0.11737980343752809,-2.4596412131450847,-0.5095003254346007,1.8241751492456044,1.1882474507224206
4,17,0.10727742463070938,-0.8813339519690497,-0.1318471578035576,-2.472391280491707,-0.5722975149152661,1.8554047228680601,1.23789963299869
4,18,0.11961040735843567,-0.8923630610989278,-0.14700476179609043,-2.485749664258957,-0.6380908110432026,1.8881242856746732,1.2899207625893172
4,19,0.13246895740550127,-0.9038621732644104,-0.16280830371571145,-2.499677312583067,-0.706687873870554,1.9222381853820887,1.3441587610616694
4,20,0.14586107511280944,-0.9158384429904692,-0.17926761622025328,-2.514182890977191,-0.7781313831618016,1.9577676469982739,1.4006473742483718
4,21,0.1597391434874139,-0.9282492874710436,-0.19632417660370638,-2.5292148234292915,-0.8521673144861324,1.9945863420246197,1.4591857513240025
4,22,0.17411122185265446,-0.9411019139777721,-0.2139878900150789,-2.544781839338935,-0.928838662264182,2.0327156519502605,1.519807886912014
4,23,0.18887639345130602,-0.9543060749239154,-0.2321347267467163,-2.5607746314281243,-1.0076070615084238,2.07188784331208,1.5820881091517243
4,24,0.20411162072212793,-0.9679305960878535,-0.25085927593368573,-2.5772765610227695,-1.0888830870680897,2.1123070984562555,1.6463510494067457
4,25,0.21978878562685433,-0.9819503321402365,-0.27012697966745114,-2.594257172266876,-1.1725167364288651,2.1538988198633278,1.7124781044044752
4,26,0.2359518273166711,-0.9964045768759399,-0.2899918404766909,-2.611764057543966,-1.2587424136801255,2.196779578670112,1.7806546116523438
4,27,0.2517255062115379,-1.01051062321946,-0.30937816278591246,-2.6288492072397727,-1.342890940396524,2.23862735294224,1.8471887674219827
4,28,0.2669842565601784,-1.0241561805429433,-0.3281316225378385,-2.645376615691222,-1.4242924555363607,2.279109015116336,1.9115509291797488
4,29,0.28184501990701966,-1.0374458270399851,-0.34639594438203963,-2.6614729473122094,-1.5035708122122213,2.318534812623378,1.9742343621293217
4,30,0.2962211087522398,-1.0503020400287784,-0.3640645867930461,-2.677044307145123,-1.580263554871196,2.3566747624043143,2.034873414119743
4,31,0.3102694621335568,-1.0628651665617708,-0.3813304325338696,-2.692260682608269,-1.655207912982471,2.3939452257575247,2.094130061754662
4,32,0.32373448305534547,-1.0749066319932137,-0.3978793452656455,-2.706845225607987,-1.7270403422037055,2.4296681005453378,2.1509261842967082
4,33,0.33669167615014317,-1.086493958418163,-0.4138041224360691,-2.7208797184576,-1.796163640362256,2.4640437015351564,2.205580264010928
4,34,0.3491282053789217,-1.0976156668555515,-0.4290889881699351,-2.734350257891435,-1.8625093304858016,2.4970379745492983,2.258038157851438
4,35,0.36098574792825433,-1.108219600524797,-0.44366226198822467,-2.7471936719630676,-1.9257662753401852,2.528496188408851,2.308053857313861
4,36,0.3723142831268508,-1.1183504548157135,-0.45758536997813193,-2.7594640954319534,-1.9862011018109442,2.558550938919779,2.355838177672413
4,37,0.3830153273867321,-1.1279201580701057,-0.4707372728696518,-2.7710548564903026,-2.0432884252437185,2.58694094784847,2.4009757102943334
4,38,0.3930803891817944,-1.1369211165071225,-0.4831075343236749,-2.7819567576011557,-2.096982945527101,2.61364368706626,2.4434306375035875
4,39,0.40250849638362923,-1.1453524607741872,-0.494694959565363,-2.792168745810443,-2.147279476605647,2.6386565775038995,2.483198858814589
4,40,0.4111781164438463,-1.153105507046096,-0.5053501814642033,-2.8015591839905163,-2.193529673539452,2.661657191737472,2.5197677439424444
4,41,0.41918399465180517,-1.1602649839046493,-0.5151896448095851,-2.8102306948372275,-2.236238978119622,2.682896890245969,2.5535369331919124
4,42,0.42651802086134993,-1.1668236386285067,-0.5242033819897417,-2.8181744939026325,-2.2753641247988456,2.702354156706666,2.5844722175663937
4,43,0.4333185178239293,-1.172905170143918,-0.532561395796042,-2.825540404505096,-2.3116430299391437,2.7203959631695147,2.6131570492556238
4,44,0.4392363390059657,-1.1781973445569294,-0.5398345747144129,-2.831950251024858,-2.3432130864337966,2.736096019361813,2.6381187109559017
