zelongjiang123/UMAP-research/panda_RRT_combined_interpolate_2.csv
horse_idx,layer_idx,panda-panda_joint1,panda-panda_joint2,panda-panda_joint3,panda-panda_joint4,panda-panda_joint5,panda-panda_joint6,panda-panda_joint7
1,0,-7.648307921734367e-06,-0.7853916017932514,4.6836076219021764e-06,-2.356189155387191,-2.214769289676083e-06,1.5707935934084252,0.7853975490710634
1,1,-0.0017331211653143865,-0.7839112913692395,0.001061314421779417,-2.3549856131676377,-0.0005018709460321391,1.5701769362061526,0.7852589558667225
1,2,-0.0034585940227070387,-0.7824309809452277,0.002117945235936932,-2.3537820709480837,-0.001001527122774602,1.5695602790038803,0.7851203626623816
1,3,-0.005184066880099691,-0.7809506705212159,0.0031745760500944465,-2.3525785287285297,-0.001501183299517065,1.568943621801608,0.7849817694580408
1,4,-0.006909539737492343,-0.779470360097204,0.004231206864251961,-2.351374986508976,-0.002000839476259528,1.5683269645993354,0.7848431762536998
1,5,-0.008631433282254892,-0.7779931204220449,0.005285645808510007,-2.3501739409116373,-0.002499459168622384,1.5677115865878095,0.7847048705464381
1,6,-0.010353326827017442,-0.7765158807468857,0.006340084752768052,-2.348972895314299,-0.00299807886098524,1.5670962085762836,0.7845665648391764
1,7,-0.012075220371779992,-0.7750386410717265,0.0073945236970260975,-2.3477718497169606,-0.003496698553348096,1.5664808305647577,0.7844282591319147
1,8,-0.013797113916542541,-0.7735614013965674,0.008448962641284143,-2.346570804119622,-0.003995318245710952,1.5658654525532316,0.784289953424653
1,9,-0.015519748236785258,-0.7720835261984207,0.009503855215511135,-2.345369241820695,-0.004494152449152703,1.5652498098000533,0.7841515882169204
1,10,-0.017242382557027973,-0.7706056510002741,0.010558747789738126,-2.3441676795217683,-0.004992986652594455,1.5646341670468753,0.7840132230091879
1,11,-0.018965016877270688,-0.7691277758021274,0.011613640363965116,-2.3429661172228418,-0.005491820856036206,1.5640185242936973,0.7838748578014553
1,12,-0.020687651197513403,-0.7676499006039808,0.012668532938192109,-2.3417645549239148,-0.005990655059477957,1.563402881540519,0.7837364925937227
1,13,-0.022409337461537605,-0.7661728387582417,0.013722844949583965,-2.340563653907883,-0.00648921472823581,1.5627875776079097,0.7835982035356372
1,14,-0.024131023725561807,-0.7646957769125027,0.014777156960975823,-2.3393627528918506,-0.006987774396993664,1.5621722736753005,0.7834599144775518
1,15,-0.025852709989586012,-0.7632187150667635,0.01583146897236768,-2.3381618518758183,-0.007486334065751518,1.5615569697426914,0.7833216254194664
1,16,-0.027574396253610214,-0.7617416532210245,0.01688578098375954,-2.336960950859786,-0.007984893734509372,1.5609416658100823,0.7831833363613809
1,17,-0.029296645564864353,-0.7602641083281716,0.01794043778936269,-2.3357596571101853,-0.008483616448443525,1.5603261606531373,0.7830450020782898
1,18,-0.031018894876118495,-0.7587865634353188,0.018995094594965845,-2.334558363360584,-0.00898233916237768,1.5597106554961924,0.7829066677951986
1,19,-0.03274114418737263,-0.757309018542466,0.020049751400569,-2.333357069610983,-0.009481061876311835,1.5590951503392474,0.7827683335121074
1,20,-0.034463393498626774,-0.7558314736496131,0.021104408206172154,-2.3321557758613825,-0.00997978459024599,1.5584796451823026,0.7826299992290163
1,21,-0.03627426741401036,-0.7542778963087535,0.02221333621471801,-2.3308926651713966,-0.010504170895858743,1.5578324669682009,0.7824845464521064
1,22,-0.038085141329393946,-0.7527243189678939,0.023322264223263868,-2.329629554481411,-0.011028557201471497,1.557185288754099,0.7823390936751966
1,23,-0.03989601524477753,-0.7511707416270343,0.024431192231809725,-2.3283664437914258,-0.011552943507084253,1.556538110539997,0.7821936408982868
1,24,-0.04170688916016112,-0.7496171642861748,0.025540120240355582,-2.32710333310144,-0.012077329812697006,1.5558909323258951,0.7820481881213769
1,25,-0.04593078276008376,-0.7459934192361768,0.02812671330919419,-2.3241571063574904,-0.013300469613512802,1.554381378351247,0.7817089170941334
1,26,-0.05015467636000641,-0.7423696741861789,0.0307133063780328,-2.3212108796135404,-0.014523609414328596,1.5528718243765987,0.78136964606689
1,27,-0.054378569959929055,-0.738745929136181,0.03329989944687141,-2.3182646528695905,-0.01574674921514439,1.5513622704019503,0.7810303750396465
1,28,-0.0586024635598517,-0.735122184086183,0.035886492515710015,-2.315318426125641,-0.016969889015960183,1.549852716427302,0.7806911040124029
1,29,-0.06282587668156112,-0.731498851246035,0.038472791353269656,-2.312372534522179,-0.018192889681636293,1.5483433341681052,0.7803518715780674
1,30,-0.06704928980327052,-0.7278755184058869,0.0410590901908293,-2.3094266429187167,-0.0194158903473124,1.5468339519089085,0.7800126391437319
1,31,-0.07127270292497992,-0.7242521855657389,0.04364538902838895,-2.306480751315255,-0.020638891012988506,1.5453245696497118,0.7796734067093964
1,32,-0.07549611604668932,-0.7206288527255909,0.0462316878659486,-2.303534859711793,-0.021861891678664615,1.5438151873905148,0.7793341742750609
1,33,-0.08046815100470064,-0.7163632653850763,0.04927642155920518,-2.3000667935736177,-0.023301675542610076,1.5420382593132795,0.7789348111358649
1,34,-0.08544018596271197,-0.7120976780445618,0.052321155252461775,-2.296598727435443,-0.02474145940655554,1.5402613312360445,0.7785354479966689
1,35,-0.09041222092072329,-0.7078320907040474,0.05536588894571837,-2.2931306612972677,-0.026181243270501003,1.5384844031588094,0.7781360848574729
1,36,-0.0953842558787346,-0.7035665033635329,0.05841062263897495,-2.2896625951590925,-0.027621027134446464,1.5367074750815743,0.7777367217182769
1,37,-0.10085640901560275,-0.6988718567363263,0.06176161457108844,-2.2858456893736046,-0.02920563340814261,1.5347518125341573,0.7772971881523716
1,38,-0.10632856215247088,-0.6941772101091197,0.06511260650320193,-2.2820287835881166,-0.030790239681838756,1.5327961499867402,0.7768576545864663
1,39,-0.11180071528933903,-0.6894825634819131,0.06846359843531541,-2.2782118778026286,-0.0323748459555349,1.530840487439323,0.776418121020561
1,40,-0.11727286842620718,-0.6847879168547064,0.0718145903674289,-2.274394972017141,-0.03395945222923105,1.5288848248919058,0.7759785874546555
1,41,-0.12344478187219783,-0.6794929348032328,0.07559409573687371,-2.270089973317303,-0.03574669255723542,1.5266790788774345,0.7754828478330615
1,42,-0.12961669531818848,-0.6741979527517593,0.07937360110631853,-2.265784974617465,-0.03753393288523979,1.524473332862963,0.7749871082114674
1,43,-0.13578860876417911,-0.6689029707002858,0.08315310647576334,-2.261479975917627,-0.03932117321324416,1.5222675868484916,0.7744913685898734
1,44,-0.14196052221016975,-0.6636079886488122,0.08693261184520815,-2.2571749772177894,-0.041108413541248535,1.5200618408340203,0.7739956289682794
1,45,-0.14850630506752774,-0.6579922581228002,0.09094106427622459,-2.252609199207948,-0.04300391761845325,1.5177224796981976,0.773469859456905
1,46,-0.15505208792488573,-0.6523765275967882,0.09494951670724104,-2.2480434211981066,-0.04489942169565797,1.515383118562375,0.7729440899455307
1,47,-0.16159787078224375,-0.6467607970707763,0.0989579691382575,-2.2434776431882653,-0.04679492577286269,1.5130437574265523,0.7724183204341564
1,48,-0.16814365363960174,-0.6411450665447642,0.10296642156927394,-2.238911865178424,-0.04869042985006741,1.5107043962907294,0.771892550922782
1,49,-0.17539765081048797,-0.6349217477705462,0.10740856443100058,-2.233852097464154,-0.05079101606153794,1.5081119303579702,0.7713098963142868
1,50,-0.1826516479813742,-0.6286984289963282,0.11185070729272723,-2.2287923297498837,-0.05289160227300847,1.5055194644252112,0.7707272417057918
1,51,-0.18990564515226044,-0.6224751102221102,0.11629285015445387,-2.2237325620356136,-0.054992188484479,1.502926998492452,0.7701445870972967
1,52,-0.19715964232314667,-0.6162517914478921,0.1207349930161805,-2.218672794321343,-0.05709277469594953,1.5003345325596928,0.7695619324888017
1,53,-0.20490250836831403,-0.609609064343098,0.12547650536055927,-2.213272033512048,-0.05933492578432041,1.497567352483503,0.7689400110187626
1,54,-0.21264537441348136,-0.6029663372383041,0.13021801770493802,-2.2078712727027536,-0.06157707687269129,1.4948001724073132,0.7683180895487236
1,55,-0.2203882404586487,-0.59632361013351,0.13495953004931677,-2.202470511893459,-0.06381922796106217,1.4920329923311235,0.7676961680786845
1,56,-0.22813110650381604,-0.5896808830287159,0.13970104239369552,-2.197069751084164,-0.06606137904943304,1.4892658122549336,0.7670742466086454
1,57,-0.23637547201562603,-0.5826079116086161,0.14474965883853455,-2.191319187159392,-0.0684487525358657,1.4863194040577588,0.7664120437642807
1,58,-0.24461983752743605,-0.5755349401885164,0.14979827528337358,-2.1855686232346194,-0.07083612602229836,1.483372995860584,0.7657498409199162
1,59,-0.25286420303924606,-0.5684619687684167,0.15484689172821262,-2.179818059309847,-0.073223499508731,1.480426587663409,0.7650876380755515
1,60,-0.2611085685510561,-0.5613889973483169,0.15989550817305165,-2.1740674953850743,-0.07561087299516366,1.4774801794662344,0.7644254352311868
1,61,-0.2699118369083775,-0.5538365343473002,0.16528638092528927,-2.1679270886596345,-0.07816009154207482,1.4743340280719537,0.7637183402658346
1,62,-0.278715105265699,-0.5462840713462835,0.1706772536775269,-2.1617866819341947,-0.08070931008898596,1.471187876677673,0.7630112453004825
1,63,-0.28751837362302046,-0.5387316083452669,0.17606812642976455,-2.1556462752087544,-0.08325852863589712,1.4680417252833922,0.7623041503351304
1,64,-0.2963216419803419,-0.5311791453442501,0.18145899918200217,-2.1495058684833146,-0.08580774718280829,1.4648955738891114,0.7615970553697783
1,65,-0.30560532253307726,-0.5232145291310593,0.18714406278574844,-2.1430303673184046,-0.08849608175220136,1.4615777306370932,0.760851372799132
1,66,-0.3148890030858126,-0.5152499129178685,0.1928291263894947,-2.136554866153494,-0.09118441632159442,1.4582598873850747,0.7601056902284857
1,67,-0.32417268363854795,-0.5072852967046777,0.19851418999324097,-2.130079364988584,-0.09387275089098748,1.4549420441330563,0.7593600076578394
1,68,-0.3334563641912833,-0.4993206804914868,0.20419925359698723,-2.123603863823674,-0.09656108546038056,1.451624200881038,0.7586143250871931
1,69,-0.3431528306537044,-0.491001928725033,0.21013709562605343,-2.116840438529552,-0.09936895307751939,1.4481588343555507,0.7578354867808973
1,70,-0.35284929711612545,-0.4826831769585792,0.21607493765511962,-2.11007701323543,-0.10217682069465822,1.4446934678300636,0.7570566484746015
1,71,-0.3625457635785465,-0.4743644251921254,0.2220127796841858,-2.103313587941308,-0.10498468831179705,1.4412281013045765,0.7562778101683056
1,72,-0.3722422300409676,-0.46604567342567166,0.227950621713252,-2.0965501626471856,-0.10779255592893587,1.4377627347790891,0.7554989718620099
1,73,-0.382398659926964,-0.4573323117714614,0.23417013234385703,-2.089465906227061,-0.11073361808731615,1.4341329844693456,0.7546831884339871
1,74,-0.3925550898129603,-0.44861895011725106,0.24038964297446203,-2.082381649806937,-0.11367468024569642,1.4305032341596022,0.7538674050059644
1,75,-0.4027115196989566,-0.4399055884630408,0.24660915360506705,-2.075297393386813,-0.1166157424040767,1.426873483849859,0.7530516215779416
1,76,-0.41286794958495293,-0.4311922268088305,0.2528286642356721,-2.0682131369666887,-0.11955680456245697,1.4232437335401154,0.7522358381499188
1,77,-0.4225501788376105,-0.42288568936955756,0.2587577877998378,-2.061459642331844,-0.12236054941998967,1.4197834551722908,0.7514581434029166
1,78,-0.43223240809026797,-0.4145791519302846,0.26468691136400363,-2.054706147696999,-0.12516429427752235,1.4163231768044662,0.7506804486559144
1,79,-0.4419146373429255,-0.40627261449101165,0.27061603492816944,-2.047952653062154,-0.12796803913505506,1.4128628984366416,0.7499027539089123
1,80,-0.45159686659558307,-0.3979660770517387,0.2765451584923352,-2.0411991584273097,-0.13077178399258774,1.409402620068817,0.7491250591619102
1,81,-0.4608172072028306,-0.3900558011784496,0.28219143450351936,-2.034767837788481,-0.13344177681011732,1.4061074135296332,0.7483844641740505
1,82,-0.4700375478100781,-0.38214552530516055,0.2878377105147035,-2.0283365171496524,-0.13611176962764687,1.4028122069904494,0.7476438691861906
1,83,-0.47925788841732564,-0.3742352494318715,0.2934839865258877,-2.021905196510824,-0.13878176244517643,1.3995170004512656,0.7469032741983308
1,84,-0.48847822902457316,-0.3663249735585824,0.2991302625370719,-2.015473875871995,-0.14145175526270598,1.3962217939120818,0.7461626792104711
1,85,-0.4972269614958375,-0.358819297755792,0.3044877390539307,-2.0093715087141257,-0.1439851815053767,1.3930951327965237,0.7454599646693997
1,86,-0.5059756939671018,-0.3513136219530017,0.3098452155707895,-2.003269141556257,-0.14651860774804742,1.389968471680966,0.7447572501283283
1,87,-0.5147244264383662,-0.3438079461502114,0.3152026920876483,-1.9971667743983876,-0.14905203399071815,1.3868418105654081,0.7440545355872569
1,88,-0.5234731589096306,-0.336302270347421,0.32056016860450703,-1.9910644072405186,-0.1515854602333889,1.3837151494498503,0.7433518210461855
1,89,-0.5317203547718368,-0.32922687072500145,0.32561051827593995,-1.985311869105498,-0.1539736533224318,1.3807677297293999,0.7426893908627878
1,90,-0.539967550634043,-0.3221514711025819,0.33066086794737287,-1.9795593309704775,-0.15636184641147466,1.3778203100089494,0.7420269606793901
1,91,-0.5482147464962492,-0.31507607148016237,0.3357112176188058,-1.973806792835457,-0.15875003950051753,1.374872890288499,0.7413645304959925
1,92,-0.5564619423584554,-0.30800067185774277,0.3407615672902387,-1.9680542547004365,-0.1611382325895604,1.3719254705680486,0.7407021003125949
1,93,-0.5641914327650034,-0.3013694199246335,0.34549488877153683,-1.9626628235921122,-0.16337651040897466,1.3691630707373748,0.7400812531988451
1,94,-0.5719209231715514,-0.2947381679915243,0.35022821025283496,-1.9572713924837877,-0.1656147882283889,1.366400670906701,0.7394604060850953
1,95,-0.5796504135780993,-0.2881069160584151,0.3549615317341331,-1.9518799613754634,-0.16785306604780315,1.3636382710760273,0.7388395589713456
1,96,-0.5873799039846473,-0.28147566412530584,0.3596948532154312,-1.946488530267139,-0.17009134386721741,1.3608758712453535,0.7382187118575958
1,97,-0.5947067670930444,-0.27518983251213436,0.3641816171180201,-1.941377937509875,-0.17221303033279828,1.3582573641581512,0.7376302045208334
1,98,-0.6020336302014415,-0.2689040008989628,0.36866838102060906,-1.9362673447526109,-0.17433471679837914,1.3556388570709492,0.737041697184071
1,99,-0.6093604933098387,-0.2626181692857913,0.37315514492319796,-1.9311567519953468,-0.17645640326396,1.3530203499837472,0.7364531898473086
1,100,-0.6166873564182358,-0.25633233767261976,0.37764190882578685,-1.9260461592380826,-0.17857808972954084,1.3504018428965452,0.7358646825105463
1,101,-0.6232123791716916,-0.25073441756772125,0.3816376483558763,-1.921494861700317,-0.18046758217109443,1.3480699010994484,0.7353405804895123
1,102,-0.6297374019251474,-0.24513649746282276,0.3856333878859658,-1.9169435641625512,-0.182357074612648,1.3457379593023515,0.7348164784684783
1,103,-0.6362624246786031,-0.23953857735792428,0.38962912741605527,-1.9123922666247855,-0.18424656705420156,1.3434060175052545,0.7342923764474443
1,104,-0.6427874474320588,-0.23394065725302576,0.39362486694614474,-1.9078409690870197,-0.18613605949575512,1.3410740757081576,0.7337682744264103
1,105,-0.6488884387656797,-0.22870652040220782,0.39736094161830915,-1.903585439584087,-0.18790276245548893,1.3388936761552117,0.7332782314014159
1,106,-0.6549894300993007,-0.22347238355138987,0.40109701629047356,-1.899329910081154,-0.18966946541522273,1.3367132766022658,0.7327881883764213
1,107,-0.6610904214329216,-0.2182382467005719,0.404833090962638,-1.895074380578221,-0.19143616837495653,1.3345328770493199,0.7322981453514268
1,108,-0.6671914127665426,-0.21300410984975396,0.40856916563480244,-1.8908188510752884,-0.19320287133469036,1.332352477496374,0.7318081023264322
1,109,-0.6727710881159041,-0.20821721821777378,0.41198600113115413,-1.886926946994857,-0.19481861350100815,1.3303583881800547,0.7313599323754899
1,110,-0.6783507634652657,-0.20343032658579357,0.41540283662750577,-1.8830350429144258,-0.19643435566732598,1.3283642988637352,0.7309117624245476
1,111,-0.6839304388146272,-0.19864343495381337,0.4188196721238574,-1.8791431388339945,-0.19805009783364377,1.3263702095474157,0.7304635924736053
1,112,-0.6895101141639889,-0.19385654332183316,0.42223650762020903,-1.875251234753563,-0.19966583999996157,1.3243761202310962,0.7300154225226629
1,113,-0.6944106371285337,-0.18965230725028637,0.42523744938967223,-1.8718330492628712,-0.20108491568000625,1.3226247494297296,0.7296218033604185
1,114,-0.6993111600930785,-0.1854480711787396,0.42823839115913537,-1.8684148637721791,-0.2025039913600509,1.320873378628363,0.729228184198174
1,115,-0.7042116830576233,-0.18124383510719283,0.4312393329285985,-1.864996678281487,-0.20392306704009555,1.3191220078269965,0.7288345650359296
1,116,-0.7091122060221681,-0.17703959903564603,0.4342402746980617,-1.8615784927907952,-0.20534214272014023,1.3173706370256297,0.728440945873685
1,117,-0.7135304926605608,-0.1732490811268519,0.43694590856990406,-1.8584966740970887,-0.20662157415253468,1.3157916099979974,0.7280860608343245
1,118,-0.7179487792989536,-0.16945856321805775,0.4396515424417464,-1.8554148554033822,-0.20790100558492913,1.3142125829703648,0.7277311757949638
1,119,-0.7223670659373465,-0.1656680453092636,0.44235717631358884,-1.8523330367096758,-0.20918043701732358,1.3126335559427325,0.7273762907556032
1,120,-0.7267853525757392,-0.16187752740046943,0.4450628101854312,-1.8492512180159693,-0.21045986844971806,1.3110545289151,0.7270214057162426
1,121,-0.7307389538204265,-0.1584856704322059,0.44748388385467497,-1.8464935240905769,-0.21160473796987372,1.3096415732305153,0.7267038450760739
1,122,-0.7346925550651138,-0.15509381346394235,0.4499049575239187,-1.8437358301651843,-0.21274960749002936,1.3082286175459306,0.726386284435905
1,123,-0.7386461563098011,-0.1517019564956788,0.45232603119316245,-1.8409781362397917,-0.213894477010185,1.3068156618613456,0.7260687237957363
1,124,-0.7425997575544885,-0.14831009952741525,0.4547471048624062,-1.838220442314399,-0.21503934653034062,1.3054027061767608,0.7257511631555675
1,125,-0.7452228287662974,-0.14605972529456082,0.45635339954171805,-1.8363908122887618,-0.21579892598556089,1.304465261262513,0.7255404731740349
1,126,-0.7478458999781064,-0.1438093510617064,0.4579596942210299,-1.8345611822631243,-0.21655850544078117,1.3035278163482649,0.7253297831925024
1,127,-0.7504689711899153,-0.14155897682885193,0.4595659889003417,-1.8327315522374867,-0.21731808489600146,1.302590371434017,0.7251190932109699
1,128,-0.7530920424017242,-0.1393086025959975,0.46117228357965356,-1.8309019222118494,-0.21807766435122172,1.3016529265197692,0.7249084032294373
1,129,-0.755705164232282,-0.13706676409450244,0.46277248553906736,-1.8290792320232212,-0.2188343627006769,1.3007190373598645,0.7246985124007995
1,130,-0.7583182860628397,-0.13482492559300738,0.46437268749848115,-1.827256541834593,-0.2195910610501321,1.2997851481999598,0.7244886215721618
1,131,-0.7609314078933974,-0.1325830870915123,0.46597288945789495,-1.8254338516459647,-0.22034775939958728,1.2988512590400552,0.7242787307435239
1,132,-0.7635445297239551,-0.13034124859001725,0.4675730914173087,-1.8236111614573367,-0.22110445774904247,1.2979173698801503,0.7240688399148861
1,133,-0.7661641582971174,-0.1280938278512459,0.4691772779220059,-1.8217839327218384,-0.22186304029743992,1.2969811553114898,0.723858426452523
1,134,-0.7687837868702796,-0.12584640711247455,0.4707814644267032,-1.8199567039863402,-0.22262162284583736,1.2960449407428294,0.7236480129901599
1,135,-0.7714034154434418,-0.1235989863737032,0.47238565093140045,-1.8181294752508421,-0.2233802053942348,1.295108726174169,0.7234375995277968
1,136,-0.774023044016604,-0.12135156563493184,0.4739898374360977,-1.816302246515344,-0.22413878794263226,1.2941725116055085,0.7232271860654337
1,137,-0.7754825154871605,-0.11930191498216658,0.47483244351471393,-1.814715034939733,-0.2235426309787348,1.2944558847738317,0.7229392182377585
1,138,-0.776941986957717,-0.11725226432940133,0.4756750495933302,-1.813127823364122,-0.22294647401483736,1.2947392579421546,0.7226512504100835
1,139,-0.7784014584282735,-0.11520261367663609,0.4765176556719465,-1.811540611788511,-0.22235031705093994,1.2950226311104776,0.7223632825824085
1,140,-0.77986092989883,-0.11315296302387085,0.47736026175056273,-1.8099534002128999,-0.2217541600870425,1.2953060042788007,0.7220753147547333
1,141,-0.7790228894404587,-0.11149631956300518,0.4766947622531713,-1.8088424719577199,-0.2184768804979093,1.2980032158849628,0.7216340523719997
1,142,-0.7781848489820875,-0.10983967610213953,0.47602926275577984,-1.8077315437025396,-0.2151996009087761,1.3007004274911247,0.7211927899892663
1,143,-0.7773468085237163,-0.10818303264127388,0.47536376325838836,-1.8066206154473594,-0.2119223213196429,1.3033976390972866,0.7207515276065328
1,144,-0.7765087680653451,-0.10652638918040822,0.47469826376099694,-1.8055096871921794,-0.20864504173050968,1.3060948507034484,0.7203102652237993
1,145,-0.7756701314797694,-0.10486856729166906,0.47403229087076265,-1.8043979686952532,-0.2053654308988923,1.308793980929647,0.7198686889558493
1,146,-0.7748314948941936,-0.1032107454029299,0.47336631798052836,-1.803286250198327,-0.20208582006727496,1.3114931111558454,0.7194271126878994
1,147,-0.7739928583086177,-0.10155292351419075,0.47270034509029407,-1.8021745317014006,-0.19880620923565762,1.314192241382044,0.7189855364199494
1,148,-0.773154221723042,-0.0998951016254516,0.4720343722000598,-1.8010628132044744,-0.19552659840404024,1.3168913716082422,0.7185439601519995
1,149,-0.7723158338906013,-0.09823777147341844,0.47136859684812416,-1.7999514244611816,-0.19224796035788205,1.3195897012288897,0.7181025148626914
1,150,-0.7714774460581606,-0.09658044132138528,0.4707028214961885,-1.7988400357178889,-0.1889693223117239,1.3222880308495375,0.7176610695733833
1,151,-0.7706390582257199,-0.09492311116935212,0.4700370461442528,-1.7977286469745963,-0.18569068426556573,1.324986360470185,0.7172196242840752
1,152,-0.769800670393279,-0.09326578101731897,0.4693712707923171,-1.7966172582313036,-0.18241204621940754,1.3276846900908326,0.716778178994767
1,153,-0.7686156891923532,-0.09092330299235857,0.4684302608616426,-1.7950464162930466,-0.1777780041937418,1.3314985215309427,0.7161542382017042
1,154,-0.7674307079914275,-0.08858082496739816,0.46748925093096805,-1.7934755743547897,-0.17314396216807607,1.3353123529710529,0.7155302974086414
1,155,-0.7662457267905018,-0.08623834694243776,0.46654824100029346,-1.7919047324165327,-0.16850992014241034,1.339126184411163,0.7149063566155786
1,156,-0.7650607455895762,-0.08389586891747734,0.46560723106961893,-1.7903338904782757,-0.1638758781167446,1.3429400158512734,0.7142824158225157
1,157,-0.7634501421987931,-0.08071201836618713,0.4643282286821372,-1.7881988326814393,-0.15757737836524005,1.348123701334653,0.7134343676373043
1,158,-0.7618395388080101,-0.07752816781489691,0.4630492262946555,-1.786063774884603,-0.15127887861373554,1.3533073868180325,0.7125863194520927
1,159,-0.7602289354172271,-0.07434431726360669,0.4617702239071738,-1.783928717087767,-0.14498037886223103,1.358491072301412,0.7117382712668812
1,160,-0.758618332026444,-0.07116046671231646,0.46049122151969213,-1.7817936592909307,-0.1386818791107265,1.3636747577847916,0.7108902230816697
1,161,-0.7568193241619947,-0.06760417705479996,0.45906260453869197,-1.7794088476175274,-0.13164659615277835,1.3694648182086047,0.709942972279046
1,162,-0.7550203162975453,-0.06404788739728344,0.45763398755769175,-1.777024035944124,-0.12461131319483024,1.375254878632418,0.7089957214764224
1,163,-0.7532213084330959,-0.06049159773976692,0.4562053705766915,-1.7746392242707207,-0.1175760302368821,1.3810449390562312,0.7080484706737988
1,164,-0.7514223005686465,-0.05693530808225041,0.45477675359569136,-1.7722544125973172,-0.11054074727893397,1.3868349994800444,0.7071012198711751
1,165,-0.7493736697971805,-0.052885562348167964,0.45314990761811047,-1.7695386942978972,-0.1025292774913718,1.3934284647934947,0.7060225324563513
1,166,-0.7473250390257145,-0.04883581661408552,0.4515230616405295,-1.7668229759984775,-0.09451780770380963,1.400021930106945,0.7049438450415274
1,167,-0.7452764082542485,-0.044786070880003075,0.4498962156629486,-1.7641072576990575,-0.08650633791624746,1.406615395420395,0.7038651576267035
1,168,-0.7432277774827825,-0.04073632514592063,0.4482693696853677,-1.7613915393996376,-0.0784948681286853,1.4132088607338453,0.7027864702118797
1,169,-0.7408868200459287,-0.036108706286723594,0.44641038306714537,-1.758288305260048,-0.06934021222848966,1.4207431718821222,0.7015538609193982
1,170,-0.7385458626090747,-0.03148108742752657,0.44455139644892305,-1.7551850711204584,-0.06018555632829403,1.428277483030399,0.7003212516269167
1,171,-0.7362049051722208,-0.026853468568329535,0.4426924098307007,-1.7520818369808686,-0.0510309004280984,1.4358117941786759,0.6990886423344352
1,172,-0.733863947735367,-0.022225849709132505,0.44083342321247837,-1.748978602841279,-0.04187624452790277,1.4433461053269527,0.6978560330419538
1,173,-0.7313244505374868,-0.017205756246185158,0.4388167734291244,-1.7456121792242631,-0.03194516990001546,1.4515194115766898,0.6965188844910837
1,174,-0.7287849533396067,-0.012185662783237808,0.43680012364577037,-1.7422457556072473,-0.02201409527212815,1.4596927178264267,0.6951817359402135
1,175,-0.7262454561417266,-0.00716556932029046,0.4347834738624164,-1.7388793319902314,-0.01208302064424084,1.4678660240761636,0.6938445873893434
1,176,-0.7237059589438465,-0.0021454758573431123,0.4327668240790624,-1.7355129083732155,-0.002151946016353528,1.4760393303259005,0.6925074388384733
1,177,-0.7209489430652986,0.003304609852810049,0.4305774397084798,-1.731858136328663,0.00862976717592154,1.4849127148405872,0.6910557578561892
1,178,-0.7181919271867506,0.00875469556296321,0.42838805533789714,-1.7282033642841106,0.019411480368196607,1.4937860993552738,0.6896040768739051
1,179,-0.7154349113082027,0.014204781273116371,0.4261986709673145,-1.7245485922395583,0.030193193560471676,1.5026594838699605,0.6881523958916211
1,180,-0.7126778954296548,0.019654866983269532,0.42400928659673187,-1.720893820195006,0.040974906752746745,1.5115328683846474,0.686700714909337
1,181,-0.7096922762606048,0.02555685706457745,0.42163836519722486,-1.7169360056754643,0.05265060649482032,1.5211420066952155,0.6851286649977728
1,182,-0.706706657091555,0.031458847145885364,0.4192674437977179,-1.7129781911559228,0.0643263062368939,1.5307511450057836,0.6835566150862086
1,183,-0.7037210379225051,0.037360837227193286,0.41689652239821096,-1.7090203766363814,0.07600200597896747,1.5403602833163517,0.6819845651746443
1,184,-0.7007354187534551,0.0432628273085012,0.41452560099870395,-1.7050625621168398,0.08767770572104105,1.5499694216269198,0.6804125152630801
1,185,-0.6974889603182388,0.049680446033170116,0.4119475435369703,-1.7007589722735057,0.10037345550307702,1.5604180643898315,0.6787031228700768
1,186,-0.6942425018830225,0.05609806475783903,0.40936948607523654,-1.6964553824301714,0.113069205285113,1.5708667071527431,0.6769937304770735
1,187,-0.6909960434478062,0.06251568348250794,0.4067914286135028,-1.6921517925868372,0.12576495506714896,1.581315349915655,0.6752843380840701
1,188,-0.6877495850125899,0.06893330220717686,0.40421337115176914,-1.6878482027435031,0.13846070484918493,1.5917639926785667,0.6735749456910667
1,189,-0.684299476860273,0.07575349692775593,0.4014735926382407,-1.6832746495319013,0.15195285658833357,1.6028680768048023,0.6717583234399901
1,190,-0.6808493687079561,0.082573691648335,0.3987338141247122,-1.6787010963202995,0.16544500832748224,1.6139721609310378,0.6699417011889135
1,191,-0.6773992605556391,0.08939388636891407,0.39599403561118374,-1.6741275431086975,0.1789371600666309,1.625076245057273,0.6681250789378369
1,192,-0.6739491524033223,0.09621408108949316,0.3932542570976553,-1.6695539898970957,0.19242931180577955,1.6361803291835086,0.6663084566867603
1,193,-0.6703061418792935,0.1034156063884348,0.39036129214767556,-1.664724720278147,0.20667583643849397,1.6479052646190575,0.6643902634920302
1,194,-0.6666631313552648,0.11061713168737647,0.38746832719769586,-1.6598954506591983,0.22092236107120838,1.6596302000546064,0.6624720702973003
1,195,-0.6630201208312361,0.11781865698631813,0.38457536224771616,-1.6550661810402496,0.2351688857039228,1.6713551354901552,0.6605538771025703
1,196,-0.6593771103072072,0.1250201822852598,0.38168239729773645,-1.650236911421301,0.24941541033663725,1.683080070925704,0.6586356839078402
1,197,-0.6555396116528507,0.1326061728998137,0.3786349866384967,-1.6451498232720891,0.26442250920354887,1.6954309613937826,0.6566150848030559
1,198,-0.6517021129984941,0.1401921635143676,0.37558757597925696,-1.6400627351228774,0.2794296080704605,1.707781851861861,0.6545944856982716
1,199,-0.6478646143441376,0.14777815412892154,0.3725401653200172,-1.6349756469736656,0.2944367069373721,1.7201327423299395,0.6525738865934874
1,200,-0.6440271156897811,0.15536414474347543,0.36949275466077747,-1.6298885588244538,0.30944380580428377,1.732483632798018,0.650553287488703
1,201,-0.6401688844922093,0.16299111957520102,0.3664288800027516,-1.6247739870760562,0.32453198230895286,1.7449012504218402,0.6485217718567655
1,202,-0.6363106532946377,0.17061809440692663,0.3633650053447257,-1.6196594153276584,0.339620158813622,1.7573188680456624,0.646490256224828
1,203,-0.6324524220970659,0.17824506923865224,0.3603011306866999,-1.6145448435792606,0.35470833531829116,1.7697364856694846,0.6444587405928905
1,204,-0.6285941908994941,0.18587204407037783,0.357237256028674,-1.6094302718308628,0.36979651182296025,1.7821541032933068,0.6424272249609531
1,205,-0.6249206957564801,0.19313383154902022,0.35432008282190885,-1.6045605910071319,0.3841622510097989,1.7939771526890054,0.6404929803745798
1,206,-0.6212472006134662,0.20039561902766262,0.3514029096151437,-1.599690910183401,0.39852799019663754,1.8058002020847037,0.6385587357882067
1,207,-0.6175737054704522,0.20765740650630501,0.34848573640837854,-1.59482122935967,0.4128937293834761,1.817623251480402,0.6366244912018335
1,208,-0.6139002103274381,0.2149191939849474,0.3455685632016134,-1.589951548535939,0.42725946857031477,1.8294463008761006,0.6346902466154603
1,209,-0.6104229532333965,0.22179305689818765,0.34280722533866204,-1.5853420059801964,0.44085779021056104,1.8406377631712343,0.6328593293424734
1,210,-0.6069456961393549,0.2286669198114279,0.34004588747571074,-1.5807324634244537,0.4544561118508073,1.8518292254663677,0.6310284120694865
1,211,-0.6034684390453132,0.23554078272466814,0.33728454961275944,-1.576122920868711,0.4680544334910536,1.8630206877615012,0.6291974947964996
1,212,-0.5999911819512715,0.24241464563790838,0.3345232117498081,-1.5715133783129684,0.48165275513129985,1.8742121500566347,0.6273665775235127
1,213,-0.5967210388637914,0.2488790843268212,0.33192634597873794,-1.5671783914778168,0.4944411272046164,1.8847370212621426,0.6256447141978857
1,214,-0.5934508957763112,0.25534352301573404,0.3293294802076677,-1.5628434046426651,0.507229499277933,1.8952618924676505,0.6239228508722587
1,215,-0.590180752688831,0.2618079617046468,0.3267326144365975,-1.5585084178075137,0.5200178713512497,1.9057867636731585,0.6222009875466319
1,216,-0.5869106096013507,0.26827240039355965,0.32413574866552736,-1.554173430972362,0.5328062434245663,1.9163116348786662,0.6204791242210049
1,217,-0.5838545766475931,0.2743135848715409,0.32170891070750063,-1.5501222741061538,0.5447573065540647,1.926147398139677,0.6188699985882067
1,218,-0.5807985436938354,0.2803547693495222,0.31928207274947396,-1.5460711172399457,0.5567083696835633,1.935983161400688,0.6172608729554083
1,219,-0.5777425107400778,0.2863959538275035,0.3168552347914472,-1.5420199603737377,0.5686594328130619,1.9458189246616988,0.61565174732261
1,220,-0.5746864777863202,0.2924371383054848,0.3144283968334205,-1.5379688035075294,0.5806104959425603,1.9556546879227097,0.6140426216898117
1,221,-0.5718898943051638,0.2979654414924541,0.31220759128336384,-1.5342615796185721,0.5915469440227811,1.9646554197461303,0.6125701067556204
1,222,-0.5690933108240073,0.30349374467942336,0.3099867857333071,-1.5305543557296146,0.6024833921030018,1.9736561515695512,0.611097591821429
1,223,-0.5662967273428507,0.30902204786639265,0.3077659801832504,-1.5268471318406571,0.6134198401832226,1.982656883392972,0.6096250768872375
1,224,-0.5635001438616942,0.31455035105336193,0.30554517463319375,-1.5231399079516998,0.6243562882634434,1.991657615216393,0.6081525619530462
1,225,-0.5609410715465106,0.31960914072691876,0.30351297997894877,-1.5197475350494272,0.6343639142460447,1.999893923476421,0.6068051063068356
1,226,-0.558381999231327,0.3246679304004756,0.3014807853247038,-1.5163551621471547,0.644371540228646,2.008130231736449,0.6054576506606251
1,227,-0.5558229269161434,0.3297267200740325,0.2994485906704588,-1.5129627892448823,0.6543791662112473,2.0163665399964774,0.6041101950144145
1,228,-0.55326385460096,0.3347855097475893,0.29741639601621384,-1.5095704163426098,0.6643867921938486,2.0246028482565057,0.6027627393682039
1,229,-0.5509155615703516,0.33942762965301077,0.2955515841017211,-1.5064574579489118,0.6735701350046167,2.0321607688241308,0.601526267587287
1,230,-0.5485672685397434,0.3440697495584323,0.29368677218722833,-1.5033444995552139,0.6827534778153849,2.039718689391756,0.6002897958063702
1,231,-0.5462189755091351,0.34871186946385374,0.29182196027273555,-1.500231541161516,0.691936820626153,2.047276609959381,0.5990533240254533
1,232,-0.5438706824785269,0.3533539893692752,0.2899571483582428,-1.497118582767818,0.7011201634369212,2.054834530527006,0.5978168522445364
1,233,-0.5417684044756469,0.3575097852757899,0.28828770037358004,-1.4943317483013985,0.7093414285568809,2.061600658071453,0.5967099173806493
1,234,-0.5396661264727669,0.36166558118230463,0.28661825238891725,-1.491544913834979,0.7175626936768404,2.0683667856159005,0.5956029825167621
1,235,-0.537563848469887,0.36582137708881934,0.28494880440425446,-1.4887580793685595,0.7257839587968,2.0751329131603478,0.5944960476528751
1,236,-0.535461570467007,0.36997717299533406,0.2832793564195917,-1.4859712449021398,0.7340052239167596,2.081899040704795,0.593389112788988
1,237,-0.5336878901124726,0.37348339507763806,0.2818708523638688,-1.483620008035438,0.7409414599486808,2.087607585191024,0.592455197950353
1,238,-0.5319142097579381,0.37698961715994206,0.28046234830814587,-1.4812687711687362,0.7478776959806019,2.0933161296772527,0.5915212831117178
1,239,-0.5301405294034036,0.38049583924224606,0.27905384425242297,-1.4789175343020344,0.7548139320125231,2.0990246741634815,0.5905873682730827
1,240,-0.5283668490488692,0.38400206132455006,0.27764534019670006,-1.4765662974353326,0.7617501680444444,2.1047332186497103,0.5896534534344476
1,241,-0.5267000379176757,0.38729702367798646,0.27632170246659377,-1.4743567291940924,0.768268476372681,2.1100978072962686,0.5887758095880555
1,242,-0.5250332267864822,0.39059198603142287,0.27499806473648747,-1.472147160952852,0.7747867847009178,2.1154623959428274,0.5878981657416633
1,243,-0.5233664156552887,0.39388694838485927,0.2736744270063812,-1.4699375927116116,0.7813050930291544,2.120826984589386,0.5870205218952712
1,244,-0.5216996045240953,0.3971819107382956,0.27235078927627493,-1.4677280244703714,0.787823401357391,2.1261915732359444,0.5861428780488791
1,245,-0.5205724515811121,0.3994100735122238,0.271455701563569,-1.4662338411767593,0.7922312975358756,2.129819285918984,0.5855493861853807
1,246,-0.519445298638129,0.4016382362861519,0.27056061385086305,-1.4647396578831473,0.7966391937143602,2.1334469986020235,0.5849558943218823
1,247,-0.518318145695146,0.4038663990600801,0.2696655261381571,-1.4632454745895351,0.8010470898928448,2.137074711285063,0.584362402458384
1,248,-0.5171909927521628,0.40609456183400827,0.2687704384254511,-1.461751291295923,0.8054549860713293,2.1407024239681025,0.5837689105948856
1,249,-0.5161999596873228,0.4080536420072493,0.26798344538715413,-1.4604375520574997,0.8093305655891354,2.1438920383332274,0.5832470913829481
1,250,-0.5152089266224829,0.41001272218049034,0.2671964523488572,-1.4591238128190764,0.8132061451069414,2.1470816526983523,0.5827252721710106
1,251,-0.5142178935576428,0.4119718023537314,0.26640945931056026,-1.457810073580653,0.8170817246247475,2.150271267063477,0.5822034529590732
1,252,-0.5132268604928028,0.4139308825269724,0.26562246627226327,-1.4564963343422297,0.8209573041425536,2.1534608814286025,0.5816816337471357
1,253,-0.5122353706652727,0.41589086563146926,0.2648351105124085,-1.45518198960729,0.8248346698975586,2.1566519658726673,0.5811595740310663
1,254,-0.5112438808377427,0.4178508487359661,0.26404775475255365,-1.4538676448723502,0.8287120356525637,2.1598430503167325,0.580637514314997
1,255,-0.5102523910102128,0.419810831840463,0.2632603989926988,-1.4525533001374105,0.8325894014075688,2.1630341347607973,0.5801154545989277
1,256,-0.5092609011826827,0.4217708149449599,0.26247304323284404,-1.4512389554024707,0.8364667671625737,2.166225219204862,0.5795933948828583
1,257,-0.5077107636621516,0.4230549491958089,0.26045220482677106,-1.450706133004418,0.8396134722314839,2.1685848829322265,0.578815849785214
1,258,-0.5061606261416205,0.4243390834466578,0.2584313664206981,-1.450173310606365,0.8427601773003941,2.170944546659591,0.5780383046875698
1,259,-0.5046104886210894,0.42562321769750683,0.25641052801462505,-1.449640488208312,0.8459068823693043,2.173304210386955,0.5772607595899255
1,260,-0.5030603511005582,0.42690735194835583,0.25438968960855207,-1.449107665810259,0.8490535874382146,2.1756638741143193,0.5764832144922812
1,261,-0.500980679822062,0.4275499812657932,0.2511992619867093,-1.4493163873597936,0.8515062724272875,2.177234149852695,0.5754635177075702
1,262,-0.49890100854356567,0.42819261058323055,0.24800883436486648,-1.449525108909328,0.8539589574163604,2.1788044255910712,0.5744438209228593
1,263,-0.4968213372650694,0.4288352399006679,0.2448184067430237,-1.4497338304588623,0.8564116424054333,2.180374701329447,0.5734241241381483
1,264,-0.49474166598657315,0.42947786921810527,0.24162797912118092,-1.4499425520083968,0.8588643273945062,2.1819449770678228,0.5724044273534372
1,265,-0.4926625047463613,0.43012034093104135,0.2384383339500301,-1.4501512223690813,0.8613164108638789,2.1835148676969016,0.571384980648825
1,266,-0.4905833435061495,0.4307628126439775,0.23524868877887933,-1.4503598927297658,0.8637684943332515,2.1850847583259805,0.5703655339442129
1,267,-0.4885041822659377,0.4314052843569136,0.23205904360772853,-1.4505685630904503,0.8662205778026242,2.1866546489550593,0.5693460872396007
1,268,-0.4864250210257259,0.4320477560698497,0.22886939843657772,-1.4507772334511346,0.8686726612719967,2.188224539584138,0.5683266405349885
1,269,-0.48434544932167634,0.43269035461826144,0.22567912357208103,-1.4509859450071028,0.8711252288267648,2.1897947401378732,0.5673069925732546
1,270,-0.48226587761762674,0.43333295316667325,0.22248884870758437,-1.451194656563071,0.873577796381533,2.1913649406916083,0.5662873446115206
1,271,-0.4801863059135772,0.43397555171508506,0.2192985738430877,-1.451403368119039,0.8760303639363011,2.1929351412453437,0.5652676966497867
1,272,-0.47810673420952765,0.4346181502634968,0.21610829897859102,-1.4516120796750072,0.8784829314910692,2.1945053417990787,0.5642480486880528
1,273,-0.47490259359531245,0.4356082464951355,0.21119282083280833,-1.4519336560706808,0.8822617727284434,2.196924658890617,0.562677006227708
1,274,-0.47169845298109725,0.4365983427267742,0.20627734268702566,-1.4522552324663547,0.8860406139658176,2.1993439759821545,0.5611059637673633
1,275,-0.4684943123668821,0.43758843895841293,0.201361864541243,-1.4525768088620286,0.8898194552031917,2.201763293073692,0.5595349213070187
1,276,-0.4652901717526669,0.43857853519005163,0.1964463863954603,-1.4528983852577022,0.893598296440566,2.20418261016523,0.5579638788466739
1,277,-0.461920808565185,0.4396196860621912,0.1912774399891152,-1.4532365438468537,0.8975719948794111,2.2067266801448397,0.5563118250609029
1,278,-0.4585514453777031,0.4406608369343308,0.1861084935827701,-1.4535747024360055,0.9015456933182562,2.2092707501244497,0.554659771275132
1,279,-0.4551820821902212,0.44170198780647035,0.18093954717642502,-1.453912861025157,0.9055193917571014,2.2118148201040597,0.5530077174893611
1,280,-0.45181271900273934,0.4427431386786099,0.17577060077007992,-1.4542510196143086,0.9094930901959465,2.2143588900836697,0.5513556637035901
1,281,-0.4479278083630527,0.44394359641368625,0.16981075204715623,-1.4546409199687071,0.9140748056374073,2.2172922291100514,0.5494508285841465
1,282,-0.444042897723366,0.44514405414876257,0.16385090332423252,-1.4550308203231057,0.9186565210788682,2.2202255681364327,0.5475459934647029
1,283,-0.44015798708367937,0.4463445118838389,0.15789105460130884,-1.455420720677504,0.9232382365203291,2.223158907162814,0.5456411583452592
1,284,-0.43627307644399277,0.4475449696189152,0.15193120587838516,-1.4558106210319026,0.9278199519617899,2.2260922461891957,0.5437363232258156
1,285,-0.43208171930636285,0.44884012092688486,0.14550123700629908,-1.4562312772026464,0.9327630787153323,2.229256970582008,0.5416812323847731
1,286,-0.4278903621687329,0.4501352722348545,0.13907126813421303,-1.4566519333733905,0.9377062054688746,2.2324216949748203,0.5396261415437307
1,287,-0.4236990050311029,0.45143042354282414,0.13264129926212698,-1.4570725895441343,0.942649332222417,2.2355864193676327,0.5375710507026883
1,288,-0.41950764789347295,0.45272557485079373,0.1262113303900409,-1.4574932457148781,0.9475924589759593,2.2387511437604455,0.5355159598616459
1,289,-0.41475765612223037,0.4541933471864264,0.11892435907529744,-1.4579699679993183,0.9531944181105636,2.242337670589464,0.5331869613383592
1,290,-0.4100076643509878,0.45566111952205907,0.11163738776055399,-1.4584466902837585,0.958796377245168,2.245924197418483,0.5308579628150725
1,291,-0.4052576725797452,0.45712889185769173,0.10435041644581053,-1.4589234125681987,0.9643983363797723,2.249510724247502,0.5285289642917856
1,292,-0.40050768080850263,0.4585966641933244,0.09706344513106709,-1.459400134852639,0.9700002955143767,2.253097251076521,0.5261999657684989
1,293,-0.39548610587892546,0.4601483571473127,0.08935983758206051,-1.4599041139724365,0.9759225494679843,2.256888839373135,0.523737805588272
1,294,-0.3904645309493483,0.4617000501013011,0.08165623003305392,-1.4604080930922338,0.9818448034215919,2.260680427669749,0.5212756454080452
1,295,-0.3854429560197712,0.4632517430552895,0.07395262248404734,-1.4609120722120312,0.9877670573751994,2.264472015966363,0.5188134852278182
1,296,-0.380421381090194,0.46480343600927787,0.06624901493504076,-1.4614160513318286,0.993689311328807,2.268263604262977,0.5163513250475913
1,297,-0.37498601181340163,0.4664829935838243,0.05791060469929786,-1.4619615599944114,1.0000995785537772,2.2723676319488484,0.5136862747424924
1,298,-0.3695506425366093,0.4681625511583707,0.04957219446355496,-1.4625070686569939,1.0065098457787474,2.2764716596347196,0.5110212244373934
1,299,-0.36411527325981696,0.4698421087329171,0.041233784227812056,-1.4630525773195764,1.0129201130037178,2.280575687320591,0.5083561741322944
1,300,-0.35867990398302463,0.4715216663074635,0.03289537399206916,-1.463598085982159,1.019330380228688,2.284679715006462,0.5056911238271955
1,301,-0.35279904927010075,0.4733388812150267,0.02387354371044749,-1.4641883047926796,1.0262660359866191,2.289120110742126,0.5028076447388768
1,302,-0.3469181945571769,0.4751560961225899,0.014851713428825814,-1.4647785236032003,1.0332016917445506,2.2935605064777898,0.49992416565055825
1,303,-0.341037339844253,0.47697331103015317,0.0058298831472041405,-1.465368742413721,1.040137347502482,2.2980009022134533,0.49704068656223965
1,304,-0.3351564851313291,0.47879052593771637,-0.003191947134417533,-1.4659589612242416,1.0470730032604132,2.3024412979491173,0.494157207473921
1,305,-0.32895152199901245,0.480707892044406,-0.012710992752133242,-1.4665817084502923,1.0543909001269736,2.3071264148543422,0.4911148127355331
1,306,-0.32274655886669573,0.4826252581510956,-0.02223003836984895,-1.4672044556763433,1.0617087969935342,2.3118115317595667,0.4880724179971452
1,307,-0.316541595734379,0.48454262425778516,-0.03174908398756466,-1.4678272029023942,1.0690266938600947,2.316496648664791,0.4850300232587573
1,308,-0.31033663260206235,0.4864599903644748,-0.04126812960528037,-1.468449950128445,1.0763445907266553,2.321181765570016,0.4819876285203694
1,309,-0.3038030904864474,0.48847888909795234,-0.05129124885959015,-1.4691056744481583,1.084050001114412,2.3261149791869418,0.47878412614143406
1,310,-0.2972695483708324,0.49049778783142994,-0.06131436811389993,-1.4697613987678717,1.0917554115021688,2.331048192803867,0.47558062376249866
1,311,-0.29073600625521745,0.49251668656490755,-0.07133748736820972,-1.470417123087585,1.0994608218899256,2.3359814064207924,0.4723771213835633
1,312,-0.2842024641396025,0.49453558529838515,-0.0813606066225195,-1.4710728474072985,1.1071662322776823,2.3409146200377178,0.46917361900462795
1,313,-0.27728879608952683,0.4966719449365396,-0.09196687778820203,-1.4717667222149662,1.115319948694882,2.3461348513860427,0.4657837346733318
1,314,-0.2703751280394512,0.49880830457469405,-0.10257314895388459,-1.4724605970226337,1.1234736651120816,2.3513550827343677,0.4623938503420356
1,315,-0.26346145998937553,0.5009446642128486,-0.11317942011956712,-1.4731544718303011,1.131627381529281,2.3565753140826926,0.45900396601073945
1,316,-0.2565477919392999,0.503081023851003,-0.12378569128524966,-1.4738483466379688,1.1397810979464806,2.361795545431018,0.4556140816794433
1,317,-0.24920106080452398,0.5053512022505193,-0.13505632534410406,-1.4745856848520984,1.1484455524491404,2.367342765213584,0.4520118594466663
1,318,-0.24185432966974804,0.5076213806500356,-0.14632695940295842,-1.475323023066228,1.1571100069518003,2.37288998499615,0.44840963721388927
1,319,-0.2345075985349721,0.509891559049552,-0.15759759346181282,-1.4760603612803576,1.1657744614544603,2.3784372047787157,0.4448074149811123
1,320,-0.2271608674001962,0.5121617374490683,-0.1688682275206672,-1.4767976994944874,1.17443891595712,2.3839844245612816,0.4412051927483353
1,321,-0.21945882344186476,0.5145417093720319,-0.18068394765076173,-1.4775706978842749,1.1835224128525708,2.389799926697954,0.4374287548366227
1,322,-0.21175677948353333,0.5169216812949956,-0.19249966778085625,-1.4783436962740626,1.1926059097480217,2.3956154288346267,0.43365231692491
1,323,-0.20405473552520187,0.5193016532179593,-0.20431538791095077,-1.47911669466385,1.2016894066434725,2.401430930971299,0.4298758790131974
1,324,-0.19635269156687044,0.5216816251409229,-0.21613110804104527,-1.4798896930536376,1.2107729035389232,2.4072464331079715,0.4260994411014848
1,325,-0.18831883909783037,0.5241641276315591,-0.22845585623181136,-1.4806959926613725,1.2202477227370268,2.41331247044198,0.4221603120592037
1,326,-0.18028498662879028,0.5266466301221953,-0.24078060442257748,-1.4815022922691072,1.2297225419351303,2.419378507775989,0.41822118301692257
1,327,-0.17225113415975019,0.5291291326128316,-0.25310535261334355,-1.482308591876842,1.2391973611332339,2.4254445451099977,0.41428205397464146
1,328,-0.1642172816907101,0.5316116351034678,-0.26543010080410967,-1.4831148914845769,1.2486721803313372,2.431510582444006,0.41034292493236035
1,329,-0.15586368200584783,0.5341929411584849,-0.27824537380036524,-1.4839532818054142,1.258524097200911,2.4378180479790053,0.4062470186093304
1,330,-0.14751008232098559,0.5367742472135022,-0.2910606467966208,-1.4847916721262515,1.268376014070485,2.4441255135140043,0.4021511122863004
1,331,-0.13915648263612335,0.5393555532685195,-0.3038759197928763,-1.4856300624470888,1.2782279309400588,2.4504329790490034,0.3980552059632705
1,332,-0.13080288295126108,0.5419368593235366,-0.3166911927891319,-1.4864684527679262,1.2880798478096327,2.4567404445840024,0.3939592996402405
1,333,-0.12216785830408154,0.5446051271658872,-0.32993820034966065,-1.4873350876747324,1.2982636665464695,2.4632604027350555,0.3897254060630807
1,334,-0.113532833656902,0.5472733950082378,-0.3431852079101894,-1.4882017225815387,1.3084474852833063,2.4697803608861086,0.38549151248592095
1,335,-0.10489780900972247,0.5499416628505883,-0.3564322154707182,-1.4890683574883448,1.3186313040201432,2.4763003190371617,0.3812576189087612
1,336,-0.09626278436254293,0.5526099306929388,-0.36967922303124695,-1.489934992395151,1.32881512275698,2.482820277188215,0.3770237253316014
1,337,-0.0873255666862615,0.5553715777640329,-0.38338982548638434,-1.4908319562284298,1.3393553364269701,2.489568409083269,0.37264166157806633
1,338,-0.07838834900998007,0.5581332248351271,-0.3971004279415218,-1.4917289200617085,1.3498955500969605,2.4963165409783223,0.3682595978245313
1,339,-0.06945113133369864,0.5608948719062212,-0.41081103039665917,-1.4926258838949873,1.3604357637669509,2.503064672873376,0.3638775340709963
1,340,-0.060513913657417207,0.5636565189773153,-0.42452163285179656,-1.493522847728266,1.3709759774369412,2.50981280476843,0.3594954703174613
1,341,-0.051196312034452185,0.5665357066802145,-0.4388157830353434,-1.4944579879443176,1.3819648014261496,2.516848149209486,0.35492689810395983
1,342,-0.04187871041148716,0.5694148943831137,-0.45310993321889026,-1.4953931281603694,1.392953625415358,2.5238834936505423,0.35035832589045834
1,343,-0.03256110878852214,0.572294082086013,-0.4674040834024371,-1.4963282683764212,1.4039424494045663,2.5309188380915986,0.34578975367695686
1,344,-0.023243507165557127,0.5751732697889121,-0.4816982335859839,-1.497263408592473,1.4149312733937747,2.5379541825326544,0.3412211814634553
1,345,-0.013878166802199436,0.5780672090126266,-0.4960656198610014,-1.4982033400002726,1.4259763986326899,2.545025572567355,0.3366292021660613
1,346,-0.0045128264388417435,0.5809611482363413,-0.5104330061360188,-1.499143271408072,1.4370215238716049,2.5520969626020555,0.3320372228686673
1,347,0.004852513924515948,0.5838550874600559,-0.5248003924110363,-1.5000832028158713,1.4480666491105199,2.5591683526367563,0.3274452435712733
1,348,0.01421785428787364,0.5867490266837705,-0.5391677786860537,-1.5010231342236708,1.4591117743494348,2.566239742671457,0.3228532642738793
1,349,0.023333543610187857,0.5895658224282428,-0.5531521748292159,-1.5019380099639386,1.4698624706720087,2.5731226312940048,0.3183836929582101
1,350,0.03244923293250208,0.5923826181727152,-0.5671365709723781,-1.5028528857042063,1.4806131669945826,2.5800055199165524,0.3139141216425409
1,351,0.0415649222548163,0.5951994139171876,-0.5811209671155403,-1.503767761444474,1.4913638633171564,2.5868884085391004,0.3094445503268717
1,352,0.05068061157713052,0.5980162096616599,-0.5951053632587024,-1.5046826371847417,1.5021145596397303,2.593771297161648,0.3049749790112025
1,353,0.05948578621930267,0.6007370547436323,-0.6086133982467357,-1.50556634881467,1.512499046791294,2.6004197286977906,0.3006576581132894
1,354,0.06829096086147482,0.6034578998256046,-0.6221214332347689,-1.5064500604445985,1.522883533942858,2.6070681602339327,0.29634033721537634
1,355,0.07709613550364697,0.6061787449075771,-0.6356294682228021,-1.507333772074527,1.5332680210944218,2.6137165917700753,0.29202301631746325
1,356,0.08590131014581912,0.6088995899895494,-0.6491375032108354,-1.5082174837044553,1.5436525082459855,2.620365023306218,0.28770569541955016
1,357,0.09441839130369166,0.6115314126759692,-0.6622035734424736,-1.5090722814771431,1.5536972289297921,2.626795927094847,0.2835296314609784
1,358,0.1029354724615642,0.6141632353623889,-0.6752696436741118,-1.509927079249831,1.5637419496135985,2.6332268308834763,0.2793535675024067
1,359,0.11145255361943675,0.6167950580488087,-0.68833571390575,-1.5107818770225188,1.5737866702974048,2.639657734672105,0.27517750354383497
1,360,0.11996963477730929,0.6194268807352286,-0.7014017841373882,-1.5116366747952068,1.5838313909812114,2.6460886384607343,0.2710014395852632
1,361,0.12821105276262496,0.6219735220575286,-0.714044958977267,-1.512463806251049,1.5935510050328487,2.652311400127911,0.2669605377812233
1,362,0.1364524707479406,0.6245201633798287,-0.7266881338171459,-1.5132909377068913,1.603270619084486,2.6585341617950875,0.2629196359771834
1,363,0.14469388873325623,0.6270668047021288,-0.7393313086570248,-1.5141180691627334,1.6129902331361237,2.664756923462264,0.25887873417314344
1,364,0.1529353067185719,0.6296134460244289,-0.7519744834969037,-1.5149452006185755,1.622709847187761,2.6709796851294407,0.2548378323691035
1,365,0.16085070057435308,0.6320593441831353,-0.7641175041061552,-1.5157396113929305,1.6320449608152914,2.6769562791517467,0.250956785519095
1,366,0.16876609443013427,0.6345052423418416,-0.7762605247154069,-1.5165340221672854,1.641380074442822,2.6829328731740523,0.2470757386690865
1,367,0.17668148828591546,0.6369511405005479,-0.7884035453246584,-1.5173284329416403,1.6507151880703526,2.6889094671963583,0.243194691819078
1,368,0.18459688214169664,0.6393970386592542,-0.8005465659339099,-1.5181228437159953,1.660050301697883,2.6948860612186643,0.23931364496906946
1,369,0.1921918291363326,0.6417439170595103,-0.8121979884104653,-1.518885093558912,1.6690074925189329,2.7006206987660706,0.2355897184473355
1,370,0.1997867761309685,0.6440907954597663,-0.8238494108870207,-1.5196473434018287,1.6779646833399826,2.7063553363134765,0.23186579192560158
1,371,0.20738172312560443,0.6464376738600224,-0.8355008333635761,-1.5204095932447452,1.6869218741610326,2.7120899738608824,0.22814186540386766
1,372,0.21497667012024038,0.6487845522602783,-0.8471522558401314,-1.521171843087662,1.6958790649820825,2.7178246114082887,0.22441793888213374
1,373,0.22221514226004374,0.6510212780633362,-0.8582568095710779,-1.5218983161302546,1.704415842954972,2.723290089198731,0.22086879780224422
1,374,0.2294536143998471,0.6532580038663942,-0.8693613633020243,-1.522624789172847,1.7129526209278618,2.7287555669891734,0.2173196567223547
1,375,0.23669208653965046,0.6554947296694522,-0.8804659170329707,-1.5233512622154395,1.7214893989007516,2.7342210447796154,0.2137705156424652
1,376,0.24393055867945382,0.6577314554725101,-0.8915704707639172,-1.524077735258032,1.7300261768736411,2.7396865225700577,0.21022137456257567
1,377,0.2507834791668071,0.659849043795615,-0.9020835489793132,-1.5247655132726377,1.7381082499322231,2.744860885888712,0.20686127575316826
1,378,0.25763639965416035,0.6619666321187199,-0.9125966271947092,-1.5254532912872432,1.7461903229908051,2.7500352492073654,0.20350117694376083
1,379,0.2644893201415136,0.6640842204418247,-0.9231097054101054,-1.5261410693018487,1.754272396049387,2.755209612526019,0.2001410781343534
1,380,0.2713422406288669,0.6662018087649296,-0.9336227836255014,-1.5268288473164544,1.762354469107969,2.760383975844673,0.19678097932494598
1,381,0.2778465241299141,0.6682116664332622,-0.9436010171841442,-1.5274816351608542,1.7700253730016016,2.7652950974641426,0.19359182292246774
1,382,0.2843508076309613,0.670221524101595,-0.9535792507427872,-1.528134423005254,1.777696276895234,2.7702062190836116,0.1904026665199895
1,383,0.29085509113200847,0.6722313817699277,-0.96355748430143,-1.5287872108496536,1.7853671807888667,2.7751173407030807,0.18721351011751125
1,384,0.2973593746330557,0.6742412394382604,-0.9735357178600728,-1.5294399986940534,1.7930380846824994,2.78002846232255,0.184024353715033
1,385,0.30349534796339894,0.6761372873348027,-0.9829489260927569,-1.530055821913162,1.8002746176078213,2.784661487816332,0.1810157858030179
1,386,0.30963132129374227,0.678033335231345,-0.992362134325441,-1.5306716451322704,1.8075111505331432,2.7892945133101135,0.17800721789100277
1,387,0.31576729462408554,0.6799293831278872,-1.001775342558125,-1.5312874683513789,1.814747683458465,2.7939275388038953,0.17499864997898762
1,388,0.3219032679544288,0.6818254310244295,-1.0111885507908092,-1.5319032915704873,1.8219842163837872,2.798560564297677,0.1719900820669725
1,389,0.32769044331189695,0.6836136985205066,-1.0200666673969414,-1.5324841084623335,1.82880939028274,2.8029302265378218,0.16915253549622994
1,390,0.3334776186693651,0.6854019660165838,-1.0289447840030737,-1.53306492535418,1.8356345641816931,2.8072998887779663,0.16631498892548735
1,391,0.33926479402683324,0.6871902335126608,-1.0378229006092061,-1.5336457422460261,1.842459738080646,2.811669551018111,0.1634774423547448
1,392,0.3450519693843014,0.6889785010087379,-1.0467010172153384,-1.5342265591378723,1.8492849119795989,2.8160392132582555,0.16063989578400223
1,393,0.35043312828910034,0.6906413072944089,-1.0549562632173939,-1.5347666270978975,1.8556312455593749,2.820102308882993,0.15800142570943837
1,394,0.35581428719389935,0.6923041135800798,-1.0632115092194492,-1.5353066950579228,1.8619775791391509,2.8241654045077302,0.1553629556348745
1,395,0.36119544609869836,0.6939669198657508,-1.0714667552215047,-1.5358467630179482,1.8683239127189268,2.828228500132468,0.15272448556031065
1,396,0.3665766050034973,0.6956297261514216,-1.0797220012235602,-1.5363868309779734,1.8746702462987026,2.8322915957572055,0.15008601548574677
1,397,0.371516067435924,0.6971560459137223,-1.08729963983617,-1.536882569060921,1.8804956599048674,2.836021184225565,0.14766411640360527
1,398,0.37645552986835074,0.6986823656760228,-1.0948772784487797,-1.5373783071438687,1.8863210735110323,2.8397507726939244,0.14524221732146375
1,399,0.38139499230077745,0.7002086854383234,-1.1024549170613893,-1.5378740452268165,1.8921464871171971,2.843480361162284,0.14282031823932223
1,400,0.38633445473320416,0.7017350052006239,-1.1100325556739992,-1.538369783309764,1.897971900723362,2.8472099496306438,0.14039841915718074
1,401,0.39099748802173845,0.7031759069096504,-1.1171861238167824,-1.5388377782008686,1.9034713043399782,2.85073081762355,0.1381120577978236
1,402,0.39566052131027274,0.7046168086186768,-1.1243396919595656,-1.5393057730919733,1.9089707079565943,2.8542516856164566,0.13582569643846648
1,403,0.4003235545988071,0.7060577103277033,-1.1314932601023489,-1.5397737679830779,1.9144701115732106,2.8577725536093626,0.13353933507910937
1,404,0.4049865878873414,0.7074986120367296,-1.1386468282451319,-1.5402417628741827,1.9199695151898268,2.861293421602269,0.13125297371975225
1,405,0.40911261809615795,0.7087735769815429,-1.144976578952794,-1.5406558626540443,1.9248355978550369,2.8644088202711373,0.12922991373856485
1,406,0.4132386483049746,0.710048541926356,-1.1513063296604558,-1.5410699624339061,1.929701680520247,2.867524218940005,0.12720685375737745
1,407,0.41736467851379117,0.7113235068711693,-1.1576360803681178,-1.541484062213768,1.934567763185457,2.870639617608873,0.12518379377619004
1,408,0.42149070872260774,0.7125984718159826,-1.1639658310757799,-1.5418981619936296,1.939433845850667,2.873755016277741,0.12316073379500264
1,409,0.42543859438205484,0.7138183891619997,-1.1700222898950239,-1.5422943826948263,1.9440898316286228,2.876735905196587,0.12122502099511459
1,410,0.42938648004150193,0.7150383065080168,-1.1760787487142677,-1.542690603396023,1.9487458174065788,2.8797167941154327,0.11928930819522655
1,411,0.43333436570094896,0.7162582238540339,-1.1821352075335114,-1.5430868240972198,1.9534018031845348,2.8826976830342783,0.11735359539533852
1,412,0.43728225136039606,0.717478141200051,-1.1881916663527554,-1.5434830447984165,1.9580577889624906,2.8856785719531244,0.11541788259545047
1,413,0.4409261259495544,0.7186041175330757,-1.1937817412169847,-1.5438487541095092,1.9623552356788558,2.8884299143985404,0.11363123138721654
1,414,0.44457000053871265,0.7197300938661005,-1.199371816081214,-1.5442144634206019,1.966652682395221,2.8911812568439563,0.11184458017898262
1,415,0.448213875127871,0.7208560701991253,-1.2049618909454431,-1.5445801727316946,1.970950129111586,2.8939325992893723,0.1100579289707487
1,416,0.4518577497170293,0.72198204653215,-1.2105519658096726,-1.5449458820427873,1.9752475758279513,2.8966839417347883,0.10827127776251477
1,417,0.45516565597444364,0.723004206891015,-1.215626631023952,-1.5452778726448124,1.9791487943073864,2.8991816080701116,0.10664935731302447
1,418,0.458473562231858,0.7240263672498799,-1.2207012962382318,-1.5456098632468374,1.9830500127868218,2.901679274405435,0.10502743686353416
1,419,0.4617814684892724,0.7250485276087448,-1.2257759614525112,-1.5459418538488623,1.9869512312662572,2.9041769407407587,0.10340551641404386
1,420,0.4650893747466867,0.7260706879676099,-1.2308506266667907,-1.5462738444508872,1.9908524497456923,2.906674607076082,0.10178359596455354
1,421,0.4676536634132368,0.7268630665961635,-1.2347845067355943,-1.5465312035390615,1.9938766739993659,2.9086107978197395,0.10052628336164904
1,422,0.4702179520797868,0.7276554452247173,-1.2387183868043976,-1.5467885626272357,1.9969008982530396,2.9105469885633974,0.09926897075874455
1,423,0.4727822407463368,0.728447823853271,-1.242652266873201,-1.54704592171541,1.9999251225067134,2.9124831793070554,0.09801165815584005
1,424,0.47534652941288685,0.7292402024818246,-1.2465861469420045,-1.547303280803584,2.002949346760387,2.914419370050713,0.09675434555293555
1,425,0.47790881539297847,0.7300319622697735,-1.2505169546857435,-1.5475604388966178,2.0059712091220323,2.9163540486467587,0.09549801489990148
1,426,0.48047110137307003,0.7308237220577224,-1.2544477624294825,-1.5478175969896515,2.008993071483678,2.9182887272428046,0.09424168424686741
1,427,0.4830333873531616,0.7316154818456713,-1.2583785701732215,-1.5480747550826852,2.012014933845323,2.9202234058388505,0.09298535359383334
1,428,0.48559567333325315,0.7324072416336201,-1.2623093779169605,-1.548331913175719,2.015036796206968,2.9221580844348964,0.09172902294079928
1,429,0.48886659246409114,0.733380882086748,-1.2667032104123013,-1.5493431160028606,2.01733352612883,2.9234097241750487,0.08968536013282317
1,430,0.4921375115949291,0.734354522539876,-1.271097042907642,-1.5503543188300024,2.019630256050692,2.924661363915201,0.08764169732484707
1,431,0.495408430725767,0.7353281629930039,-1.2754908754029828,-1.5513655216571443,2.021926985972554,2.9259130036553533,0.08559803451687097
1,432,0.498679349856605,0.7363018034461317,-1.2798847078983235,-1.5523767244842859,2.024223715894416,2.9271646433955056,0.08355437170889486
1,433,0.5032052636288908,0.7375974981049845,-1.2850975878168902,-1.5547244108199774,2.025233797572481,2.927204717287303,0.08011565200517198
1,434,0.5077311774011766,0.7388931927638374,-1.290310467735457,-1.5570720971556689,2.0262438792505466,2.9272447911791004,0.07667693230144912
1,435,0.5122570911734624,0.7401888874226903,-1.295523347654024,-1.5594197834913603,2.027253960928612,2.927284865070898,0.07323821259772625
1,436,0.5167830049457482,0.7414845820815431,-1.3007362275725907,-1.5617674698270518,2.0282640426066774,2.927324938962695,0.06979949289400339
1,437,0.521508235786643,0.7428373379382465,-1.3061786779153093,-1.564218546103866,2.0293186073503193,2.92736677767173,0.06620933514581079
1,438,0.5262334666275377,0.7441900937949499,-1.311621128258028,-1.5666696223806802,2.0303731720939617,2.927408616380765,0.06261917739761817
1,439,0.5309586974684324,0.7455428496516533,-1.3170635786007465,-1.5691206986574944,2.031427736837604,2.9274504550898,0.059029019649425564
1,440,0.535683928309327,0.7468956055083567,-1.3225060289434654,-1.5715717749343086,2.032482301581246,2.9274922937988346,0.055438861901232955
1,441,0.541327745317361,0.7485113374733869,-1.3290064931205343,-1.5744993411093515,2.0337418739993236,2.927542265964343,0.051150776505401035
1,442,0.5469715623253952,0.7501270694384171,-1.3355069572976033,-1.5774269072843945,2.035001446417401,2.9275922381298507,0.046862691109569116
1,443,0.5526153793334294,0.7517428014034473,-1.3420074214746722,-1.5803544734594375,2.0362610188354786,2.9276422102953585,0.042574605713737196
1,444,0.5582591963414636,0.7533585333684776,-1.3485078856517412,-1.5832820396344804,2.0375205912535566,2.927692182460867,0.03828652031790528
1,445,0.564291885710313,0.7550855930932122,-1.3554562472087808,-1.5864113220537446,2.0388669511948896,2.9277455978269513,0.03370297568076903
1,446,0.5703245750791622,0.7568126528179469,-1.3624046087658201,-1.5895406044730085,2.040213311136223,2.9277990131930363,0.029119431043632772
1,447,0.5763572644480115,0.7585397125426814,-1.3693529703228595,-1.5926698868922726,2.0415596710775565,2.9278524285591208,0.024535886406496517
1,448,0.5823899538168609,0.760266772267416,-1.376301331879899,-1.5957991693115368,2.04290603101889,2.9279058439252053,0.01995234176936026
1,449,0.5889488451834889,0.762144474967758,-1.3838557650426606,-1.5992014037361093,2.044369827355095,2.927963918452508,0.014968996944032201
1,450,0.5955077365501169,0.7640221776681,-1.3914101982054223,-1.6026036381606816,2.0458336236913004,2.92802199297981,0.009985652118704143
1,451,0.6020666279167448,0.7658998803684419,-1.3989646313681843,-1.606005872585254,2.0472974200275056,2.9280800675071124,0.005002307293376084
1,452,0.6086255192833728,0.7677775830687839,-1.406519064530946,-1.6094081070098265,2.0487612163637103,2.928138142034415,1.896246804802479e-05
1,453,0.6158724422034143,0.7698522578843126,-1.4148659621657647,-1.6131672378221218,2.050378565794605,2.928202308613712,-0.005487138153909099
1,454,0.6231193651234557,0.7719269326998413,-1.423212859800583,-1.6169263686344169,2.0519959152255,2.928266475193009,-0.010993238775866223
1,455,0.630366288043497,0.77400160751537,-1.4315597574354015,-1.620685499446712,2.053613264656395,2.9283306417723063,-0.016499339397823345
1,456,0.6376132109635384,0.7760762823308988,-1.43990665507022,-1.6244446302590072,2.05523061408729,2.9283948083516034,-0.02200544001978047
1,457,0.6452267284434285,0.7782559071381991,-1.4486757908464263,-1.628393921353225,2.056929779139695,2.9284622208766837,-0.027790073552361932
1,458,0.6528402459233187,0.7804355319454995,-1.4574449266226326,-1.6323432124474428,2.0586289441921,2.928529633401764,-0.033574707084943395
1,459,0.6604537634032088,0.7826151567527999,-1.466214062398839,-1.6362925035416607,2.060328109244505,2.9285970459268444,-0.03935934061752486
1,460,0.668067280883099,0.7847947815601003,-1.4749831981750452,-1.6402417946358785,2.0620272742969106,2.9286644584519252,-0.04514397415010631
1,461,0.6757059723986385,0.7869816132796783,-1.4837813290297062,-1.6442041440300292,2.0637320576251934,2.9287320938759898,-0.0509477345279538
1,462,0.683344663914178,0.7891684449992562,-1.4925794598843671,-1.64816649342418,2.0654368409534767,2.928799729300054,-0.05675149490580128
1,463,0.6909833554297176,0.7913552767188341,-1.501377590739028,-1.6521288428183305,2.06714162428176,2.928867364724118,-0.06255525528364878
1,464,0.6986220469452572,0.7935421084384121,-1.5101757215936888,-1.6560911922124812,2.068846407610043,2.928935000148182,-0.06835901566149626
1,465,0.7057925196545622,0.7955948968162614,-1.5184345650170554,-1.6598106666980903,2.070446695081512,2.928998489812799,-0.07380703058866558
1,466,0.7129629923638672,0.7976476851941108,-1.5266934084404222,-1.6635301411836996,2.0720469825529806,2.9290619794774164,-0.0792550455158349
1,467,0.7201334650731722,0.7997004735719602,-1.534952251863789,-1.6672496156693088,2.0736472700244493,2.9291254691420336,-0.08470306044300423
1,468,0.7273039377824773,0.8017532619498094,-1.5432110952871556,-1.670969090154918,2.075247557495918,2.929188958806651,-0.09015107537017356
1,469,0.7337850749461025,0.8036087049009377,-1.5506759723196395,-1.6743309918446845,2.0766940008510906,2.9292463448733077,-0.0950753437474371
1,470,0.7402662121097277,0.8054641478520659,-1.5581408493521232,-1.6776928935344508,2.078140444206263,2.929303730939964,-0.09999961212470065
1,471,0.746747349273353,0.8073195908031942,-1.565605726384607,-1.6810547952242174,2.079586887561436,2.9293611170066205,-0.1049238805019642
1,472,0.7532284864369782,0.8091750337543224,-1.573070603417091,-1.684416696913984,2.081033330916608,2.9294185030732773,-0.10984814887922775
1,473,0.7593065781872508,0.8109150914339606,-1.5800712587592718,-1.6875695305001148,2.082389823643479,2.9294723204466058,-0.11446618954776261
1,474,0.7653846699375233,0.8126551491135987,-1.5870719141014527,-1.6907223640862454,2.08374631637035,2.929526137819934,-0.11908423021629748
1,475,0.7714627616877959,0.8143952067932367,-1.5940725694436335,-1.693875197672376,2.085102809097221,2.9295799551932626,-0.12370227088483235
1,476,0.7775408534380686,0.8161352644728749,-1.6010732247858144,-1.6970280312585069,2.0864593018240916,2.9296337725665906,-0.1283203115533672
1,477,0.7830615694100761,0.8177157546363809,-1.6074319030272812,-1.6998917423459963,2.0876914008727465,2.9296826547560526,-0.13251486667455592
1,478,0.7885822853820836,0.8192962447998868,-1.613790581268748,-1.7027554534334857,2.0889234999214015,2.929731536945515,-0.13670942179574463
1,479,0.7941030013540913,0.8208767349633928,-1.6201492595102152,-1.705619164520975,2.0901555989700564,2.929780419134977,-0.14090397691693335
1,480,0.7996237173260988,0.8224572251268988,-1.626507937751682,-1.7084828756084645,2.0913876980187114,2.929829301324439,-0.1450985320381221
1,481,0.8054908043868048,0.8238771279999941,-1.6321718725022474,-1.7115817863080833,2.0927364927540464,2.9298140978637517,-0.1493991503545266
1,482,0.8113578914475106,0.8252970308730896,-1.6378358072528125,-1.7146806970077022,2.0940852874893814,2.9297988944030644,-0.1536997686709311
1,483,0.8172249785082164,0.826716933746185,-1.6434997420033777,-1.717779607707321,2.095434082224716,2.9297836909423776,-0.15800038698733562
1,484,0.8230920655689223,0.8281368366192804,-1.6491636767539428,-1.7208785184069397,2.096782876960051,2.9297684874816903,-0.16230100530374014
1,485,0.8292065785273735,0.8294482119215288,-1.654357376630875,-1.724144118580305,2.0982140936457663,2.929709104489026,-0.1666811300367067
1,486,0.8353210914858245,0.8307595872237773,-1.6595510765078074,-1.72740971875367,2.099645310331481,2.9296497214963626,-0.17106125476967324
1,487,0.8414356044442756,0.8320709625260257,-1.6647447763847398,-1.7306753189270352,2.101076527017196,2.9295903385036985,-0.17544137950263977
1,488,0.8475501174027267,0.8333823378282742,-1.669938476261672,-1.7339409191004005,2.102507743702911,2.9295309555110345,-0.17982150423560633
1,489,0.8546443424249353,0.834903831289149,-1.6759643487841678,-1.7377297576587352,2.1041682804117205,2.9294620577402206,-0.1849034446439684
1,490,0.8617385674471438,0.8364253247500237,-1.6819902213066635,-1.7415185962170696,2.10582881712053,2.9293931599694063,-0.18998538505233045
1,491,0.8688327924693524,0.8379468182108984,-1.6880160938291593,-1.745307434775404,2.10748935382934,2.929324262198592,-0.1950673254606925
1,492,0.8759270174915611,0.8394683116717732,-1.6940419663516553,-1.7490962733337387,2.10914989053815,2.929255364427778,-0.20014926586905457
1,493,0.8834946880809653,0.8410913446711195,-1.700469986060818,-1.7531379666880023,2.1109212460807987,2.9291818686432163,-0.20557035849651872
1,494,0.8910623586703696,0.8427143776704658,-1.7068980057699803,-1.7571796600422656,2.112692601623447,2.9291083728586544,-0.21099145112398288
1,495,0.8986300292597739,0.844337410669812,-1.7133260254791427,-1.7612213533965289,2.1144639571660955,2.929034877074093,-0.21641254375144703
1,496,0.9061976998491781,0.8459604436691583,-1.7197540451883053,-1.7652630467507924,2.1162353127087443,2.928961381289531,-0.22183363637891115
1,497,0.9142996119130695,0.8476980550625386,-1.7266358524516279,-1.7695900643922982,2.118131717510048,2.9288826970528756,-0.22763743230779582
1,498,0.922401523976961,0.849435666455919,-1.7335176597149506,-1.773917082033804,2.120028122311351,2.9288040128162205,-0.2334412282366805
1,499,0.9305034360408524,0.8511732778492993,-1.7403994669782734,-1.7782440996753097,2.121924527112654,2.9287253285795654,-0.2392450241655652
1,500,0.9386053481047439,0.8529108892426795,-1.7472812742415962,-1.7825711173168155,2.123820931913957,2.92864664434291,-0.24504882009444987
1,501,0.9456751784310138,0.8544271507902397,-1.753286425779419,-1.78634692731117,2.125475758585662,2.9285779834887666,-0.25011328538880684
1,502,0.9527450087572835,0.8559434123377998,-1.7592915773172417,-1.7901227373055244,2.127130585257367,2.9285093226346226,-0.2551777506831638
1,503,0.9598148390835534,0.8574596738853599,-1.7652967288550645,-1.7938985472998787,2.128785411929072,2.9284406617804786,-0.26024221597752073
1,504,0.9668846694098232,0.85897593543292,-1.7713018803928875,-1.797674357294233,2.130440238600777,2.928372000926335,-0.2653066812718777
1,505,0.9733993240174121,0.8603731288337881,-1.7768354627180218,-1.8011536625734137,2.131965115960496,2.9283087318337024,-0.26997344704166726
1,506,0.979913978625001,0.8617703222346564,-1.7823690450431564,-1.8046329678525943,2.133489993320215,2.92824546274107,-0.2746402128114569
1,507,0.9864286332325898,0.8631675156355246,-1.787902627368291,-1.808112273131775,2.135014870679934,2.9281821936484373,-0.2793069785812465
1,508,0.9929432878401787,0.8645647090363928,-1.7934362096934255,-1.8115915784109553,2.136539748039653,2.928118924555805,-0.28397374435103606
1,509,0.9987181964954721,0.865803249642121,-1.798341447866294,-1.8146758048790388,2.1378914739550443,2.928062839735862,-0.28811059390938276
1,510,1.0044931051507655,0.8670417902478491,-1.8032466860391625,-1.8177600313471223,2.1392431998704358,2.928006754915919,-0.29224744346772946
1,511,1.010268013806059,0.8682803308535771,-1.808151924212031,-1.8208442578152058,2.140594925785827,2.927950670095976,-0.29638429302607616
1,512,1.0160429224613525,0.8695188714593053,-1.8130571623848994,-1.8239284842832892,2.1419466517012187,2.9278945852760336,-0.30052114258442286
1,513,1.0219634099083255,0.870788634246299,-1.8180860559588714,-1.8270904605460951,2.1433324530690876,2.927837086622417,-0.3047622773524606
1,514,1.0278838973552986,0.8720583970332928,-1.8231149495328434,-1.8302524368089008,2.1447182544369565,2.927779587968801,-0.3090034121204983
1,515,1.0338043848022715,0.8733281598202866,-1.8281438431068153,-1.8334144130717067,2.1461040558048254,2.9277220893151847,-0.31324454688853604
1,516,1.0397248722492445,0.8745979226072803,-1.833172736680787,-1.8365763893345126,2.1474898571726944,2.927664590661568,-0.31748568165657376
1,517,1.0457824536511402,0.8758970878385562,-1.8383180785903255,-1.839811583864416,2.1489077479575176,2.927605760577407,-0.32182502353068493
1,518,1.051840035053036,0.8771962530698322,-1.8434634204998637,-1.8430467783943194,2.1503256387423404,2.9275469304932455,-0.3261643654047961
1,519,1.0578976164549316,0.8784954183011081,-1.848608762409402,-1.8462819729242228,2.1517435295271636,2.9274881004090845,-0.3305037072789072
1,520,1.0639551978568276,0.879794583532384,-1.8537541043189405,-1.8495171674541264,2.153161420311987,2.9274292703249234,-0.3348430491530184
1,521,1.0711679933725609,0.8809067520708571,-1.8581531379006533,-1.853409345154303,2.1550345751195725,2.9273400025251832,-0.33971284790505885
1,522,1.0783807888882941,0.8820189206093303,-1.8625521714823663,-1.8573015228544794,2.156907729927158,2.927250734725443,-0.34458264665709926
1,523,1.0855935844040274,0.8831310891478035,-1.8669512050640793,-1.861193700554656,2.158780884734744,2.9271614669257024,-0.34945244540913967
1,524,1.0928063799197607,0.8842432576862767,-1.871350238645792,-1.8650858782548325,2.1606540395423295,2.9270721991259623,-0.35432224416118013
1,525,1.1006411438602797,0.8853091139283127,-1.8755634929641842,-1.8693267725467573,2.162749191295572,2.9269689469398212,-0.3595147917874475
1,526,1.1084759078007986,0.8863749701703486,-1.8797767472825764,-1.873567666838682,2.1648443430488147,2.9268656947536806,-0.3647073394137149
1,527,1.1163106717413176,0.8874408264123845,-1.8839900016009685,-1.8778085611306068,2.1669394948020573,2.92676244256754,-0.36989988703998233
1,528,1.1241454356818366,0.8885066826544206,-1.8882032559193607,-1.8820494554225315,2.1690346465552994,2.926659190381399,-0.3750924346662497
1,529,1.1327999402205224,0.8896840579722116,-1.8928573372545472,-1.8867340686637466,2.171349011160964,2.9265451350607323,-0.38082827142406994
1,530,1.1414544447592083,0.8908614332900027,-1.8975114185897337,-1.8914186819049617,2.173663375766628,2.926431079740065,-0.38656410818189024
1,531,1.1501089492978942,0.8920388086077937,-1.9021654999249202,-1.896103295146177,2.175977740372292,2.926317024419398,-0.39229994493971054
1,532,1.15876345383658,0.8932161839255849,-1.906819581260107,-1.900787908387392,2.1782921049779564,2.9262029690987315,-0.39803578169753084
1,533,1.1684126023021602,0.8945288725018394,-1.9120085463329612,-1.9060109143337463,2.180872454619431,2.926075805640964,-0.4044308260588969
1,534,1.1780617507677404,0.895841561078094,-1.9171975114058157,-1.9112339202801008,2.183452804260906,2.925948642183197,-0.410825870420263
1,535,1.1877108992333207,0.8971542496543485,-1.9223864764786702,-1.916456926226455,2.1860331539023803,2.9258214787254295,-0.41722091478162904
1,536,1.1973600476989008,0.8984669382306031,-1.9275754415515247,-1.9216799321728093,2.1886135035438548,2.925694315267662,-0.4236159591429951
1,537,1.20788010077229,0.8998981063321501,-1.933232747805762,-1.9273743517326571,2.1914267481812493,2.9255556743990425,-0.4305882019609218
1,538,1.2184001538456792,0.9013292744336971,-1.9388900540599994,-1.933068771292505,2.1942399928186433,2.9254170335304224,-0.4375604447788485
1,539,1.2289202069190686,0.9027604425352441,-1.9445473603142367,-1.9387631908523528,2.1970532374560374,2.9252783926618027,-0.4445326875967751
1,540,1.2394402599924579,0.9041916106367911,-1.9502046665684742,-1.9444576104122007,2.199866482093432,2.925139751793183,-0.4515049304147018
1,541,1.2508497086507757,0.9056722351205113,-1.9560559896268455,-1.9506400368499106,2.2029479858997223,2.9249862274312064,-0.4590177424167915
1,542,1.2622591573090935,0.9071528596042315,-1.9619073126852165,-1.9568224632876206,2.2060294897060126,2.92483270306923,-0.46653055441888114
1,543,1.2736686059674116,0.9086334840879517,-1.9677586357435874,-1.9630048897253305,2.2091109935123026,2.9246791787072537,-0.4740433664209708
1,544,1.2850780546257294,0.9101141085716721,-1.9736099588019587,-1.9691873161630407,2.212192497318593,2.924525654345277,-0.4815561784230605
1,545,1.2973049109511008,0.911641343500755,-1.979644192682235,-1.9758181435761701,2.2155200553177368,2.924358502312887,-0.48956659645521594
1,546,1.309531767276472,0.9131685784298379,-1.9856784265625111,-1.9824489709892996,2.218847613316881,2.9241913502804966,-0.49757701448737146
1,547,1.321758623601843,0.9146958133589208,-1.9917126604427873,-1.989079798402429,2.2221751713160254,2.9240241982481066,-0.5055874325195269
1,548,1.3339854799272144,0.9162230482880037,-1.9977468943230636,-1.9957106258155586,2.2255027293151692,2.9238570462157165,-0.5135978505516824
1,549,1.3470980427595673,0.9178609152453352,-2.0042182446681274,-2.002821786589136,2.2290713337201735,2.923677785785321,-0.522188538702822
1,550,1.3602106055919205,0.9194987822026666,-2.010689595013191,-2.0099329473627137,2.2326399381251782,2.9234985253549253,-0.5307792268539615
1,551,1.3733231684242735,0.9211366491599979,-2.0171609453582544,-2.0170441081362913,2.236208542530183,2.9233192649245296,-0.539369915005101
1,552,1.3864357312566264,0.9227745161173294,-2.0236322957033184,-2.024155268909869,2.2397771469351873,2.9231400044941336,-0.5479606031562405
1,553,1.4003088735400069,0.9245073857043671,-2.0304790094426917,-2.0316789045616597,2.2435527442228187,2.9229503462642015,-0.5570495845061603
1,554,1.414182015823387,0.9262402552914049,-2.0373257231820654,-2.0392025402134504,2.2473283415104497,2.9227606880342694,-0.5661385658560801
1,555,1.4280551581067673,0.9279731248784426,-2.044172436921439,-2.046726175865241,2.2511039387980807,2.9225710298043373,-0.575227547206
1,556,1.4419283003901477,0.9297059944654803,-2.051019150660813,-2.0542498115170313,2.2548795360857117,2.922381371574405,-0.5843165285559198
1,557,1.4565697424223965,0.9315348310109293,-2.058245037938458,-2.0621901088928762,2.258864227347056,2.922181210001578,-0.5939088610534002
1,558,1.4712111844546452,0.9333636675563783,-2.065470925216103,-2.0701304062687216,2.2628489186083995,2.9219810484287514,-0.6035011935508807
1,559,1.4858526264868939,0.9351925041018273,-2.0726968124937484,-2.078070703644567,2.2668336098697432,2.9217808868559247,-0.6130935260483612
1,560,1.5004940685191426,0.9370213406472763,-2.0799226997713935,-2.086011001020412,2.2708183011310874,2.921580725283098,-0.6226858585458418
1,561,1.515875933985454,0.938942662170116,-2.0875140029869277,-2.094352842331448,2.2750044997836367,2.921370441461466,-0.6327632790389455
1,562,1.5312577994517653,0.9408639836929558,-2.0951053062024623,-2.1026946836424845,2.279190698436186,2.921160157639834,-0.6428406995320491
1,563,1.546639664918077,0.9427853052157955,-2.102696609417997,-2.111036524953521,2.2833768970887354,2.920949873818202,-0.6529181200251528
1,564,1.5620215303843883,0.9447066267386354,-2.110287912633531,-2.119378366264557,2.2875630957412847,2.9207395899965696,-0.6629955405182565
1,565,1.5781303398522164,0.9467187495468636,-2.1182379793779957,-2.1281144413904673,2.2919471333364703,2.9205193682019988,-0.6735492179643461
1,566,1.5942391493200447,0.9487308723550918,-2.1261880461224605,-2.136850516516378,2.296331170931656,2.920299146407428,-0.6841028954104357
1,567,1.610347958787873,0.95074299516332,-2.1341381128669257,-2.1455865916422883,2.3007152085268414,2.920078924612857,-0.6946565728565253
1,568,1.6264567682557012,0.9527551179715482,-2.1420881796113904,-2.1543226667681985,2.305099246122027,2.9198587028182863,-0.7052102503026149
1,569,1.6432676686098455,0.9548549377066429,-2.150384744302711,-2.163439497451515,2.3096743588458244,2.9196288828150303,-0.7162239021972703
1,570,1.6600785689639896,0.9569547574417375,-2.1586813089940318,-2.1725563281348315,2.314249471569622,2.9193990628117747,-0.7272375540919258
1,571,1.6768894693181338,0.9590545771768322,-2.166977873685352,-2.181673158818148,2.318824584293419,2.919169242808519,-0.7382512059865813
1,572,1.6937003696722779,0.9611543969119268,-2.1752744383766727,-2.1907899895014644,2.3233996970172166,2.9189394228052636,-0.7492648578812368
1,573,1.7111637443029926,0.963335716051201,-2.1838930140805477,-2.200260667830023,2.328152381631978,2.9187006828966364,-0.7607059779305407
1,574,1.7286271189337075,0.9655170351904753,-2.1925115897844227,-2.2097313461585815,2.3329050662467385,2.918461942988009,-0.7721470979798448
1,575,1.7460904935644224,0.9676983543297495,-2.2011301654882978,-2.2192020244871404,2.3376577508614993,2.918223203079382,-0.7835882180291488
1,576,1.763553868195137,0.9698796734690237,-2.209748741192173,-2.228672702815699,2.3424104354762605,2.917984463170755,-0.7950293380784528
1,577,1.7815613969745359,0.9721289619374991,-2.2186358694424015,-2.2384384849837113,2.3473112124904114,2.917738284189527,-0.8068269604116549
1,578,1.7995689257539345,0.9743782504059746,-2.2275229976926307,-2.2482042671517233,2.3522119895045623,2.917492105208299,-0.818624582744857
1,579,1.817576454533333,0.9766275388744501,-2.23641012594286,-2.257970049319735,2.3571127665187133,2.9172459262270714,-0.8304222050780592
1,580,1.8355839833127319,0.9788768273429256,-2.2452972541930887,-2.267735831487747,2.3620135435328646,2.9169997472458435,-0.8422198274112614
1,581,1.8537088636451933,0.9811407739856733,-2.2542422981248755,-2.277565255353536,2.3669462579550227,2.9167519639642068,-0.8540943325483292
1,582,1.871833743977655,0.9834047206284211,-2.2631873420566624,-2.287394679219325,2.3718789723771807,2.91650418068257,-0.8659688376853969
1,583,1.8899586243101165,0.9856686672711689,-2.2721323859884492,-2.297224103085114,2.3768116867993387,2.9162563974009332,-0.8778433428224646
1,584,1.908083504642578,0.9879326139139166,-2.281077429920236,-2.307053526950903,2.3817444012214968,2.916008614119297,-0.8897178479595323
1,585,1.926208716118792,0.990196601919243,-2.2900226372790558,-2.316883130401453,2.386677205764943,2.9157608263106303,-0.901592570045243
1,586,1.944333927595006,0.9924605899245693,-2.2989678446378754,-2.3267127338520033,2.3916100103083893,2.915513038501963,-0.9134672921309535
1,587,1.96245913907122,0.9947245779298957,-2.307913051996695,-2.3365423373025536,2.3965428148518355,2.915265250693296,-0.9253420142166641
1,588,1.980584350547434,0.996988565935222,-2.3168582593555147,-2.3463719407531034,2.4014756193952818,2.915017462884629,-0.9372167363023747
1,589,1.9984730164138722,0.999223007448142,-2.3256867260334304,-2.3560732615877447,2.4063440476824747,2.9147729088654475,-0.9489364856651259
1,590,2.0163616822803103,1.001457448961062,-2.334515192711346,-2.3657745824223864,2.411212475969668,2.914528354846266,-0.9606562350278771
1,591,2.034250348146749,1.003691890473982,-2.343343659389262,-2.375475903257028,2.416080904256861,2.914283800827085,-0.9723759843906283
1,592,2.052139014013187,1.0059263319869018,-2.3521721260671775,-2.3851772240916693,2.420949332544054,2.9140392468079033,-0.9840957337533796
1,593,2.069205979265364,1.0080581363340653,-2.3605950646556098,-2.394432923025355,2.425594133728816,2.91380592616908,-0.9952771464216975
1,594,2.0862729445175408,1.0101899406812287,-2.3690180032440415,-2.40368862195904,2.4302389349135773,2.913572605530257,-1.0064585590900155
1,595,2.1033399097697174,1.0123217450283921,-2.3774409418324733,-2.4129443208927253,2.434883736098339,2.9133392848914337,-1.0176399717583333
1,596,2.1204068750218945,1.0144535493755555,-2.3858638804209056,-2.422200019826411,2.439528537283101,2.9131059642526105,-1.0288213844266514
1,597,2.136837101526443,1.0165058198155394,-2.3939725738410313,-2.4311104047537464,2.4440000490256173,2.9128813484004423,-1.0395856380632411
1,598,2.153267328030992,1.0185580902555236,-2.402081267261157,-2.4400207896810824,2.4484715607681338,2.9126567325482737,-1.0503498916998306
1,599,2.169697554535541,1.0206103606955077,-2.410189960681283,-2.4489311746084184,2.4529430725106502,2.912432116696105,-1.0611141453364201
1,600,2.1861277810400894,1.0226626311354916,-2.418298654101408,-2.457841559535754,2.457414584253167,2.9122075008439365,-1.0718783989730096
1,601,2.201804489258035,1.0246207809432888,-2.426035468973735,-2.4663432989717107,2.461681024819957,2.911993186258888,-1.0821489855287127
1,602,2.2174811974759807,1.0265789307510857,-2.4337722838460616,-2.4748450384076675,2.465947465386747,2.9117788716738398,-1.0924195720844159
1,603,2.2331579056939264,1.0285370805588827,-2.441509098718388,-2.4833467778436242,2.4702139059535364,2.9115645570887914,-1.102690158640119
1,604,2.248834613911872,1.03049523036668,-2.4492459135907145,-2.491848517279581,2.4744803465203264,2.911350242503743,-1.112960745195822
1,605,2.2637365330350545,1.0323566026433841,-2.456600352283811,-2.499930075711342,2.4785359270278073,2.9111465199767363,-1.122723729112658
1,606,2.278638452158237,1.0342179749200886,-2.4639547909769077,-2.508011634143103,2.482591507535288,2.9109427974497297,-1.1324867130294938
1,607,2.293540371281419,1.036079347196793,-2.4713092296700045,-2.516093192574864,2.4866470880427687,2.9107390749227227,-1.1422496969463296
1,608,2.3084422904046016,1.0379407194734973,-2.478663668363101,-2.5241747510066257,2.4907026685502496,2.910535352395716,-1.1520126808631654
1,609,2.3224683006833517,1.039692683530598,-2.4855858259624766,-2.531781289513191,2.4945198691009987,2.910343604323928,-1.1612018135941162
1,610,2.3364943109621024,1.0414446475876984,-2.4925079835618518,-2.539387828019756,2.4983370696517473,2.9101518562521402,-1.170390946325067
1,611,2.350520321240853,1.043196611644799,-2.499430141161227,-2.546994366526321,2.502154270202496,2.909960108180352,-1.1795800790560178
1,612,2.364546331519603,1.0449485757018997,-2.5063522987606026,-2.554600905032886,2.505971470753245,2.909768360108564,-1.1887692117869684
1,613,2.3777798958922447,1.0466015567469316,-2.512883366139591,-2.561777686952981,2.509573005915967,2.9095874454791786,-1.1974391740290478
1,614,2.3910134602648863,1.0482545377919632,-2.5194144335185795,-2.568954468873076,2.5131745410786888,2.909406530849793,-1.206109136271127
1,615,2.404247024637528,1.0499075188369948,-2.525945500897568,-2.5761312507931713,2.5167760762414106,2.9092256162204078,-1.214779098513206
1,616,2.4174805890101694,1.0515604998820267,-2.532476568276556,-2.583308032713266,2.520377611404132,2.9090447015910224,-1.2234490607552855
1,617,2.4298142413079895,1.0531010745065366,-2.5385635084173854,-2.5899967773573565,2.523734234093573,2.908876089562426,-1.231529446108615
1,618,2.4421478936058096,1.0546416491310464,-2.5446504485582144,-2.5966855220014473,2.5270908567830137,2.90870747753383,-1.2396098314619448
1,619,2.4544815459036298,1.0561822237555565,-2.5507373886990434,-2.603374266645538,2.5304474794724547,2.9085388655052338,-1.2476902168152744
1,620,2.46681519820145,1.0577227983800663,-2.5568243288398724,-2.610063011289629,2.5338041021618958,2.908370253476638,-1.255770602168604
1,621,2.479191807563445,1.0592687386952422,-2.562932469276603,-2.61677505226363,2.5371724156832816,2.908201054186657,-1.263879130818323
1,622,2.4915684169254404,1.0608146790104178,-2.5690406097133334,-2.623487093237631,2.5405407292046673,2.9080318548966755,-1.271987659468042
1,623,2.5039450262874356,1.0623606193255937,-2.5751487501500643,-2.6301991342116313,2.543909042726053,2.907862655606694,-1.2800961881177608
1,624,2.516321635649431,1.0639065596407695,-2.5812568905867947,-2.6369111751856322,2.547277356247439,2.9076934563167125,-1.28820471676748
1,625,2.5279556207480933,1.0653597400768753,-2.5869985289259403,-2.6432204786781477,2.5504435634185043,2.9075344093628357,-1.2958267155495193
1,626,2.5395896058467553,1.0668129205129813,-2.592740167265086,-2.649529782170663,2.5536097705895697,2.907375362408959,-1.3034487143315587
1,627,2.5512235909454173,1.0682661009490872,-2.5984818056042314,-2.6558390856631786,2.556775977760635,2.9072163154550825,-1.3110707131135984
1,628,2.5628575760440793,1.069719281385193,-2.604223443943377,-2.662148389155694,2.5599421849317,2.9070572685012057,-1.3186927118956377
1,629,2.5736228415571922,1.0710639515992662,-2.6095363492528634,-2.667986571577601,2.56287196871404,2.906910097718966,-1.325745569530698
1,630,2.5843881070703056,1.0724086218133393,-2.6148492545623503,-2.673824753999509,2.5658017524963794,2.906762926936726,-1.3327984271657587
1,631,2.595153372583419,1.0737532920274124,-2.620162159871837,-2.679662936421416,2.568731536278719,2.9066157561544865,-1.3398512848008193
1,632,2.605918638096532,1.0750979622414856,-2.625475065181324,-2.685501118843323,2.5716613200610587,2.906468585372247,-1.3469041424358799
1,633,2.6157722915765573,1.0763287646140094,-2.6303380690550417,-2.6908449189073878,2.5743430072082463,2.9063338771396623,-1.353359757961125
1,634,2.6256259450565826,1.0775595669865332,-2.6352010729287594,-2.696188718971453,2.5770246943554334,2.906199168907078,-1.35981537348637
1,635,2.635479598536608,1.078790369359057,-2.640064076802477,-2.701532519035518,2.5797063815026204,2.906064460674494,-1.366270989011615
1,636,2.6453332520166333,1.0800211717315809,-2.644927080676195,-2.7068763190995826,2.5823880686498075,2.905929752441909,-1.37272660453686
1,637,2.6545153249082665,1.0811680881644163,-2.649458644134489,-2.7118559098479302,2.5848869840935,2.9058042253150216,-1.3787422344180325
1,638,2.6636973977998997,1.0823150045972518,-2.6539902075927824,-2.716835500596278,2.5873858995371926,2.905678698188134,-1.3847578642992047
1,639,2.672879470691533,1.0834619210300875,-2.6585217710510762,-2.7218150913446255,2.589884814980885,2.9055531710612463,-1.390773494180377
1,640,2.6820615435831665,1.084608837462923,-2.66305333450937,-2.726794682092973,2.5923837304245776,2.905427643934359,-1.3967891240615495
1,641,2.689752872949496,1.085569547767089,-2.666849181864701,-2.7309658178492544,2.5944769376951884,2.9053224966012134,-1.401828094162102
1,642,2.6974442023158263,1.0865302580712548,-2.670645029220032,-2.7351369536055357,2.5965701449657996,2.905217349268068,-1.4068670642626544
1,643,2.7051355316821564,1.0874909683754206,-2.674440876575363,-2.739308089361817,2.598663352236411,2.905112201934923,-1.4119060343632068
1,644,2.712826861048486,1.0884516786795866,-2.6782367239306937,-2.7434792251180977,2.6007565595070217,2.9050070546017777,-1.4169450044637593
1,645,2.7199920617375577,1.0893466711842037,-2.6817729147230285,-2.747365032547689,2.602706580038376,2.90490909991696,-1.4216392816578614
1,646,2.7271572624266294,1.090241663688821,-2.685309105515363,-2.75125083997728,2.6046566005697303,2.9048111452321423,-1.4263335588519634
1,647,2.734322463115701,1.0911366561934384,-2.688845296307697,-2.755136647406871,2.6066066211010845,2.9047131905473247,-1.4310278360460655
1,648,2.7414876638047727,1.0920316486980557,-2.6923814871000316,-2.759022454836462,2.6085566416324393,2.9046152358625075,-1.4357221132401674
1,649,2.7471428356341656,1.0927380261771051,-2.6951724440347995,-2.7620893485166054,2.6100957054569145,2.904537924619156,-1.4394270958777002
1,650,2.752798007463559,1.0934444036561546,-2.6979634009695674,-2.765156242196748,2.6116347692813893,2.9044606133758037,-1.4431320785152328
1,651,2.758453179292952,1.094150781135204,-2.7007543579043354,-2.768223135876891,2.613173833105864,2.9043833021324517,-1.4468370611527654
1,652,2.7641083511223448,1.0948571586142533,-2.7035453148391038,-2.771290029557034,2.614712896930339,2.9043059908891,-1.4505420437902983
1,653,2.7697397776670356,1.0955605701119224,-2.7063245529315436,-2.7743440457746025,2.6162454984385857,2.904229004264971,-1.454231469717938
1,654,2.7753712042117265,1.0962639816095918,-2.709103791023983,-2.7773980619921708,2.617778099946832,2.904152017640842,-1.4579208956455778
1,655,2.7810026307564173,1.0969673931072612,-2.711883029116423,-2.780452078209739,2.6193107014550785,2.904075031016713,-1.4616103215732177
1,656,2.786634057301108,1.0976708046049304,-2.7146622672088627,-2.7835060944273073,2.6208433029633253,2.903998044392584,-1.4652997475008573
1,657,2.789484309630515,1.098026824566099,-2.716068932071502,-2.785051833640824,2.621619003575642,2.9039590789008,-1.4671670887084494
1,658,2.792334561959921,1.0983828445272672,-2.7174755969341415,-2.7865975728543413,2.6223947041879585,2.9039201134090167,-1.4690344299160412
1,659,2.7951848142893274,1.0987388644884355,-2.7188822617967814,-2.7881433120678585,2.623170404800275,2.9038811479172333,-1.470901771123633
1,660,2.798035066618734,1.0990948844496038,-2.720288926659421,-2.7896890512813752,2.623946105412591,2.9038421824254494,-1.4727691123312248
1,661,2.8006209157320097,1.0994178782741848,-2.721565102473823,-2.7910914002360236,2.6246498482776808,2.9038068315614796,-1.4744632299207505
1,662,2.803206764845285,1.0997408720987656,-2.722841278288225,-2.7924937491906725,2.625353591142771,2.9037714806975097,-1.4761573475102763
1,663,2.8057926139585607,1.1000638659233464,-2.7241174541026276,-2.7938960981453214,2.626057334007861,2.90373612983354,-1.477851465099802
1,664,2.8083784630718367,1.1003868597479274,-2.72539362991703,-2.79529844709997,2.626761076872951,2.90370077896957,-1.479545582689328
1,665,2.8109552208878954,1.100708717994704,-2.7266653189678505,-2.796695865693028,2.6274623455273383,2.9036655523917423,-1.4812337441206047
1,666,2.8135319787039546,1.1010305762414805,-2.727937008018671,-2.7980932842860855,2.6281636141817257,2.903630325813915,-1.4829219055518816
1,667,2.8161087365200133,1.1013524344882568,-2.729208697069491,-2.799490702879143,2.6288648828361136,2.9035950992360875,-1.4846100669831586
1,668,2.818685494336072,1.1016742927350334,-2.7304803861203113,-2.800888121472201,2.629566151490501,2.90355987265826,-1.4862982284144355
1,669,2.8212655411361496,1.101996561802968,-2.7317536983601403,-2.8022873237359596,2.630268315247014,2.9035246011170868,-1.487988544621739
1,670,2.8238455879362268,1.1023188308709024,-2.733027010599969,-2.803686525999718,2.6309704790035267,2.903489329575914,-1.489678860829042
1,671,2.826425634736304,1.102641099938837,-2.734300322839798,-2.8050857282634762,2.6316726427600394,2.9034540580347414,-1.4913691770363453
1,672,2.8290056815363815,1.1029633690067715,-2.735573635079627,-2.806484930527235,2.632374806516552,2.9034187864935683,-1.4930594932436487
1,673,2.8315873639631777,1.1032858423779373,-2.7368477545387364,-2.8078850198185497,2.6330774154114245,2.903383492591919,-1.4947508810308754
1,674,2.834169046389974,1.1036083157491032,-2.7381218739978452,-2.8092851091098643,2.633780024306297,2.9033481986902703,-1.496442268818102
1,675,2.83675072881677,1.103930789120269,-2.7393959934569545,-2.810685198401179,2.63448263320117,2.9033129047886215,-1.4981336566053285
1,676,2.839332411243566,1.1042532624914347,-2.7406701129160638,-2.8120852876924936,2.6351852420960427,2.9032776108869722,-1.4998250443925552
1,677,2.8398351301164015,1.1043160562138499,-2.7409182162039403,-2.812357920493141,2.635322057820552,2.9032707382715524,-1.5001544003788285
1,678,2.840337848989237,1.1043788499362648,-2.7411663194918168,-2.8126305532937876,2.635458873545061,2.903263865656133,-1.5004837563651021
1,679,2.8408405678620725,1.1044416436586797,-2.7414144227796933,-2.8129031860944345,2.6355956892695698,2.9032569930407135,-1.5008131123513755
1,680,2.841343286734908,1.1045044373810948,-2.7416625260675698,-2.8131758188950817,2.635732504994079,2.9032501204252936,-1.5011424683376489
1,681,2.841343286734908,1.1045044373810948,-2.7416625260675698,-2.8131758188950817,2.635732504994079,2.9032501204252936,-1.5011424683376489
1,682,2.841343286734908,1.1045044373810948,-2.7416625260675698,-2.8131758188950817,2.635732504994079,2.9032501204252936,-1.5011424683376489
1,683,2.841343286734908,1.1045044373810948,-2.7416625260675698,-2.8131758188950817,2.635732504994079,2.9032501204252936,-1.5011424683376489
1,684,2.841343286734908,1.1045044373810948,-2.7416625260675698,-2.8131758188950817,2.635732504994079,2.9032501204252936,-1.5011424683376489
1,685,2.841343286734908,1.1045044373810948,-2.7416625260675698,-2.8131758188950817,2.635732504994079,2.9032501204252936,-1.5011424683376489
1,686,2.841343286734908,1.1045044373810948,-2.7416625260675698,-2.8131758188950817,2.635732504994079,2.9032501204252936,-1.5011424683376489
1,687,2.841343286734908,1.1045044373810948,-2.7416625260675698,-2.8131758188950817,2.635732504994079,2.9032501204252936,-1.5011424683376489
1,688,2.841343286734908,1.1045044373810948,-2.7416625260675698,-2.8131758188950817,2.635732504994079,2.9032501204252936,-1.5011424683376489
1,689,2.841343286734908,1.1045044373810948,-2.7416625260675698,-2.8131758188950817,2.635732504994079,2.9032501204252936,-1.5011424683376489
1,690,2.841343286734908,1.1045044373810948,-2.7416625260675698,-2.8131758188950817,2.635732504994079,2.9032501204252936,-1.5011424683376489
1,691,2.841343286734908,1.1045044373810948,-2.7416625260675698,-2.8131758188950817,2.635732504994079,2.9032501204252936,-1.5011424683376489
1,692,2.841343286734908,1.1045044373810948,-2.7416625260675698,-2.8131758188950817,2.635732504994079,2.9032501204252936,-1.5011424683376489
1,693,2.841343286734908,1.1045044373810948,-2.7416625260675698,-2.8131758188950817,2.635732504994079,2.9032501204252936,-1.5011424683376489
1,694,2.841343286734908,1.1045044373810948,-2.7416625260675698,-2.8131758188950817,2.635732504994079,2.9032501204252936,-1.5011424683376489
1,695,2.841343286734908,1.1045044373810948,-2.7416625260675698,-2.8131758188950817,2.635732504994079,2.9032501204252936,-1.5011424683376489
1,696,2.841343286734908,1.1045044373810948,-2.7416625260675698,-2.8131758188950817,2.635732504994079,2.9032501204252936,-1.5011424683376489
1,697,2.841343286734908,1.1045044373810948,-2.7416625260675698,-2.8131758188950817,2.635732504994079,2.9032501204252936,-1.5011424683376489
1,698,2.841343286734908,1.1045044373810948,-2.7416625260675698,-2.8131758188950817,2.635732504994079,2.9032501204252936,-1.5011424683376489
