zelongjiang123/UMAP-research/panda_RRTConnect_combined.csv
horse_idx,layer_idx,panda-panda_joint1,panda-panda_joint2,panda-panda_joint3,panda-panda_joint4,panda-panda_joint5,panda-panda_joint6,panda-panda_joint7
1,0,1.721123246577682e-06,-0.7853996736627545,-2.0997412921185565e-06,-2.356196306207024,-9.055181025466058e-06,1.5708008512628742,0.785405304740786
1,1,0.0020130561502562793,-0.7871645963762277,-0.0024558945040404163,-2.3583185330380094,-0.01059109967356755,1.576088224459375,0.793750804706374
1,2,0.004014557973966221,-0.7889208905700276,-0.004897692924839724,-2.3604303845274446,-0.02112140967462764,1.581349748249952,0.8020555044091029
1,3,0.006018104834105012,-0.7906789792591228,-0.007341986255542827,-2.3625443938031867,-0.031662479030140536,1.5866166480075627,0.8103686894468045
1,4,0.008022242879394735,-0.7924375867062005,-0.009787000822145318,-2.3646590268581464,-0.04220665873151153,1.5918851018655493,0.8186843274501188
1,5,0.01002701997226218,-0.7941967549099744,-0.012232795015999512,-2.36677433419357,-0.05275420059274625,1.5971552356440804,0.8270026170114609
1,6,0.014554943056797096,-0.7981699538994218,-0.01775678470531411,-2.3715518972199177,-0.0765765289944908,1.6090581850938204,0.8457900300673312
1,7,0.01941842000783929,-0.8024375974406914,-0.023690144444470505,-2.376683514349226,-0.1021642748415347,1.6218432344900775,0.8659697346826801
1,8,0.0253528435048983,-0.8076449839181693,-0.030930040882143187,-2.3829451229836733,-0.13338648926139163,1.6374435752158516,0.8905930472712952
1,9,0.03173251626238345,-0.8132430713591021,-0.03871313389755138,-2.3896765289985984,-0.16695125100470753,1.6542143818131614,0.9170638032930856
1,10,0.039044829275087164,-0.819659539600762,-0.047634032272609636,-2.3973919949273137,-0.20542282366899245,1.6734369018352366,0.947404302104273
1,11,0.04704154665079027,-0.8266765645817203,-0.057389892411361124,-2.4058295987807883,-0.24749518751072572,1.6944585757704573,0.9805845548655279
1,12,0.055655968084058614,-0.8342356175723148,-0.06789934106770304,-2.4149189628367997,-0.29281741859615595,1.7171040626624863,1.0163278063922436
1,13,0.06492307195301487,-0.8423673916859252,-0.0792050512721819,-2.4246969939515206,-0.34157354531866396,1.7414653132487488,1.0547791901651677
1,14,0.07488876640705217,-0.8511121707810385,-0.0913630301916971,-2.4352121313482007,-0.3940050998312349,1.7676630103172148,1.0961291898451702
1,15,0.08541277334113496,-0.8603468624784858,-0.10420214090731562,-2.446316362908367,-0.44937405036448114,1.795328392481711,1.1397957587294258
1,16,0.09664054647948062,-0.8701991007020953,-0.11789983450595928,-2.4581631617193245,-0.508445658677684,1.8248438267335285,1.1863824183765765
1,17,0.1084030561892624,-0.8805205639468866,-0.13224989769038537,-2.4705741789643927,-0.5703306253398137,1.8557649700179204,1.235187825263044
1,18,0.12075252747663655,-0.8913570790384948,-0.14731604408605642,-2.4836045189935803,-0.635303716777819,1.8882291107995275,1.2864286731674508
1,19,0.13355712900091232,-0.9025929655336281,-0.1629374416838795,-2.497115082151871,-0.7026713413752029,1.9218896924441418,1.3395579629899843
1,20,0.14695702224620094,-0.9143512134779727,-0.17928508512722957,-2.511253757507101,-0.7731709173348444,1.9571151697662605,1.3951572575459477
1,21,0.16084819518341784,-0.926540553545364,-0.19623208149732224,-2.5259107984900004,-0.846255216122088,1.993632117201615,1.4527949865730578
1,22,0.17515903359535046,-0.9390981451066339,-0.21369106265867804,-2.5410106425457446,-0.9215474607094045,2.0312522761620073,1.5121740059161852
1,23,0.1899393572277623,-0.9520677043998512,-0.23172280785970378,-2.5566058561536873,-0.9993097629574225,2.070106612192644,1.5735010293654108
1,24,0.20509834318522624,-0.9653695354077487,-0.25021651470192074,-2.572600609040427,-1.0790642850581953,2.109956371164322,1.636399211462129
1,25,0.22078483403982357,-0.9791342457281014,-0.2693537686094093,-2.5891519499799465,-1.1615941181919585,2.151192828630618,1.7014861348882415
1,26,0.23691848336136043,-0.9932913323180588,-0.28903654829433434,-2.606175102767567,-1.2464765433746978,2.1936047708674438,1.7684284234923793
1,27,0.25296352088498286,-1.0073706631026826,-0.3086112230824022,-2.623104758284692,-1.3308927637852326,2.2357837714814695,1.8350030409992035
1,28,0.26858373262206925,-1.0210772142807973,-0.3276676175859407,-2.639586165911448,-1.4130738889409569,2.2768459952051474,1.899814956848021
1,29,0.28371500663202603,-1.0343547283822954,-0.3461275163202366,-2.655551678995893,-1.492682612824348,2.316622905344331,1.9625981555859942
1,30,0.29844579856042963,-1.0472808241906795,-0.3640988336789321,-2.671094630046967,-1.5701843186582587,2.3553470330304433,2.0237196603978247
1,31,0.31273649041427337,-1.0598207373853459,-0.38153323637968223,-2.6861732167957215,-1.6453705680875306,2.392914230962558,2.0830150869542803
1,32,0.32660813160599866,-1.0719929385769216,-0.39845640435015434,-2.7008096491809575,-1.7183521063714102,2.4293798335815566,2.1405717741961388
1,33,0.33988277695328645,-1.0836412829711224,-0.41465124747330284,-2.714816171291655,-1.7881927275515426,2.4642760607439977,2.195651385897471
1,34,0.35263106761250146,-1.0948277573477243,-0.43020394676680745,-2.728267318973606,-1.8552640891835408,2.4977886130674913,2.2485470287561142
1,35,0.36479939016162266,-1.105505316562581,-0.4450490947613,-2.7411065229128053,-1.9192841201009374,2.5297765522365596,2.2990362481309354
1,36,0.37642267881651564,-1.1157046149772134,-0.4592293106101191,-2.75337064336835,-1.9804366163504565,2.56033171289542,2.347263994263137
1,37,0.38747308632989486,-1.1254012169612662,-0.4727106211418994,-2.7650302977786265,-2.03857506787494,2.589380890537158,2.393114722403514
1,38,0.3978793443921216,-1.134532585415378,-0.48540608022255904,-2.776010288567457,-2.0933245175372748,2.616736735891222,2.436292723648452
1,39,0.4076005954926968,-1.1430628683569966,-0.4972658423793474,-2.7862675056095427,-2.144470005627541,2.6422918432280915,2.4766284706204216
1,40,0.41663975223255695,-1.1509946215590183,-0.508293460936215,-2.795805022087509,-2.1920268559343103,2.666053869157886,2.5141340483826706
1,41,0.42502253847828825,-1.1583504174103327,-0.5185203185759366,-2.804649980113003,-2.2361304069750743,2.688090436270016,2.5489161912807092
1,42,0.4327757036511468,-1.1651537282119304,-0.5279790491406637,-2.812830603894694,-2.276921392919964,2.7084718631196063,2.5810858889264994
1,43,0.43979803089031816,-1.171315737364767,-0.5365461697696927,-2.820240096138802,-2.3138672911856455,2.7269320720469348,2.610223168865377
1,44,0.4460295483846877,-1.1767838203134189,-0.5441485158663505,-2.8268151785824105,-2.346652577821612,2.743313409880166,2.636079194011093
1,45,0.4519265727565526,-1.1819583895005734,-0.5513427860029344,-2.833037326149518,-2.377678027803187,2.758815436237887,2.660547328872562
1,46,0.4564433271501725,-1.1859217880957498,-0.556853150077965,-2.837803104716684,-2.4014415954402657,2.7706890255680094,2.6792884004147637
1,47,0.4609476723984006,-1.1898742978125132,-0.5623483752052003,-2.8425557899796776,-2.425139876028252,2.7825299938867865,2.6979779835072293
1,48,0.46345155513030856,-1.1920714253154272,-0.5654030698490986,-2.8451977203612095,-2.4383133146236857,2.7891121705336848,2.7083671792266717
1,49,0.46545557533513243,-1.193829929358889,-0.567847940652323,-2.847312229078754,-2.448856874342291,2.7943803146140795,2.716682328282302
1,50,0.4674605463547291,-1.1955892677310758,-0.5702939714335116,-2.8494277410327533,-2.4594054364916675,2.799650958184851,2.72500142249105
1,51,0.46946486455727726,-1.1973480332640183,-0.5727392057889267,-2.8515425641776595,-2.4699505640371813,2.80491988563806,2.733317808009012
1,52,0.47147366042216043,-1.1991107278927369,-0.5751899028167654,-2.8536621118537946,-2.480519249479025,2.810200583915868,2.741652772396412
1,53,0.4721108235107507,-1.1996698309721037,-0.5759672310235554,-2.8543344039305305,-2.4838714946604217,2.8118755505381223,2.744296511237777
1,54,0.4721108235107507,-1.1996698309721037,-0.5759672310235554,-2.8543344039305305,-2.4838714946604217,2.8118755505381223,2.744296511237777
1,55,0.4721108235107507,-1.1996698309721037,-0.5759672310235554,-2.8543344039305305,-2.4838714946604217,2.8118755505381223,2.744296511237777
1,56,0.4721108235107507,-1.1996698309721037,-0.5759672310235554,-2.8543344039305305,-2.4838714946604217,2.8118755505381223,2.744296511237777
1,57,0.4721108235107507,-1.1996698309721037,-0.5759672310235554,-2.8543344039305305,-2.4838714946604217,2.8118755505381223,2.744296511237777
1,58,0.4721108235107507,-1.1996698309721037,-0.5759672310235554,-2.8543344039305305,-2.4838714946604217,2.8118755505381223,2.744296511237777
1,59,0.4721108235107507,-1.1996698309721037,-0.5759672310235554,-2.8543344039305305,-2.4838714946604217,2.8118755505381223,2.744296511237777
1,60,0.4721108235107507,-1.1996698309721037,-0.5759672310235554,-2.8543344039305305,-2.4838714946604217,2.8118755505381223,2.744296511237777
1,61,0.4721108235107507,-1.1996698309721037,-0.5759672310235554,-2.8543344039305305,-2.4838714946604217,2.8118755505381223,2.744296511237777
1,62,0.4721108235107507,-1.1996698309721037,-0.5759672310235554,-2.8543344039305305,-2.4838714946604217,2.8118755505381223,2.744296511237777
1,63,0.4721108235107507,-1.1996698309721037,-0.5759672310235554,-2.8543344039305305,-2.4838714946604217,2.8118755505381223,2.744296511237777
1,64,0.4721108235107507,-1.1996698309721037,-0.5759672310235554,-2.8543344039305305,-2.4838714946604217,2.8118755505381223,2.744296511237777
1,65,0.4721108235107507,-1.1996698309721037,-0.5759672310235554,-2.8543344039305305,-2.4838714946604217,2.8118755505381223,2.744296511237777
1,66,0.4721108235107507,-1.1996698309721037,-0.5759672310235554,-2.8543344039305305,-2.4838714946604217,2.8118755505381223,2.744296511237777
1,67,0.4721108235107507,-1.1996698309721037,-0.5759672310235554,-2.8543344039305305,-2.4838714946604217,2.8118755505381223,2.744296511237777
1,68,0.4721129214519164,-1.1996681908997948,-0.5759683089352406,-2.8543332139427857,-2.483872751062895,2.811874194111043,2.7442973355276625
1,69,0.4794830766046208,-1.1939065482115097,-0.5797550578152181,-2.8501527371723716,-2.4882865455553387,2.807109008989846,2.747193100406399
1,70,0.4868393016133693,-1.1881557954584305,-0.5835346494568566,-2.8459801618154295,-2.492691997646381,2.8023528304245944,2.7500833920731353
1,71,0.49420111200977024,-1.1824006763104435,-0.5873171108427541,-2.841804418332057,-2.4971007946810166,2.7975930406183878,2.7529758782621125
1,72,0.5015546423139495,-1.1766520301513987,-0.5910953179586536,-2.8376333714571653,-2.5015046329834836,2.79283860431851,2.7558651111681187
1,73,0.5089108055276711,-1.1709013257067824,-0.594874877850316,-2.8334608311514087,-2.5059100480670895,2.7880824657069283,2.75875537855533
1,74,0.5175386289933279,-1.164106350241873,-0.5993735945535981,-2.828469979590677,-2.5110607264980542,2.782610309414005,2.7621581755348976
1,75,0.5350511265017504,-1.150010460978454,-0.6089032970543021,-2.817752310862331,-2.521416712209433,2.772146018552536,2.769143117197725
1,76,0.5525843463440513,-1.135897892213811,-0.6184442759407351,-2.8070219600416855,-2.5317849520378184,2.7616693454178405,2.7761363240604875
1,77,0.5736868536502272,-1.1186309019631622,-0.6304146360567396,-2.7933882311985863,-2.54406344873477,2.749920237692762,2.7846154847720563
1,78,0.5958707851359001,-1.1004077695145036,-0.6431217679893874,-2.77887377753215,-2.556920420846278,2.7377868734251503,2.7935449521209383
1,79,0.6217974238439973,-1.078841751335738,-0.6586555542195668,-2.760907780206303,-2.5715621626767233,2.724914920500996,2.804034319967248
1,80,0.6491714473638618,-1.0559911401360946,-0.6754325152679055,-2.7413944437923257,-2.5867590692822637,2.712096034945926,2.8151258954619722
1,81,0.677576028031525,-1.0322071652321714,-0.6933073904932975,-2.720476832964552,-2.60218418673351,2.699770130657098,2.8266519859726853
1,82,0.7047057516974247,-1.0094805263172584,-0.7109021206653849,-2.6997638202300216,-2.6164827671839115,2.6891383823348805,2.8376705262355837
1,83,0.729161851880251,-0.9890696176799951,-0.7272122958788654,-2.6804888650486016,-2.62894637935647,2.6805841923456173,2.8476045499964773
1,84,0.7519823909288706,-0.9700908787169337,-0.7426657399414198,-2.662202022888278,-2.6403397883916084,2.6731500610203947,2.856873421190494
1,85,0.7724537149112394,-0.9531730379155849,-0.7568277012948201,-2.645422999398338,-2.650246128139962,2.6671910634465674,2.8651859581341275
1,86,0.790258674229485,-0.9385625931451805,-0.7693351765695353,-2.630614149616717,-2.658646084390794,2.6624682793394876,2.872412853197764
1,87,0.8061991305245129,-0.9255630224114334,-0.7806809394286391,-2.61718839612793,-2.665998113008678,2.658598362408648,2.8788806679126835
1,88,0.8186724678464783,-0.9154253240818968,-0.7896058527871966,-2.6066366490974944,-2.6716943248411833,2.655684394166518,2.8839405011830785
1,89,0.8252727084856134,-0.9101351569956604,-0.7944295618520073,-2.600953720908574,-2.674586196128051,2.654388707482128,2.886615307218906
1,90,0.8318591926205215,-0.9048560159022417,-0.7992432171357866,-2.5952826373219837,-2.6774720400529235,2.653095721323419,2.889284538309432
1,91,0.8384576857455045,-0.8995672494682475,-0.8040656490502148,-2.5896012137747846,-2.680363145672859,2.6518003776917967,2.891958636149656
1,92,0.8450519251546893,-0.8942818924352949,-0.8088849721859519,-2.583923452754869,-2.6832523875427805,2.6505058691028975,2.89463101013384
1,93,0.8516378140543387,-0.889003228429629,-0.8136981924489691,-2.5782528816767485,-2.686137970667503,2.6492129997942313,2.8973
1,94,0.8516378140543387,-0.889003228429629,-0.8136981924489691,-2.5782528816767485,-2.686137970667503,2.6492129997942313,2.8973
1,95,0.8516378140543387,-0.889003228429629,-0.8136981924489691,-2.5782528816767485,-2.686137970667503,2.6492129997942313,2.8973
1,96,0.8516378140543387,-0.889003228429629,-0.8136981924489691,-2.5782528816767485,-2.686137970667503,2.6492129997942313,2.8973
1,97,0.8516378140543387,-0.889003228429629,-0.8136981924489691,-2.5782528816767485,-2.686137970667503,2.6492129997942313,2.8973
1,98,0.8516378140543387,-0.889003228429629,-0.8136981924489691,-2.5782528816767485,-2.686137970667503,2.6492129997942313,2.8973
1,99,0.8516378140543387,-0.889003228429629,-0.8136981924489691,-2.5782528816767485,-2.686137970667503,2.6492129997942313,2.8973
1,100,0.8516378140543387,-0.889003228429629,-0.8136981924489691,-2.5782528816767485,-2.686137970667503,2.6492129997942313,2.8973
1,101,0.8516378140543387,-0.889003228429629,-0.8136981924489691,-2.5782528816767485,-2.686137970667503,2.6492129997942313,2.8973
1,102,0.8516378140543387,-0.889003228429629,-0.8136981924489691,-2.5782528816767485,-2.686137970667503,2.6492129997942313,2.8973
1,103,0.8516378140543387,-0.889003228429629,-0.8136981924489691,-2.5782528816767485,-2.686137970667503,2.6492129997942313,2.8973
1,104,0.8516378140543387,-0.889003228429629,-0.8136981924489691,-2.5782528816767485,-2.686137970667503,2.6492129997942313,2.8973
1,105,0.8516378140543387,-0.889003228429629,-0.8136981924489691,-2.5782528816767485,-2.686137970667503,2.6492129997942313,2.8973
1,106,0.8516378140543387,-0.889003228429629,-0.8136981924489691,-2.5782528816767485,-2.686137970667503,2.6492129997942313,2.8973
1,107,0.8516378140543387,-0.889003228429629,-0.8136981924489691,-2.5782528816767485,-2.686137970667503,2.6492129997942313,2.8973
1,108,0.8516369600880052,-0.8890028542139158,-0.813696811768705,-2.578251462231329,-2.686135649027638,2.6492145128668105,2.8972986296042196
1,109,0.8477628848692267,-0.8873051996765855,-0.80743326368047,-2.5718120534299347,-2.6756033749625443,2.6560786675203363,2.8910817377617515
1,110,0.8439127367963382,-0.8856180302293714,-0.8012084006513603,-2.565412415842349,-2.6651361505528848,2.662900427635674,2.88490324281911
1,111,0.8400547931844781,-0.8839274447070015,-0.7949709339089863,-2.5589998206689053,-2.654647732762019,2.6697360000241575,2.8787122380464054
1,112,0.8361938597644907,-0.8822355490238716,-0.78872863328861,-2.552582255897382,-2.644151186714261,2.6765768698072994,2.8725164354025425
1,113,0.8323378914561611,-0.8805458290972406,-0.7824943601880613,-2.546172944033173,-2.6336681390922663,2.6834089423182235,2.8663286004826958
1,114,0.8245409160350333,-0.8764149447826604,-0.7709127935439787,-2.5333233079904747,-2.613049521626216,2.696605662197342,2.854033188079238
1,115,0.8145948703030864,-0.8709544865894079,-0.7564129746647149,-2.5169614493584795,-2.586902566853494,2.7132744872039636,2.8384067622473945
1,116,0.8030870397738858,-0.8641517446665223,-0.7406117327693842,-2.4983739198882624,-2.5573367246444167,2.7318901597398373,2.8206003367685595
1,117,0.7896379927097869,-0.8557017976636915,-0.7231502742405295,-2.4770049881851337,-2.5234913760462554,2.7529549594797955,2.8000723259764912
1,118,0.7739058103701018,-0.8452347748828472,-0.7045273673212863,-2.453061614829701,-2.4853631166175214,2.7761999431000306,2.7766602390683532
1,119,0.756675352831131,-0.8334889633080922,-0.6852607854193388,-2.4276193953051743,-2.4445645637955464,2.8007347045405755,2.7514145349937644
1,120,0.7367984823497531,-0.8196037117593236,-0.6652038898624146,-2.400069699994951,-2.399453452568975,2.8271424915161605,2.7230998975363456
1,121,0.714264930421847,-0.8039158743013225,-0.6445950922547217,-2.3712122061422707,-2.350389305412529,2.854955225237323,2.691838447178236
1,122,0.6895129829211245,-0.786952379397057,-0.6236690563321501,-2.3418096453717165,-2.298215596899555,2.8836190362418392,2.6581505001615295
1,123,0.662564274794165,-0.7689002199011054,-0.6025403647061088,-2.312288680239019,-2.2431016459274042,2.912875999872401,2.6220768002506545
1,124,0.6337466231850187,-0.7507456108501288,-0.5821785775496077,-2.285154001430489,-2.1863801236421714,2.9410092262678766,2.5840343384475544
1,125,0.6050501878235212,-0.733602202834261,-0.5628929336080537,-2.260925025181187,-2.1305576599699374,2.9672080811580552,2.5458883999881037
1,126,0.5764753184621332,-0.7172174346221241,-0.544415848393488,-2.2388472365742604,-2.07545635112764,2.9919632819568966,2.5077106962079756
1,127,0.5475712940668531,-0.7023437675001523,-0.5266476263137821,-2.220831205778796,-2.018652007264269,3.0144027812383336,2.4667794183351934
1,128,0.5187105768619762,-0.6877904926530972,-0.5090676687531404,-2.2035990943591095,-1.961745418498997,3.036352537084367,2.42550368783157
1,129,0.49503479310440235,-0.6773042517383504,-0.4948145808199615,-2.192805326700537,-1.9095499044506747,3.0524031059743018,2.3853620208468977
1,130,0.47232843185115286,-0.6675838256316323,-0.48118414208184523,-2.1832277688568738,-1.858214703129562,3.0673434309306975,2.3454090147817284
1,131,0.4496728408441293,-0.6578917790202342,-0.46757622631147927,-2.1736852684723478,-1.8068194819772607,3.082236038361818,2.305371499771053
1,132,0.4378308578984116,-0.6535423857533865,-0.45960568120584694,-2.1701686310936052,-1.7611049925230302,3.088476989326871,2.265697256041301
1,133,0.42595195812964975,-0.6491794334582648,-0.45161028830195493,-2.1666410307637745,-1.7152479903050617,3.0947373961620652,2.2258993297288345
1,134,0.4140739160629668,-0.644816796185016,-0.44361547269606594,-2.1631136851402037,-1.66939429913836,3.1009973509718978,2.1861042769791394
1,135,0.4021942711944763,-0.6404535702252759,-0.43561957828402087,-2.1595858635429073,-1.62353442055637,3.107258150488866,2.1463038543560153
1,136,0.403302350819777,-0.6404085176270217,-0.43498461276361916,-2.158360694390225,-1.6039897519217408,3.1056418776070283,2.127096252898499
1,137,0.40477255674419543,-0.6404840066487423,-0.4345553182129544,-2.157200214620599,-1.585186263996075,3.1038062976781435,2.1084699970250877
1,138,0.40624361695205846,-0.6405595395344008,-0.43412577421476567,-2.1560390605381854,-1.566371850044218,3.101969651160206,2.089832918108616
1,139,0.4077145212781216,-0.6406350644161707,-0.43369627573347097,-2.1548780294981786,-1.5475594297733102,3.1001331992636474,2.0711978140816774
1,140,0.40918885266533517,-0.6407107652634222,-0.43326577656332566,-2.1537142933710354,-1.5287031784295624,3.0982924686163646,2.0525192921111555
1,141,0.4106553652985492,-0.6407860646498438,-0.4328375604396769,-2.1525567288322995,-1.5099469265783911,3.0964614998314657,2.03393982708918
1,142,0.41212621469315436,-0.6408615867111094,-0.43240807799815945,-2.1513957411514197,-1.4911352088641718,3.094625116517872,2.01530541899699
1,143,0.41360190035038397,-0.640937357094551,-0.4319771833863088,-2.150230936056365,-1.472261636817609,3.0927826950388364,1.9966097395797318
1,144,0.4150680389643458,-0.6410126372766238,-0.4315490764748623,-2.1490736667427868,-1.4535101685592493,3.0909521932240547,1.9780350130628706
1,145,0.4155695974137095,-0.6410383902381983,-0.43140262331100576,-2.148677770886224,-1.4470953880921138,3.0903259880050964,1.9716806950328876
1,146,0.4155690498368589,-0.6410398389681017,-0.43140075053997207,-2.14867832040395,-1.4470899193579616,3.0903244810970145,1.971677410082723
1,147,0.41444373928798434,-0.6440170850676853,-0.4275520688482852,-2.149807619593857,-1.4358512699822021,3.087227674577732,1.9649265968071599
1,148,0.4133207304820227,-0.646988241421539,-0.42371125936202364,-2.150934608882369,-1.4246356084666183,3.0841372023565374,1.9581895918413377
1,149,0.4121983324154214,-0.6499577819357649,-0.41987253866929275,-2.152060985266767,-1.4134260464988773,3.0810484108639513,1.9514562507418016
1,150,0.41107519496006006,-0.6529292786587051,-0.41603128918840937,-2.153188103660674,-1.402209100141969,3.0779575846051093,1.9447184739996228
1,151,0.40995243607551674,-0.6558997737928015,-0.4121913344599638,-2.154314842141926,-1.390995934629995,3.074867800156973,1.937982968329111
1,152,0.408034261014245,-0.6609747099739307,-0.405630971858591,-2.1562398161368477,-1.3718388255310716,3.069589064397486,1.926475707794285
1,153,0.4052949442361308,-0.6682221495374545,-0.3962622173026131,-2.158988842369222,-1.344480847922891,3.062050581740118,1.9100423631587435
1,154,0.40237458613920374,-0.675948572045587,-0.3862742821925641,-2.1619195516177907,-1.3153147828434797,3.0540138811135678,1.8925229395384364
1,155,0.3988610449262779,-0.6852443854389401,-0.37425759777358386,-2.1654455465082068,-1.2802245068313638,3.044344765912578,1.8714449707162477
1,156,0.39505566536189335,-0.6953123186657544,-0.3612427951717479,-2.1692644141653585,-1.2422195963570328,3.033872524045551,1.8486162440971856
1,157,0.3909257497432656,-0.7062388803863974,-0.34711804476794095,-2.1734089681883932,-1.2009734944381898,3.022507172832373,1.8238406039744914
1,158,0.3862852729000709,-0.71851623937448,-0.33124712070616796,-2.1780658931101793,-1.1546283391127068,3.0097367789575817,1.7960020729047235
1,159,0.38134948287361214,-0.7315749115955255,-0.31436619416740863,-2.18301917794698,-1.1053338456457986,2.996153695828187,1.766391938289586
1,160,0.3760762456119412,-0.7455263715593462,-0.2963311622153743,-2.1883111060940585,-1.0526692147860057,2.9816419723346157,1.734757435132315
1,161,0.3704623250664435,-0.7603791809142134,-0.27713095721982867,-2.1939449250701397,-0.9966021276185387,2.966192703009433,1.7010791501607532
1,162,0.3645198960223146,-0.7761011287013189,-0.2568072182402552,-2.1999084169367427,-0.937254175594019,2.94983939234098,1.6654301207258846
1,163,0.3582286563362959,-0.7927459285172249,-0.23529050978869953,-2.206221955797672,-0.8744225980879342,2.9325261696990013,1.6276885529119145
1,164,0.35162258796803936,-0.8102236739294972,-0.21269705377927342,-2.21285143924489,-0.8084467781532666,2.914346551983604,1.5880583067684786
1,165,0.3447191621447379,-0.828488141126347,-0.18908660366607533,-2.219779334124784,-0.7395012036207596,2.895348619265062,1.5466441933564807
1,166,0.33754131057261555,-0.8474786594484793,-0.16453758832190957,-2.22698262745015,-0.6678148969643388,2.8755954786184885,1.5035837815158848
1,167,0.3301111707800484,-0.8671366594013854,-0.1391257204469249,-2.2344391032265793,-0.5936089490817272,2.855148051575513,1.4590098757606094
1,168,0.32240446076215007,-0.8875263841439082,-0.1127679530033607,-2.242173129526045,-0.5166408518587562,2.8339395150968336,1.4127768067186668
1,169,0.31439466215889605,-0.908717993583487,-0.08537359038117315,-2.2502113187023762,-0.4366457623588411,2.8118968917894227,1.3647254889739666
1,170,0.30618752581241815,-0.9304317015912358,-0.057304311701205576,-2.2584475450816677,-0.3546798304928654,2.789311203449583,1.3154903289040898
1,171,0.2977664585928426,-0.9527114087875174,-0.02850336669552848,-2.2668984606078144,-0.2705773381229483,2.7661367864933206,1.2649717832127023
1,172,0.28905007257971477,-0.9757724440599612,0.0013075999749172385,-2.2756457416791496,-0.18352545158079484,2.7421496648431822,1.2126816003194505
1,173,0.2803461214703812,-0.9988005801750507,0.031076037952622402,-2.284380543771419,-0.09659775433368026,2.7181967635166466,1.1604660152460613
1,174,0.2716308849560861,-1.0218585742061945,0.06088307321487437,-2.293126671269545,-0.009557348013010641,2.69421280523815,1.1081827282732188
1,175,0.2629199682353306,-1.0449051393135815,0.09067533432405019,-2.301868463662709,0.07743991586576618,2.6702407348467876,1.0559253560308504
1,176,0.25421109456845026,-1.0679462990915791,0.12046060797180677,-2.310608205760433,0.16441677545153904,2.646274286852341,1.0036802402053777
1,177,0.2455001541316661,-1.0909929269447154,0.15025295019232127,-2.319350021953686,0.2514142761859378,2.6223021511954814,0.9514227256889671
1,178,0.23678519983244337,-1.114050174316438,0.18005902024902798,-2.3280958662364344,0.3384518639813127,2.598318969560798,0.8991411317432259
1,179,0.22807830238623877,-1.1370861055863548,0.20983753501201194,-2.3368336251088078,0.4254089867475154,2.574357960041161,0.8469078713978125
1,180,0.219362733373999,-1.1601449793108511,0.23964570745257757,-2.345580086283411,0.5124527137762531,2.550373086742536,0.7946225897475526
1,181,0.21065317071964873,-1.1831879619503334,0.26943333751071713,-2.354320519810708,0.5994364543857637,2.526404742684029,0.7423733406401484
1,182,0.20194389828533807,-1.206230176751567,0.2992199749854724,-2.3630606620892856,0.686417296523141,2.502437197298663,0.69012583258218
1,183,0.1932325620693681,-1.2292778517219085,0.32901367081287164,-2.371802875464556,0.773418749965087,2.478463972474405,0.6378659437599525
1,184,0.18452005703608002,-1.2523286190446725,0.35881136411973774,-2.380546261799995,0.8604318765651987,2.454487531114859,0.5855990431244301
1,185,0.17581106559609075,-1.2753700904162386,0.38859704056404576,-2.3892861220882726,0.947409912369109,2.4305207590138522,0.5333532207701965
1,186,0.16709589791985394,-1.298427902321799,0.4184038403928214,-2.3980321805043454,1.0344496311935125,2.406536990174749,0.48107034676147115
1,187,0.15838791552141165,-1.3214667040614017,0.4481860658077829,-2.406771028174548,1.1214175895444352,2.3825729949129393,0.4288305777149915
1,188,0.149853867701642,-1.3440453252344458,0.4773734164753619,-2.415335324758397,1.206648436529987,2.3590876601752844,0.3776342538436742
1,189,0.14159310726337462,-1.3659009070727415,0.5056260952492054,-2.4236253652990127,1.289149920440967,2.33635440062747,0.32807739925924406
1,190,0.1335401325613835,-1.3872067479764159,0.533168124718464,-2.4317068836109113,1.369576216273752,2.314192958542274,0.2797670652093712
1,191,0.12573298033509467,-1.407862213739018,0.559869415191197,-2.439541708134193,1.4475474452666655,2.2927080094003824,0.23293143663885435
1,192,0.1182104304334977,-1.4277647041012131,0.5855973354617678,-2.4470909215654597,1.5226763071086293,2.272006273688233,0.18780315645648493
1,193,0.11099957180826571,-1.4468425495351611,0.6102592384360427,-2.4543273389367837,1.5946922602765807,2.2521622990426766,0.1445447330958317
1,194,0.10415462564322406,-1.4649522964775594,0.6336696819019153,-2.461196546878423,1.6630537894755992,2.2333252998434427,0.10348144306652161
1,195,0.09759442393495549,-1.4823086919791901,0.6561062690588002,-2.467780001092182,1.7285715320287325,2.215271905215361,0.06412635408522371
1,196,0.09131197147796405,-1.498930243329707,0.6775929242530468,-2.4740847215779245,1.7913153501282064,2.1979828646519786,0.026437501446129028
1,197,0.08536328655588185,-1.5146687423597156,0.6979380590001871,-2.4800544914963165,1.8507257805671735,2.1816123380748604,-0.009249057419152815
1,198,0.07974911117704901,-1.5295222259298509,0.7171391355528265,-2.4856885662089847,1.9067954127943185,2.1661623674592345,-0.042928871152943096
1,199,0.07443581667256924,-1.5435796657674332,0.7353111675331392,-2.4910206935809787,1.9598601014935566,2.1515404081460496,-0.07480368038999496
1,200,0.06949863360282475,-1.5566420235779308,0.7521968584280088,-2.4959753763986794,2.009168507497826,2.13795349142109,-0.10442217196501002
1,201,0.06498540334453051,-1.568582724921633,0.767632585643786,-2.5005046037125562,2.0542428316261874,2.1255332747076796,-0.13149734225807932
1,202,0.060800088108959684,-1.579655857998625,0.7819468086262235,-2.504704753715383,2.096042218032586,2.114015466117214,-0.15660532838952168
1,203,0.05686659142116271,-1.5900627520628283,0.7953997854082998,-2.5086521926045626,2.1353266539059312,2.1031906514040406,-0.18020263820406207
1,204,0.053548002468386924,-1.5988427781859766,0.8067497123751767,-2.51198254423039,2.1684699117380166,2.094058036488048,-0.20011107537364317
1,205,0.05032225547882867,-1.6073771713386142,0.8177821099592418,-2.5152197248164927,2.200685942616616,2.0851809186854906,-0.2194625473939638
1,206,0.047897588041867535,-1.613792139790389,0.8260747303229223,-2.5176529864393338,2.224901468903187,2.0785083375625435,-0.2340082895792061
1,207,0.04547287026959665,-1.6202072414148287,0.8343675228387126,-2.5200862985758974,2.2491174978962314,2.071835617918976,-0.24855433372933952
1,208,0.04373282173396071,-1.6248109063506897,0.840318673788507,-2.5218325146792284,2.266495630011294,2.067047078742466,-0.25899300131869374
1,209,0.04260976088209111,-1.627782200402956,0.8441596612773061,-2.5229595561981237,2.2777118113173587,2.063956463293158,-0.2657303185114002
1,210,0.0414865734020221,-1.630753829476798,0.848001081848007,-2.52408672479405,2.2889292572787094,2.060865499368459,-0.27246839535514755
1,211,0.040364624884056406,-1.6337221806154127,0.8518382650366195,-2.525212650036396,2.3001343295351457,2.0577779450144984,-0.27919903958233994
1,212,0.039241606847946704,-1.6366933613895673,0.8556791060909686,-2.526339648587772,2.3113500832336364,2.054687447392331,-0.28593609992043806
1,213,0.03813574395344021,-1.6396191748917026,0.8594613024223953,-2.5274494452107956,2.3223945699538064,2.0516441474031315,-0.2925702820798384
1,214,0.04131061532819833,-1.6429348907607686,0.8646049784155739,-2.5323665959080532,2.3277121437243022,2.053108021213963,-0.2947158766409068
1,215,0.04470778246525912,-1.646482763936286,0.8701088004559381,-2.537628031974254,2.3334020393861072,2.054674391443163,-0.2970116998324442
1,216,0.04809181585640197,-1.6500169207231312,0.8755913442378771,-2.542869126867451,2.3390699374125568,2.056234705947763,-0.29929864717029125
1,217,0.051482825892074445,-1.6535583636542794,0.8810851910285822,-2.548121026989731,2.3447495205807267,2.05779823725267,-0.3015903093607388
1,218,0.05836111176870402,-1.6604450508570856,0.8925227734735165,-2.5583242212161714,2.356485537279758,2.061015938739756,-0.3061052822007166
1,219,0.06644156017956632,-1.66848487737906,0.9060093899135769,-2.5702341741232453,2.3703094220396905,2.064803888931743,-0.3113866656647054
1,220,0.07667622712918679,-1.678160935799459,0.9235663735416714,-2.584578161552148,2.3881684154611276,2.069688239798225,-0.31787746559360236
1,221,0.08794851287756192,-1.6884535032567167,0.9432290599334479,-2.599862149678218,2.408080911571242,2.0751356086031247,-0.3249049447885322
1,222,0.10043551108888558,-1.6993506914154677,0.9654525002459453,-2.616094456885749,2.4304725452743208,2.081268305353684,-0.3325381786775704
1,223,0.11377127159864639,-1.710368944248168,0.9897143367708795,-2.6325964655198995,2.454793030746715,2.0879472166272532,-0.34053609292139
1,224,0.12682508652040983,-1.7205472606105103,1.0139694506810877,-2.647957268925516,2.4790011771636324,2.0946209156719493,-0.3482480224164464
1,225,0.13796326455459146,-1.7286013266119944,1.035185785323003,-2.660270716313116,2.5000903381443402,2.1004694403745705,-0.3547540275830503
1,226,0.14763782239142986,-1.735284397084898,1.0538748610041764,-2.6705868622618207,2.518638177474586,2.105632870021288,-0.3603937402420748
1,227,0.15639127914739356,-1.7411082103952336,1.0709704930827204,-2.67965035424642,2.5355840727844643,2.1103642003280116,-0.365488397603221
1,228,0.1644845320596084,-1.7461079365527332,1.0871083380044786,-2.687579106835984,2.5515632889793443,2.1148508012415568,-0.3702187056987989
1,229,0.17245397397469447,-1.7509460615809442,1.1030726449167574,-2.6952867844639856,2.5673669295025907,2.1192935626980964,-0.3748810506236795
1,230,0.17631922702453642,-1.7531360651724082,1.110958465838681,-2.698847095141405,2.575174951677809,2.121498220524621,-0.37716552310823237
1,231,0.17947742363431438,-1.7548692144039761,1.1174531399561578,-2.7016921779386016,2.58160610373768,2.1233175104382855,-0.37904043888119715
1,232,0.18263603704199394,-1.7566025923651174,1.1239486711977718,-2.7045376362110094,2.588038104538467,2.1251370404498,-0.3809156020931458
1,233,0.18579378985059636,-1.7583354980483061,1.130442432660223,-2.7073823192069124,2.594468352869661,2.1269560747102854,-0.38279025439618547
1,234,0.18895232480665908,-1.7600688329569159,1.1369378025699919,-2.71022770680565,2.6009001939165315,2.1287755595294793,-0.3846653710340312
1,235,0.18944889492735806,-1.7603413397794627,1.1379589743046556,-2.7106750453607065,2.601911377939944,2.1290616104387916,-0.3849601681181643
1,236,0.18944889492735806,-1.7603413397794627,1.1379589743046556,-2.7106750453607065,2.601911377939944,2.1290616104387916,-0.3849601681181643
1,237,0.18944889492735806,-1.7603413397794627,1.1379589743046556,-2.7106750453607065,2.601911377939944,2.1290616104387916,-0.3849601681181643
1,238,0.18944889492735806,-1.7603413397794627,1.1379589743046556,-2.7106750453607065,2.601911377939944,2.1290616104387916,-0.3849601681181643
1,239,0.18944889492735806,-1.7603413397794627,1.1379589743046556,-2.7106750453607065,2.601911377939944,2.1290616104387916,-0.3849601681181643
1,240,0.18944889492735806,-1.7603413397794627,1.1379589743046556,-2.7106750453607065,2.601911377939944,2.1290616104387916,-0.3849601681181643
1,241,0.18944889492735806,-1.7603413397794627,1.1379589743046556,-2.7106750453607065,2.601911377939944,2.1290616104387916,-0.3849601681181643
1,242,0.18944889492735806,-1.7603413397794627,1.1379589743046556,-2.7106750453607065,2.601911377939944,2.1290616104387916,-0.3849601681181643
1,243,0.18944889492735806,-1.7603413397794627,1.1379589743046556,-2.7106750453607065,2.601911377939944,2.1290616104387916,-0.3849601681181643
1,244,0.18944889492735806,-1.7603413397794627,1.1379589743046556,-2.7106750453607065,2.601911377939944,2.1290616104387916,-0.3849601681181643
1,245,0.18944889492735806,-1.7603413397794627,1.1379589743046556,-2.7106750453607065,2.601911377939944,2.1290616104387916,-0.3849601681181643
1,246,0.18944889492735806,-1.7603413397794627,1.1379589743046556,-2.7106750453607065,2.601911377939944,2.1290616104387916,-0.3849601681181643
1,247,0.18944889492735806,-1.7603413397794627,1.1379589743046556,-2.7106750453607065,2.601911377939944,2.1290616104387916,-0.3849601681181643
1,248,0.18944889492735806,-1.7603413397794627,1.1379589743046556,-2.7106750453607065,2.601911377939944,2.1290616104387916,-0.3849601681181643
1,249,0.18944889492735806,-1.7603413397794627,1.1379589743046556,-2.7106750453607065,2.601911377939944,2.1290616104387916,-0.3849601681181643
1,250,0.1894553351096871,-1.7603416184218885,1.137956737114555,-2.7106808885503506,2.601907712181108,2.1290620750080405,-0.3849610716381956
1,251,0.1996538852950343,-1.7607828712652254,1.134413965442846,-2.7199340524803985,2.5961026862442247,2.1297977580302874,-0.3863918687665751
1,252,0.20983224052919464,-1.7612232503491092,1.130878209091911,-2.729168893492924,2.5903091552956785,2.1305319842687314,-0.38781983266104975
1,253,0.22000275482457735,-1.7616632901851128,1.1273451765257565,-2.738396620406822,2.584520087418073,2.131265644892904,-0.38924669651753047
1,254,0.23018401385005893,-1.762103794905107,1.123808411455989,-2.747634096034722,2.578724903628326,2.1320000805993544,-0.3906750677969969
1,255,0.24038424109625445,-1.7625451203085485,1.1202650572069963,-2.756888781565259,2.572918923106571,2.1327358845981292,-0.39210610020723535
1,256,0.2573106255254045,-1.762799995262285,1.1139847290191098,-2.771162892622241,2.5629133425866826,2.1350986128822163,-0.3947461699919521
1,257,0.28369374845937023,-1.7627999957302551,1.103862408255726,-2.79251062747846,2.547008921906947,2.1397313590766167,-0.39908206344786873
1,258,0.31074752272248995,-1.762799996335367,1.093376052180433,-2.814153685007668,2.5305970971744958,2.14475010960166,-0.40348931607134997
1,259,0.3458062869139694,-1.7627999983828133,1.0787103566353258,-2.8397060644282566,2.5082890530519464,2.1539594629510037,-0.40880870039911055
1,260,0.38141774618356666,-1.7627999993211456,1.0635797901650401,-2.865004400742679,2.4854018766460695,2.164032714876492,-0.4140832385904205
1,261,0.4185519186451417,-1.7627999961382697,1.0469503352733902,-2.888989621423109,2.4607068193833466,2.177157008777612,-0.4191140723795385
1,262,0.4534283079413692,-1.7627999920057262,1.0311476374793254,-2.9108044354928126,2.4373256207585374,2.190271585822336,-0.4236561776806424
1,263,0.48253839908715307,-1.7627999855823644,1.0174781505188801,-2.9271599496521525,2.417322060704457,2.2032685375764975,-0.42697161662580424
1,264,0.5116600505387163,-1.7627999791564517,1.0038032350818173,-2.9435219589730472,2.3973105567635042,2.216270650727637,-0.4302883722101963
1,265,0.5314533131926458,-1.7627999764599918,0.9944242306676988,-2.953994580868,2.383599838982814,2.225830771408827,-0.4323175093703515
1,266,0.5447120500762156,-1.7627999763739934,0.9880546089881128,-2.960342475502056,2.3743029467224286,2.2329789082360962,-0.4334449429155686
1,267,0.5579719826112347,-1.7627999762879873,0.981684412906345,-2.966690942578985,2.365005216083335,2.2401276896707842,-0.4345724781309194
1,268,0.5712577010309396,-1.7627999762018138,0.9753018290434814,-2.9730517551817703,2.3556894046425882,2.2472903729600433,-0.43570220600396026
1,269,0.5845007026639706,-1.7627999761159174,0.9689397667259859,-2.979392116239036,2.3464035457808015,2.2544300264962684,-0.43682830152961666
1,270,0.5977632811497846,-1.7627999760298942,0.9625682995046146,-2.9857418501196578,2.3371039598277603,2.2615802344332314,-0.4379560617387743
1,271,0.611025092906699,-1.762799975943876,0.9561972006270051,-2.9920912169129537,2.327804911497272,2.268730029006302,-0.4390837567504785
1,272,0.611702112933402,-1.7627999759394846,0.95587195384992,-2.9924153542597005,2.3273301918990437,2.2690950284650113,-0.4391413259665804
1,273,1.721123246577682e-06,-0.7853996736627545,-2.0997412921185565e-06,-2.356196306207024,-9.055181025466058e-06,1.5708008512628742,0.785405304740786
1,274,0.0020130561502562793,-0.7871645963762277,-0.0024558945040404163,-2.3583185330380094,-0.01059109967356755,1.576088224459375,0.793750804706374
1,275,0.004014557973966221,-0.7889208905700276,-0.004897692924839724,-2.3604303845274446,-0.02112140967462764,1.581349748249952,0.8020555044091029
1,276,0.006018104834105012,-0.7906789792591228,-0.007341986255542827,-2.3625443938031867,-0.031662479030140536,1.5866166480075627,0.8103686894468045
1,277,0.008022242879394735,-0.7924375867062005,-0.009787000822145318,-2.3646590268581464,-0.04220665873151153,1.5918851018655493,0.8186843274501188
1,278,0.01002701997226218,-0.7941967549099744,-0.012232795015999512,-2.36677433419357,-0.05275420059274625,1.5971552356440804,0.8270026170114609
1,279,0.014554943056797096,-0.7981699538994218,-0.01775678470531411,-2.3715518972199177,-0.0765765289944908,1.6090581850938204,0.8457900300673312
1,280,0.01941842000783929,-0.8024375974406914,-0.023690144444470505,-2.376683514349226,-0.1021642748415347,1.6218432344900775,0.8659697346826801
1,281,0.0253528435048983,-0.8076449839181693,-0.030930040882143187,-2.3829451229836733,-0.13338648926139163,1.6374435752158516,0.8905930472712952
1,282,0.03173251626238345,-0.8132430713591021,-0.03871313389755138,-2.3896765289985984,-0.16695125100470753,1.6542143818131614,0.9170638032930856
1,283,0.039044829275087164,-0.819659539600762,-0.047634032272609636,-2.3973919949273137,-0.20542282366899245,1.6734369018352366,0.947404302104273
1,284,0.04704154665079027,-0.8266765645817203,-0.057389892411361124,-2.4058295987807883,-0.24749518751072572,1.6944585757704573,0.9805845548655279
1,285,0.055655968084058614,-0.8342356175723148,-0.06789934106770304,-2.4149189628367997,-0.29281741859615595,1.7171040626624863,1.0163278063922436
1,286,0.06492307195301487,-0.8423673916859252,-0.0792050512721819,-2.4246969939515206,-0.34157354531866396,1.7414653132487488,1.0547791901651677
1,287,0.07488876640705217,-0.8511121707810385,-0.0913630301916971,-2.4352121313482007,-0.3940050998312349,1.7676630103172148,1.0961291898451702
1,288,0.08541277334113496,-0.8603468624784858,-0.10420214090731562,-2.446316362908367,-0.44937405036448114,1.795328392481711,1.1397957587294258
1,289,0.09664054647948062,-0.8701991007020953,-0.11789983450595928,-2.4581631617193245,-0.508445658677684,1.8248438267335285,1.1863824183765765
1,290,0.1084030561892624,-0.8805205639468866,-0.13224989769038537,-2.4705741789643927,-0.5703306253398137,1.8557649700179204,1.235187825263044
1,291,0.12075252747663655,-0.8913570790384948,-0.14731604408605642,-2.4836045189935803,-0.635303716777819,1.8882291107995275,1.2864286731674508
1,292,0.13355712900091232,-0.9025929655336281,-0.1629374416838795,-2.497115082151871,-0.7026713413752029,1.9218896924441418,1.3395579629899843
1,293,0.14695702224620094,-0.9143512134779727,-0.17928508512722957,-2.511253757507101,-0.7731709173348444,1.9571151697662605,1.3951572575459477
1,294,0.16084819518341784,-0.926540553545364,-0.19623208149732224,-2.5259107984900004,-0.846255216122088,1.993632117201615,1.4527949865730578
1,295,0.17515903359535046,-0.9390981451066339,-0.21369106265867804,-2.5410106425457446,-0.9215474607094045,2.0312522761620073,1.5121740059161852
1,296,0.1899393572277623,-0.9520677043998512,-0.23172280785970378,-2.5566058561536873,-0.9993097629574225,2.070106612192644,1.5735010293654108
1,297,0.20509834318522624,-0.9653695354077487,-0.25021651470192074,-2.572600609040427,-1.0790642850581953,2.109956371164322,1.636399211462129
1,298,0.22078483403982357,-0.9791342457281014,-0.2693537686094093,-2.5891519499799465,-1.1615941181919585,2.151192828630618,1.7014861348882415
1,299,0.23691848336136043,-0.9932913323180588,-0.28903654829433434,-2.606175102767567,-1.2464765433746978,2.1936047708674438,1.7684284234923793
1,300,0.25296352088498286,-1.0073706631026826,-0.3086112230824022,-2.623104758284692,-1.3308927637852326,2.2357837714814695,1.8350030409992035
1,301,0.26858373262206925,-1.0210772142807973,-0.3276676175859407,-2.639586165911448,-1.4130738889409569,2.2768459952051474,1.899814956848021
1,302,0.28371500663202603,-1.0343547283822954,-0.3461275163202366,-2.655551678995893,-1.492682612824348,2.316622905344331,1.9625981555859942
1,303,0.29844579856042963,-1.0472808241906795,-0.3640988336789321,-2.671094630046967,-1.5701843186582587,2.3553470330304433,2.0237196603978247
1,304,0.31273649041427337,-1.0598207373853459,-0.38153323637968223,-2.6861732167957215,-1.6453705680875306,2.392914230962558,2.0830150869542803
1,305,0.32660813160599866,-1.0719929385769216,-0.39845640435015434,-2.7008096491809575,-1.7183521063714102,2.4293798335815566,2.1405717741961388
1,306,0.33988277695328645,-1.0836412829711224,-0.41465124747330284,-2.714816171291655,-1.7881927275515426,2.4642760607439977,2.195651385897471
1,307,0.35263106761250146,-1.0948277573477243,-0.43020394676680745,-2.728267318973606,-1.8552640891835408,2.4977886130674913,2.2485470287561142
1,308,0.36479939016162266,-1.105505316562581,-0.4450490947613,-2.7411065229128053,-1.9192841201009374,2.5297765522365596,2.2990362481309354
1,309,0.37642267881651564,-1.1157046149772134,-0.4592293106101191,-2.75337064336835,-1.9804366163504565,2.56033171289542,2.347263994263137
1,310,0.38747308632989486,-1.1254012169612662,-0.4727106211418994,-2.7650302977786265,-2.03857506787494,2.589380890537158,2.393114722403514
1,311,0.3978793443921216,-1.134532585415378,-0.48540608022255904,-2.776010288567457,-2.0933245175372748,2.616736735891222,2.436292723648452
1,312,0.4076005954926968,-1.1430628683569966,-0.4972658423793474,-2.7862675056095427,-2.144470005627541,2.6422918432280915,2.4766284706204216
1,313,0.41663975223255695,-1.1509946215590183,-0.508293460936215,-2.795805022087509,-2.1920268559343103,2.666053869157886,2.5141340483826706
1,314,0.42502253847828825,-1.1583504174103327,-0.5185203185759366,-2.804649980113003,-2.2361304069750743,2.688090436270016,2.5489161912807092
1,315,0.4327757036511468,-1.1651537282119304,-0.5279790491406637,-2.812830603894694,-2.276921392919964,2.7084718631196063,2.5810858889264994
1,316,0.43979803089031816,-1.171315737364767,-0.5365461697696927,-2.820240096138802,-2.3138672911856455,2.7269320720469348,2.610223168865377
1,317,0.4460295483846877,-1.1767838203134189,-0.5441485158663505,-2.8268151785824105,-2.346652577821612,2.743313409880166,2.636079194011093
1,318,0.4519265727565526,-1.1819583895005734,-0.5513427860029344,-2.833037326149518,-2.377678027803187,2.758815436237887,2.660547328872562
1,319,0.4564433271501725,-1.1859217880957498,-0.556853150077965,-2.837803104716684,-2.4014415954402657,2.7706890255680094,2.6792884004147637
1,320,0.4609476723984006,-1.1898742978125132,-0.5623483752052003,-2.8425557899796776,-2.425139876028252,2.7825299938867865,2.6979779835072293
1,321,0.46345155513030856,-1.1920714253154272,-0.5654030698490986,-2.8451977203612095,-2.4383133146236857,2.7891121705336848,2.7083671792266717
1,322,0.46545557533513243,-1.193829929358889,-0.567847940652323,-2.847312229078754,-2.448856874342291,2.7943803146140795,2.716682328282302
1,323,0.4674605463547291,-1.1955892677310758,-0.5702939714335116,-2.8494277410327533,-2.4594054364916675,2.799650958184851,2.72500142249105
1,324,0.46946486455727726,-1.1973480332640183,-0.5727392057889267,-2.8515425641776595,-2.4699505640371813,2.80491988563806,2.733317808009012
1,325,0.47147366042216043,-1.1991107278927369,-0.5751899028167654,-2.8536621118537946,-2.480519249479025,2.810200583915868,2.741652772396412
1,326,0.4721108235107507,-1.1996698309721037,-0.5759672310235554,-2.8543344039305305,-2.4838714946604217,2.8118755505381223,2.744296511237777
1,327,0.4721108235107507,-1.1996698309721037,-0.5759672310235554,-2.8543344039305305,-2.4838714946604217,2.8118755505381223,2.744296511237777
1,328,0.4721108235107507,-1.1996698309721037,-0.5759672310235554,-2.8543344039305305,-2.4838714946604217,2.8118755505381223,2.744296511237777
1,329,0.4721108235107507,-1.1996698309721037,-0.5759672310235554,-2.8543344039305305,-2.4838714946604217,2.8118755505381223,2.744296511237777
1,330,0.4721108235107507,-1.1996698309721037,-0.5759672310235554,-2.8543344039305305,-2.4838714946604217,2.8118755505381223,2.744296511237777
1,331,0.4721108235107507,-1.1996698309721037,-0.5759672310235554,-2.8543344039305305,-2.4838714946604217,2.8118755505381223,2.744296511237777
1,332,0.4721108235107507,-1.1996698309721037,-0.5759672310235554,-2.8543344039305305,-2.4838714946604217,2.8118755505381223,2.744296511237777
1,333,0.4721108235107507,-1.1996698309721037,-0.5759672310235554,-2.8543344039305305,-2.4838714946604217,2.8118755505381223,2.744296511237777
1,334,0.4721108235107507,-1.1996698309721037,-0.5759672310235554,-2.8543344039305305,-2.4838714946604217,2.8118755505381223,2.744296511237777
1,335,0.4721108235107507,-1.1996698309721037,-0.5759672310235554,-2.8543344039305305,-2.4838714946604217,2.8118755505381223,2.744296511237777
1,336,0.4721108235107507,-1.1996698309721037,-0.5759672310235554,-2.8543344039305305,-2.4838714946604217,2.8118755505381223,2.744296511237777
1,337,0.4721108235107507,-1.1996698309721037,-0.5759672310235554,-2.8543344039305305,-2.4838714946604217,2.8118755505381223,2.744296511237777
1,338,0.4721108235107507,-1.1996698309721037,-0.5759672310235554,-2.8543344039305305,-2.4838714946604217,2.8118755505381223,2.744296511237777
1,339,0.4721108235107507,-1.1996698309721037,-0.5759672310235554,-2.8543344039305305,-2.4838714946604217,2.8118755505381223,2.744296511237777
1,340,0.4721108235107507,-1.1996698309721037,-0.5759672310235554,-2.8543344039305305,-2.4838714946604217,2.8118755505381223,2.744296511237777
1,341,0.4721129214519164,-1.1996681908997948,-0.5759683089352406,-2.8543332139427857,-2.483872751062895,2.811874194111043,2.7442973355276625
1,342,0.4794830766046208,-1.1939065482115097,-0.5797550578152181,-2.8501527371723716,-2.4882865455553387,2.807109008989846,2.747193100406399
1,343,0.4868393016133693,-1.1881557954584305,-0.5835346494568566,-2.8459801618154295,-2.492691997646381,2.8023528304245944,2.7500833920731353
1,344,0.49420111200977024,-1.1824006763104435,-0.5873171108427541,-2.841804418332057,-2.4971007946810166,2.7975930406183878,2.7529758782621125
1,345,0.5015546423139495,-1.1766520301513987,-0.5910953179586536,-2.8376333714571653,-2.5015046329834836,2.79283860431851,2.7558651111681187
1,346,0.5089108055276711,-1.1709013257067824,-0.594874877850316,-2.8334608311514087,-2.5059100480670895,2.7880824657069283,2.75875537855533
1,347,0.5175386289933279,-1.164106350241873,-0.5993735945535981,-2.828469979590677,-2.5110607264980542,2.782610309414005,2.7621581755348976
1,348,0.5350511265017504,-1.150010460978454,-0.6089032970543021,-2.817752310862331,-2.521416712209433,2.772146018552536,2.769143117197725
1,349,0.5525843463440513,-1.135897892213811,-0.6184442759407351,-2.8070219600416855,-2.5317849520378184,2.7616693454178405,2.7761363240604875
1,350,0.5736868536502272,-1.1186309019631622,-0.6304146360567396,-2.7933882311985863,-2.54406344873477,2.749920237692762,2.7846154847720563
1,351,0.5958707851359001,-1.1004077695145036,-0.6431217679893874,-2.77887377753215,-2.556920420846278,2.7377868734251503,2.7935449521209383
1,352,0.6217974238439973,-1.078841751335738,-0.6586555542195668,-2.760907780206303,-2.5715621626767233,2.724914920500996,2.804034319967248
1,353,0.6491714473638618,-1.0559911401360946,-0.6754325152679055,-2.7413944437923257,-2.5867590692822637,2.712096034945926,2.8151258954619722
1,354,0.677576028031525,-1.0322071652321714,-0.6933073904932975,-2.720476832964552,-2.60218418673351,2.699770130657098,2.8266519859726853
1,355,0.7047057516974247,-1.0094805263172584,-0.7109021206653849,-2.6997638202300216,-2.6164827671839115,2.6891383823348805,2.8376705262355837
1,356,0.729161851880251,-0.9890696176799951,-0.7272122958788654,-2.6804888650486016,-2.62894637935647,2.6805841923456173,2.8476045499964773
1,357,0.7519823909288706,-0.9700908787169337,-0.7426657399414198,-2.662202022888278,-2.6403397883916084,2.6731500610203947,2.856873421190494
1,358,0.7724537149112394,-0.9531730379155849,-0.7568277012948201,-2.645422999398338,-2.650246128139962,2.6671910634465674,2.8651859581341275
1,359,0.790258674229485,-0.9385625931451805,-0.7693351765695353,-2.630614149616717,-2.658646084390794,2.6624682793394876,2.872412853197764
1,360,0.8061991305245129,-0.9255630224114334,-0.7806809394286391,-2.61718839612793,-2.665998113008678,2.658598362408648,2.8788806679126835
1,361,0.8186724678464783,-0.9154253240818968,-0.7896058527871966,-2.6066366490974944,-2.6716943248411833,2.655684394166518,2.8839405011830785
1,362,0.8252727084856134,-0.9101351569956604,-0.7944295618520073,-2.600953720908574,-2.674586196128051,2.654388707482128,2.886615307218906
1,363,0.8318591926205215,-0.9048560159022417,-0.7992432171357866,-2.5952826373219837,-2.6774720400529235,2.653095721323419,2.889284538309432
1,364,0.8384576857455045,-0.8995672494682475,-0.8040656490502148,-2.5896012137747846,-2.680363145672859,2.6518003776917967,2.891958636149656
1,365,0.8450519251546893,-0.8942818924352949,-0.8088849721859519,-2.583923452754869,-2.6832523875427805,2.6505058691028975,2.89463101013384
1,366,0.8516378140543387,-0.889003228429629,-0.8136981924489691,-2.5782528816767485,-2.686137970667503,2.6492129997942313,2.8973
1,367,0.8516378140543387,-0.889003228429629,-0.8136981924489691,-2.5782528816767485,-2.686137970667503,2.6492129997942313,2.8973
1,368,0.8516378140543387,-0.889003228429629,-0.8136981924489691,-2.5782528816767485,-2.686137970667503,2.6492129997942313,2.8973
1,369,0.8516378140543387,-0.889003228429629,-0.8136981924489691,-2.5782528816767485,-2.686137970667503,2.6492129997942313,2.8973
1,370,0.8516378140543387,-0.889003228429629,-0.8136981924489691,-2.5782528816767485,-2.686137970667503,2.6492129997942313,2.8973
1,371,0.8516378140543387,-0.889003228429629,-0.8136981924489691,-2.5782528816767485,-2.686137970667503,2.6492129997942313,2.8973
1,372,0.8516378140543387,-0.889003228429629,-0.8136981924489691,-2.5782528816767485,-2.686137970667503,2.6492129997942313,2.8973
1,373,0.8516378140543387,-0.889003228429629,-0.8136981924489691,-2.5782528816767485,-2.686137970667503,2.6492129997942313,2.8973
1,374,0.8516378140543387,-0.889003228429629,-0.8136981924489691,-2.5782528816767485,-2.686137970667503,2.6492129997942313,2.8973
1,375,0.8516378140543387,-0.889003228429629,-0.8136981924489691,-2.5782528816767485,-2.686137970667503,2.6492129997942313,2.8973
1,376,0.8516378140543387,-0.889003228429629,-0.8136981924489691,-2.5782528816767485,-2.686137970667503,2.6492129997942313,2.8973
1,377,0.8516378140543387,-0.889003228429629,-0.8136981924489691,-2.5782528816767485,-2.686137970667503,2.6492129997942313,2.8973
1,378,0.8516378140543387,-0.889003228429629,-0.8136981924489691,-2.5782528816767485,-2.686137970667503,2.6492129997942313,2.8973
1,379,0.8516378140543387,-0.889003228429629,-0.8136981924489691,-2.5782528816767485,-2.686137970667503,2.6492129997942313,2.8973
1,380,0.8516378140543387,-0.889003228429629,-0.8136981924489691,-2.5782528816767485,-2.686137970667503,2.6492129997942313,2.8973
1,381,0.8516369600880052,-0.8890028542139158,-0.813696811768705,-2.578251462231329,-2.686135649027638,2.6492145128668105,2.8972986296042196
1,382,0.8477628848692267,-0.8873051996765855,-0.80743326368047,-2.5718120534299347,-2.6756033749625443,2.6560786675203363,2.8910817377617515
1,383,0.8439127367963382,-0.8856180302293714,-0.8012084006513603,-2.565412415842349,-2.6651361505528848,2.662900427635674,2.88490324281911
1,384,0.8400547931844781,-0.8839274447070015,-0.7949709339089863,-2.5589998206689053,-2.654647732762019,2.6697360000241575,2.8787122380464054
1,385,0.8361938597644907,-0.8822355490238716,-0.78872863328861,-2.552582255897382,-2.644151186714261,2.6765768698072994,2.8725164354025425
1,386,0.8323378914561611,-0.8805458290972406,-0.7824943601880613,-2.546172944033173,-2.6336681390922663,2.6834089423182235,2.8663286004826958
1,387,0.8245409160350333,-0.8764149447826604,-0.7709127935439787,-2.5333233079904747,-2.613049521626216,2.696605662197342,2.854033188079238
1,388,0.8145948703030864,-0.8709544865894079,-0.7564129746647149,-2.5169614493584795,-2.586902566853494,2.7132744872039636,2.8384067622473945
1,389,0.8030870397738858,-0.8641517446665223,-0.7406117327693842,-2.4983739198882624,-2.5573367246444167,2.7318901597398373,2.8206003367685595
1,390,0.7896379927097869,-0.8557017976636915,-0.7231502742405295,-2.4770049881851337,-2.5234913760462554,2.7529549594797955,2.8000723259764912
1,391,0.7739058103701018,-0.8452347748828472,-0.7045273673212863,-2.453061614829701,-2.4853631166175214,2.7761999431000306,2.7766602390683532
1,392,0.756675352831131,-0.8334889633080922,-0.6852607854193388,-2.4276193953051743,-2.4445645637955464,2.8007347045405755,2.7514145349937644
1,393,0.7367984823497531,-0.8196037117593236,-0.6652038898624146,-2.400069699994951,-2.399453452568975,2.8271424915161605,2.7230998975363456
1,394,0.714264930421847,-0.8039158743013225,-0.6445950922547217,-2.3712122061422707,-2.350389305412529,2.854955225237323,2.691838447178236
1,395,0.6895129829211245,-0.786952379397057,-0.6236690563321501,-2.3418096453717165,-2.298215596899555,2.8836190362418392,2.6581505001615295
1,396,0.662564274794165,-0.7689002199011054,-0.6025403647061088,-2.312288680239019,-2.2431016459274042,2.912875999872401,2.6220768002506545
1,397,0.6337466231850187,-0.7507456108501288,-0.5821785775496077,-2.285154001430489,-2.1863801236421714,2.9410092262678766,2.5840343384475544
1,398,0.6050501878235212,-0.733602202834261,-0.5628929336080537,-2.260925025181187,-2.1305576599699374,2.9672080811580552,2.5458883999881037
1,399,0.5764753184621332,-0.7172174346221241,-0.544415848393488,-2.2388472365742604,-2.07545635112764,2.9919632819568966,2.5077106962079756
1,400,0.5475712940668531,-0.7023437675001523,-0.5266476263137821,-2.220831205778796,-2.018652007264269,3.0144027812383336,2.4667794183351934
1,401,0.5187105768619762,-0.6877904926530972,-0.5090676687531404,-2.2035990943591095,-1.961745418498997,3.036352537084367,2.42550368783157
1,402,0.49503479310440235,-0.6773042517383504,-0.4948145808199615,-2.192805326700537,-1.9095499044506747,3.0524031059743018,2.3853620208468977
1,403,0.47232843185115286,-0.6675838256316323,-0.48118414208184523,-2.1832277688568738,-1.858214703129562,3.0673434309306975,2.3454090147817284
1,404,0.4496728408441293,-0.6578917790202342,-0.46757622631147927,-2.1736852684723478,-1.8068194819772607,3.082236038361818,2.305371499771053
1,405,0.4378308578984116,-0.6535423857533865,-0.45960568120584694,-2.1701686310936052,-1.7611049925230302,3.088476989326871,2.265697256041301
1,406,0.42595195812964975,-0.6491794334582648,-0.45161028830195493,-2.1666410307637745,-1.7152479903050617,3.0947373961620652,2.2258993297288345
1,407,0.4140739160629668,-0.644816796185016,-0.44361547269606594,-2.1631136851402037,-1.66939429913836,3.1009973509718978,2.1861042769791394
1,408,0.4021942711944763,-0.6404535702252759,-0.43561957828402087,-2.1595858635429073,-1.62353442055637,3.107258150488866,2.1463038543560153
1,409,0.403302350819777,-0.6404085176270217,-0.43498461276361916,-2.158360694390225,-1.6039897519217408,3.1056418776070283,2.127096252898499
1,410,0.40477255674419543,-0.6404840066487423,-0.4345553182129544,-2.157200214620599,-1.585186263996075,3.1038062976781435,2.1084699970250877
1,411,0.40624361695205846,-0.6405595395344008,-0.43412577421476567,-2.1560390605381854,-1.566371850044218,3.101969651160206,2.089832918108616
1,412,0.4077145212781216,-0.6406350644161707,-0.43369627573347097,-2.1548780294981786,-1.5475594297733102,3.1001331992636474,2.0711978140816774
1,413,0.40918885266533517,-0.6407107652634222,-0.43326577656332566,-2.1537142933710354,-1.5287031784295624,3.0982924686163646,2.0525192921111555
1,414,0.4106553652985492,-0.6407860646498438,-0.4328375604396769,-2.1525567288322995,-1.5099469265783911,3.0964614998314657,2.03393982708918
1,415,0.41212621469315436,-0.6408615867111094,-0.43240807799815945,-2.1513957411514197,-1.4911352088641718,3.094625116517872,2.01530541899699
1,416,0.41360190035038397,-0.640937357094551,-0.4319771833863088,-2.150230936056365,-1.472261636817609,3.0927826950388364,1.9966097395797318
1,417,0.4150680389643458,-0.6410126372766238,-0.4315490764748623,-2.1490736667427868,-1.4535101685592493,3.0909521932240547,1.9780350130628706
1,418,0.4155695974137095,-0.6410383902381983,-0.43140262331100576,-2.148677770886224,-1.4470953880921138,3.0903259880050964,1.9716806950328876
1,419,0.4155690498368589,-0.6410398389681017,-0.43140075053997207,-2.14867832040395,-1.4470899193579616,3.0903244810970145,1.971677410082723
1,420,0.41444373928798434,-0.6440170850676853,-0.4275520688482852,-2.149807619593857,-1.4358512699822021,3.087227674577732,1.9649265968071599
1,421,0.4133207304820227,-0.646988241421539,-0.42371125936202364,-2.150934608882369,-1.4246356084666183,3.0841372023565374,1.9581895918413377
1,422,0.4121983324154214,-0.6499577819357649,-0.41987253866929275,-2.152060985266767,-1.4134260464988773,3.0810484108639513,1.9514562507418016
1,423,0.41107519496006006,-0.6529292786587051,-0.41603128918840937,-2.153188103660674,-1.402209100141969,3.0779575846051093,1.9447184739996228
1,424,0.40995243607551674,-0.6558997737928015,-0.4121913344599638,-2.154314842141926,-1.390995934629995,3.074867800156973,1.937982968329111
1,425,0.408034261014245,-0.6609747099739307,-0.405630971858591,-2.1562398161368477,-1.3718388255310716,3.069589064397486,1.926475707794285
1,426,0.4052949442361308,-0.6682221495374545,-0.3962622173026131,-2.158988842369222,-1.344480847922891,3.062050581740118,1.9100423631587435
1,427,0.40237458613920374,-0.675948572045587,-0.3862742821925641,-2.1619195516177907,-1.3153147828434797,3.0540138811135678,1.8925229395384364
1,428,0.3988610449262779,-0.6852443854389401,-0.37425759777358386,-2.1654455465082068,-1.2802245068313638,3.044344765912578,1.8714449707162477
1,429,0.39505566536189335,-0.6953123186657544,-0.3612427951717479,-2.1692644141653585,-1.2422195963570328,3.033872524045551,1.8486162440971856
1,430,0.3909257497432656,-0.7062388803863974,-0.34711804476794095,-2.1734089681883932,-1.2009734944381898,3.022507172832373,1.8238406039744914
1,431,0.3862852729000709,-0.71851623937448,-0.33124712070616796,-2.1780658931101793,-1.1546283391127068,3.0097367789575817,1.7960020729047235
1,432,0.38134948287361214,-0.7315749115955255,-0.31436619416740863,-2.18301917794698,-1.1053338456457986,2.996153695828187,1.766391938289586
1,433,0.3760762456119412,-0.7455263715593462,-0.2963311622153743,-2.1883111060940585,-1.0526692147860057,2.9816419723346157,1.734757435132315
1,434,0.3704623250664435,-0.7603791809142134,-0.27713095721982867,-2.1939449250701397,-0.9966021276185387,2.966192703009433,1.7010791501607532
1,435,0.3645198960223146,-0.7761011287013189,-0.2568072182402552,-2.1999084169367427,-0.937254175594019,2.94983939234098,1.6654301207258846
1,436,0.3582286563362959,-0.7927459285172249,-0.23529050978869953,-2.206221955797672,-0.8744225980879342,2.9325261696990013,1.6276885529119145
1,437,0.35162258796803936,-0.8102236739294972,-0.21269705377927342,-2.21285143924489,-0.8084467781532666,2.914346551983604,1.5880583067684786
1,438,0.3447191621447379,-0.828488141126347,-0.18908660366607533,-2.219779334124784,-0.7395012036207596,2.895348619265062,1.5466441933564807
1,439,0.33754131057261555,-0.8474786594484793,-0.16453758832190957,-2.22698262745015,-0.6678148969643388,2.8755954786184885,1.5035837815158848
1,440,0.3301111707800484,-0.8671366594013854,-0.1391257204469249,-2.2344391032265793,-0.5936089490817272,2.855148051575513,1.4590098757606094
1,441,0.32240446076215007,-0.8875263841439082,-0.1127679530033607,-2.242173129526045,-0.5166408518587562,2.8339395150968336,1.4127768067186668
1,442,0.31439466215889605,-0.908717993583487,-0.08537359038117315,-2.2502113187023762,-0.4366457623588411,2.8118968917894227,1.3647254889739666
1,443,0.30618752581241815,-0.9304317015912358,-0.057304311701205576,-2.2584475450816677,-0.3546798304928654,2.789311203449583,1.3154903289040898
1,444,0.2977664585928426,-0.9527114087875174,-0.02850336669552848,-2.2668984606078144,-0.2705773381229483,2.7661367864933206,1.2649717832127023
1,445,0.28905007257971477,-0.9757724440599612,0.0013075999749172385,-2.2756457416791496,-0.18352545158079484,2.7421496648431822,1.2126816003194505
1,446,0.2803461214703812,-0.9988005801750507,0.031076037952622402,-2.284380543771419,-0.09659775433368026,2.7181967635166466,1.1604660152460613
1,447,0.2716308849560861,-1.0218585742061945,0.06088307321487437,-2.293126671269545,-0.009557348013010641,2.69421280523815,1.1081827282732188
1,448,0.2629199682353306,-1.0449051393135815,0.09067533432405019,-2.301868463662709,0.07743991586576618,2.6702407348467876,1.0559253560308504
1,449,0.25421109456845026,-1.0679462990915791,0.12046060797180677,-2.310608205760433,0.16441677545153904,2.646274286852341,1.0036802402053777
1,450,0.2455001541316661,-1.0909929269447154,0.15025295019232127,-2.319350021953686,0.2514142761859378,2.6223021511954814,0.9514227256889671
1,451,0.23678519983244337,-1.114050174316438,0.18005902024902798,-2.3280958662364344,0.3384518639813127,2.598318969560798,0.8991411317432259
1,452,0.22807830238623877,-1.1370861055863548,0.20983753501201194,-2.3368336251088078,0.4254089867475154,2.574357960041161,0.8469078713978125
1,453,0.219362733373999,-1.1601449793108511,0.23964570745257757,-2.345580086283411,0.5124527137762531,2.550373086742536,0.7946225897475526
1,454,0.21065317071964873,-1.1831879619503334,0.26943333751071713,-2.354320519810708,0.5994364543857637,2.526404742684029,0.7423733406401484
1,455,0.20194389828533807,-1.206230176751567,0.2992199749854724,-2.3630606620892856,0.686417296523141,2.502437197298663,0.69012583258218
1,456,0.1932325620693681,-1.2292778517219085,0.32901367081287164,-2.371802875464556,0.773418749965087,2.478463972474405,0.6378659437599525
1,457,0.18452005703608002,-1.2523286190446725,0.35881136411973774,-2.380546261799995,0.8604318765651987,2.454487531114859,0.5855990431244301
1,458,0.17581106559609075,-1.2753700904162386,0.38859704056404576,-2.3892861220882726,0.947409912369109,2.4305207590138522,0.5333532207701965
1,459,0.16709589791985394,-1.298427902321799,0.4184038403928214,-2.3980321805043454,1.0344496311935125,2.406536990174749,0.48107034676147115
1,460,0.15838791552141165,-1.3214667040614017,0.4481860658077829,-2.406771028174548,1.1214175895444352,2.3825729949129393,0.4288305777149915
1,461,0.149853867701642,-1.3440453252344458,0.4773734164753619,-2.415335324758397,1.206648436529987,2.3590876601752844,0.3776342538436742
1,462,0.14159310726337462,-1.3659009070727415,0.5056260952492054,-2.4236253652990127,1.289149920440967,2.33635440062747,0.32807739925924406
1,463,0.1335401325613835,-1.3872067479764159,0.533168124718464,-2.4317068836109113,1.369576216273752,2.314192958542274,0.2797670652093712
1,464,0.12573298033509467,-1.407862213739018,0.559869415191197,-2.439541708134193,1.4475474452666655,2.2927080094003824,0.23293143663885435
1,465,0.1182104304334977,-1.4277647041012131,0.5855973354617678,-2.4470909215654597,1.5226763071086293,2.272006273688233,0.18780315645648493
1,466,0.11099957180826571,-1.4468425495351611,0.6102592384360427,-2.4543273389367837,1.5946922602765807,2.2521622990426766,0.1445447330958317
1,467,0.10415462564322406,-1.4649522964775594,0.6336696819019153,-2.461196546878423,1.6630537894755992,2.2333252998434427,0.10348144306652161
1,468,0.09759442393495549,-1.4823086919791901,0.6561062690588002,-2.467780001092182,1.7285715320287325,2.215271905215361,0.06412635408522371
1,469,0.09131197147796405,-1.498930243329707,0.6775929242530468,-2.4740847215779245,1.7913153501282064,2.1979828646519786,0.026437501446129028
1,470,0.08536328655588185,-1.5146687423597156,0.6979380590001871,-2.4800544914963165,1.8507257805671735,2.1816123380748604,-0.009249057419152815
1,471,0.07974911117704901,-1.5295222259298509,0.7171391355528265,-2.4856885662089847,1.9067954127943185,2.1661623674592345,-0.042928871152943096
1,472,0.07443581667256924,-1.5435796657674332,0.7353111675331392,-2.4910206935809787,1.9598601014935566,2.1515404081460496,-0.07480368038999496
1,473,0.06949863360282475,-1.5566420235779308,0.7521968584280088,-2.4959753763986794,2.009168507497826,2.13795349142109,-0.10442217196501002
1,474,0.06498540334453051,-1.568582724921633,0.767632585643786,-2.5005046037125562,2.0542428316261874,2.1255332747076796,-0.13149734225807932
1,475,0.060800088108959684,-1.579655857998625,0.7819468086262235,-2.504704753715383,2.096042218032586,2.114015466117214,-0.15660532838952168
1,476,0.05686659142116271,-1.5900627520628283,0.7953997854082998,-2.5086521926045626,2.1353266539059312,2.1031906514040406,-0.18020263820406207
1,477,0.053548002468386924,-1.5988427781859766,0.8067497123751767,-2.51198254423039,2.1684699117380166,2.094058036488048,-0.20011107537364317
1,478,0.05032225547882867,-1.6073771713386142,0.8177821099592418,-2.5152197248164927,2.200685942616616,2.0851809186854906,-0.2194625473939638
1,479,0.047897588041867535,-1.613792139790389,0.8260747303229223,-2.5176529864393338,2.224901468903187,2.0785083375625435,-0.2340082895792061
1,480,0.04547287026959665,-1.6202072414148287,0.8343675228387126,-2.5200862985758974,2.2491174978962314,2.071835617918976,-0.24855433372933952
1,481,0.04373282173396071,-1.6248109063506897,0.840318673788507,-2.5218325146792284,2.266495630011294,2.067047078742466,-0.25899300131869374
1,482,0.04260976088209111,-1.627782200402956,0.8441596612773061,-2.5229595561981237,2.2777118113173587,2.063956463293158,-0.2657303185114002
1,483,0.0414865734020221,-1.630753829476798,0.848001081848007,-2.52408672479405,2.2889292572787094,2.060865499368459,-0.27246839535514755
1,484,0.040364624884056406,-1.6337221806154127,0.8518382650366195,-2.525212650036396,2.3001343295351457,2.0577779450144984,-0.27919903958233994
1,485,0.039241606847946704,-1.6366933613895673,0.8556791060909686,-2.526339648587772,2.3113500832336364,2.054687447392331,-0.28593609992043806
1,486,0.03813574395344021,-1.6396191748917026,0.8594613024223953,-2.5274494452107956,2.3223945699538064,2.0516441474031315,-0.2925702820798384
1,487,0.04131061532819833,-1.6429348907607686,0.8646049784155739,-2.5323665959080532,2.3277121437243022,2.053108021213963,-0.2947158766409068
1,488,0.04470778246525912,-1.646482763936286,0.8701088004559381,-2.537628031974254,2.3334020393861072,2.054674391443163,-0.2970116998324442
1,489,0.04809181585640197,-1.6500169207231312,0.8755913442378771,-2.542869126867451,2.3390699374125568,2.056234705947763,-0.29929864717029125
1,490,0.051482825892074445,-1.6535583636542794,0.8810851910285822,-2.548121026989731,2.3447495205807267,2.05779823725267,-0.3015903093607388
1,491,0.05836111176870402,-1.6604450508570856,0.8925227734735165,-2.5583242212161714,2.356485537279758,2.061015938739756,-0.3061052822007166
1,492,0.06644156017956632,-1.66848487737906,0.9060093899135769,-2.5702341741232453,2.3703094220396905,2.064803888931743,-0.3113866656647054
1,493,0.07667622712918679,-1.678160935799459,0.9235663735416714,-2.584578161552148,2.3881684154611276,2.069688239798225,-0.31787746559360236
1,494,0.08794851287756192,-1.6884535032567167,0.9432290599334479,-2.599862149678218,2.408080911571242,2.0751356086031247,-0.3249049447885322
1,495,0.10043551108888558,-1.6993506914154677,0.9654525002459453,-2.616094456885749,2.4304725452743208,2.081268305353684,-0.3325381786775704
1,496,0.11377127159864639,-1.710368944248168,0.9897143367708795,-2.6325964655198995,2.454793030746715,2.0879472166272532,-0.34053609292139
1,497,0.12682508652040983,-1.7205472606105103,1.0139694506810877,-2.647957268925516,2.4790011771636324,2.0946209156719493,-0.3482480224164464
1,498,0.13796326455459146,-1.7286013266119944,1.035185785323003,-2.660270716313116,2.5000903381443402,2.1004694403745705,-0.3547540275830503
1,499,0.14763782239142986,-1.735284397084898,1.0538748610041764,-2.6705868622618207,2.518638177474586,2.105632870021288,-0.3603937402420748
1,500,0.15639127914739356,-1.7411082103952336,1.0709704930827204,-2.67965035424642,2.5355840727844643,2.1103642003280116,-0.365488397603221
1,501,0.1644845320596084,-1.7461079365527332,1.0871083380044786,-2.687579106835984,2.5515632889793443,2.1148508012415568,-0.3702187056987989
1,502,0.17245397397469447,-1.7509460615809442,1.1030726449167574,-2.6952867844639856,2.5673669295025907,2.1192935626980964,-0.3748810506236795
1,503,0.17631922702453642,-1.7531360651724082,1.110958465838681,-2.698847095141405,2.575174951677809,2.121498220524621,-0.37716552310823237
1,504,0.17947742363431438,-1.7548692144039761,1.1174531399561578,-2.7016921779386016,2.58160610373768,2.1233175104382855,-0.37904043888119715
1,505,0.18263603704199394,-1.7566025923651174,1.1239486711977718,-2.7045376362110094,2.588038104538467,2.1251370404498,-0.3809156020931458
1,506,0.18579378985059636,-1.7583354980483061,1.130442432660223,-2.7073823192069124,2.594468352869661,2.1269560747102854,-0.38279025439618547
1,507,0.18895232480665908,-1.7600688329569159,1.1369378025699919,-2.71022770680565,2.6009001939165315,2.1287755595294793,-0.3846653710340312
1,508,0.18944889492735806,-1.7603413397794627,1.1379589743046556,-2.7106750453607065,2.601911377939944,2.1290616104387916,-0.3849601681181643
1,509,0.18944889492735806,-1.7603413397794627,1.1379589743046556,-2.7106750453607065,2.601911377939944,2.1290616104387916,-0.3849601681181643
1,510,0.18944889492735806,-1.7603413397794627,1.1379589743046556,-2.7106750453607065,2.601911377939944,2.1290616104387916,-0.3849601681181643
1,511,0.18944889492735806,-1.7603413397794627,1.1379589743046556,-2.7106750453607065,2.601911377939944,2.1290616104387916,-0.3849601681181643
1,512,0.18944889492735806,-1.7603413397794627,1.1379589743046556,-2.7106750453607065,2.601911377939944,2.1290616104387916,-0.3849601681181643
1,513,0.18944889492735806,-1.7603413397794627,1.1379589743046556,-2.7106750453607065,2.601911377939944,2.1290616104387916,-0.3849601681181643
1,514,0.18944889492735806,-1.7603413397794627,1.1379589743046556,-2.7106750453607065,2.601911377939944,2.1290616104387916,-0.3849601681181643
1,515,0.18944889492735806,-1.7603413397794627,1.1379589743046556,-2.7106750453607065,2.601911377939944,2.1290616104387916,-0.3849601681181643
1,516,0.18944889492735806,-1.7603413397794627,1.1379589743046556,-2.7106750453607065,2.601911377939944,2.1290616104387916,-0.3849601681181643
1,517,0.18944889492735806,-1.7603413397794627,1.1379589743046556,-2.7106750453607065,2.601911377939944,2.1290616104387916,-0.3849601681181643
1,518,0.18944889492735806,-1.7603413397794627,1.1379589743046556,-2.7106750453607065,2.601911377939944,2.1290616104387916,-0.3849601681181643
1,519,0.18944889492735806,-1.7603413397794627,1.1379589743046556,-2.7106750453607065,2.601911377939944,2.1290616104387916,-0.3849601681181643
1,520,0.18944889492735806,-1.7603413397794627,1.1379589743046556,-2.7106750453607065,2.601911377939944,2.1290616104387916,-0.3849601681181643
1,521,0.18944889492735806,-1.7603413397794627,1.1379589743046556,-2.7106750453607065,2.601911377939944,2.1290616104387916,-0.3849601681181643
1,522,0.18944889492735806,-1.7603413397794627,1.1379589743046556,-2.7106750453607065,2.601911377939944,2.1290616104387916,-0.3849601681181643
1,523,0.1894553351096871,-1.7603416184218885,1.137956737114555,-2.7106808885503506,2.601907712181108,2.1290620750080405,-0.3849610716381956
1,524,0.1996538852950343,-1.7607828712652254,1.134413965442846,-2.7199340524803985,2.5961026862442247,2.1297977580302874,-0.3863918687665751
1,525,0.20983224052919464,-1.7612232503491092,1.130878209091911,-2.729168893492924,2.5903091552956785,2.1305319842687314,-0.38781983266104975
1,526,0.22000275482457735,-1.7616632901851128,1.1273451765257565,-2.738396620406822,2.584520087418073,2.131265644892904,-0.38924669651753047
1,527,0.23018401385005893,-1.762103794905107,1.123808411455989,-2.747634096034722,2.578724903628326,2.1320000805993544,-0.3906750677969969
1,528,0.24038424109625445,-1.7625451203085485,1.1202650572069963,-2.756888781565259,2.572918923106571,2.1327358845981292,-0.39210610020723535
1,529,0.2573106255254045,-1.762799995262285,1.1139847290191098,-2.771162892622241,2.5629133425866826,2.1350986128822163,-0.3947461699919521
1,530,0.28369374845937023,-1.7627999957302551,1.103862408255726,-2.79251062747846,2.547008921906947,2.1397313590766167,-0.39908206344786873
1,531,0.31074752272248995,-1.762799996335367,1.093376052180433,-2.814153685007668,2.5305970971744958,2.14475010960166,-0.40348931607134997
1,532,0.3458062869139694,-1.7627999983828133,1.0787103566353258,-2.8397060644282566,2.5082890530519464,2.1539594629510037,-0.40880870039911055
1,533,0.38141774618356666,-1.7627999993211456,1.0635797901650401,-2.865004400742679,2.4854018766460695,2.164032714876492,-0.4140832385904205
1,534,0.4185519186451417,-1.7627999961382697,1.0469503352733902,-2.888989621423109,2.4607068193833466,2.177157008777612,-0.4191140723795385
1,535,0.4534283079413692,-1.7627999920057262,1.0311476374793254,-2.9108044354928126,2.4373256207585374,2.190271585822336,-0.4236561776806424
1,536,0.48253839908715307,-1.7627999855823644,1.0174781505188801,-2.9271599496521525,2.417322060704457,2.2032685375764975,-0.42697161662580424
1,537,0.5116600505387163,-1.7627999791564517,1.0038032350818173,-2.9435219589730472,2.3973105567635042,2.216270650727637,-0.4302883722101963
1,538,0.5314533131926458,-1.7627999764599918,0.9944242306676988,-2.953994580868,2.383599838982814,2.225830771408827,-0.4323175093703515
1,539,0.5447120500762156,-1.7627999763739934,0.9880546089881128,-2.960342475502056,2.3743029467224286,2.2329789082360962,-0.4334449429155686
1,540,0.5579719826112347,-1.7627999762879873,0.981684412906345,-2.966690942578985,2.365005216083335,2.2401276896707842,-0.4345724781309194
1,541,0.5712577010309396,-1.7627999762018138,0.9753018290434814,-2.9730517551817703,2.3556894046425882,2.2472903729600433,-0.43570220600396026
1,542,0.5845007026639706,-1.7627999761159174,0.9689397667259859,-2.979392116239036,2.3464035457808015,2.2544300264962684,-0.43682830152961666
1,543,0.5977632811497846,-1.7627999760298942,0.9625682995046146,-2.9857418501196578,2.3371039598277603,2.2615802344332314,-0.4379560617387743
1,544,0.611025092906699,-1.762799975943876,0.9561972006270051,-2.9920912169129537,2.327804911497272,2.268730029006302,-0.4390837567504785
1,545,0.611702112933402,-1.7627999759394846,0.95587195384992,-2.9924153542597005,2.3273301918990437,2.2690950284650113,-0.4391413259665804
2,0,8.273995078335385e-07,-0.785399338426379,-1.122545230952849e-06,-2.3561962978512248,-1.206993745676102e-05,1.570802292990097,0.7853823946023389
2,1,0.0007089398515826704,-0.7864049622024747,-0.0009618292516396503,-2.357743344652313,-0.010341871838446627,1.5759083355644303,0.7718870032401338
2,2,0.0014158838446939814,-0.7874089265950761,-0.0019209506923760192,-2.359287838665781,-0.020654628495298658,1.5810059526391176,0.7584138806728881
2,3,0.002122846162248407,-0.7884129170110804,-0.002880096994157183,-2.360832372713527,-0.03096765246543795,1.5861037018473192,0.7449404088736374
2,4,0.0028299907062093554,-0.7894171662153697,-0.0038394905252171416,-2.3623773048799315,-0.04128333471771167,1.5912027650499112,0.731463464156116
2,5,0.003569534660904808,-0.7904674273456894,-0.004842840819196782,-2.3639930215729845,-0.05207165305146594,1.5965354532510596,0.7173690430385034
2,6,0.005253090915276228,-0.7928583247135155,-0.007126946655002639,-2.367671166633343,-0.07663103277409695,1.608675205752117,0.6852833898820617
2,7,0.00693732838621666,-0.7952501895090099,-0.009411976707469915,-2.3713507999797945,-0.10120034994690122,1.6208198703554733,0.6531847539229957
2,8,0.009115738829417868,-0.7983438525696714,-0.012367458588860366,-2.376110076416379,-0.13297856295725208,1.636527907171894,0.6116680408749837
2,9,0.011456756431045241,-0.8016684416989222,-0.015543552023051993,-2.3812246084109483,-0.16712885646033185,1.6534084683117924,0.5670523182913715
2,10,0.014046285539353151,-0.8053459536994189,-0.0190568047183019,-2.3868820752604507,-0.2049043857951,1.6720809910668335,0.5177003987508519
2,11,0.016963058638567296,-0.8094882002726174,-0.023014034208161744,-2.3932544875509256,-0.24745368459183142,1.6931131980003775,0.46211177808289206
2,12,0.02009653308908172,-0.8139381946202563,-0.027265265647672385,-2.4001003375437575,-0.2931641790772557,1.7157079905407875,0.4023932066762508
2,13,0.023492383961504937,-0.8187608020569397,-0.031872467085158215,-2.407519413728285,-0.3427021679865767,1.7401947215393365,0.33767419715063696
2,14,0.027136993334994284,-0.8239366831332053,-0.036817162884662635,-2.415481964388075,-0.395868995831961,1.7664751951750177,0.26821428338484715
2,15,0.030982003771117997,-0.8293971631778262,-0.04203374578949918,-2.4238823407378023,-0.4519592340363854,1.7942007166343243,0.19493507402309912
2,16,0.03504156006521725,-0.835162329879504,-0.04754140625410094,-2.432751445581564,-0.5111792240268028,1.8234732809139629,0.11756699387531114
2,17,0.039312852308723785,-0.8412281927550087,-0.05333633203367827,-2.44208313997907,-0.5734879754226816,1.8542726263835418,0.036163594910113776
2,18,0.043799565095047815,-0.8475999844686267,-0.05942352207096856,-2.451885473835998,-0.6389392383309453,1.8866253218327589,-0.04934534481243402
2,19,0.04835681499937912,-0.8540719492589326,-0.06560641086644588,-2.461841913474361,-0.7054194825168959,1.919486644868683,-0.1361985992836931
2,20,0.052922576252504405,-0.8605560014157136,-0.07180084713555257,-2.4718169482594217,-0.7720238885456364,1.952409341361859,-0.22321406525491722
2,21,0.05748756182936953,-0.8670389519981792,-0.0779942310331285,-2.481790288387831,-0.8386169791652448,1.9853264446247558,-0.3102147481861447
2,22,0.06205903369767358,-0.8735311140679877,-0.08419641497887027,-2.4917777994242534,-0.9053046904986111,2.0182903191033534,-0.39733904854734536
2,23,0.0666167664823886,-0.8800037646194229,-0.0903799589053535,-2.501735294034254,-0.9717919788463908,2.051155124083128,-0.48420150587860256
2,24,0.07118226657473915,-0.8864874458895127,-0.09657404085374884,-2.511709758249005,-1.0383925751143235,2.084075937403609,-0.5712119945798277
2,25,0.07576316693588983,-0.8929929978051733,-0.10278901657611107,-2.521717868160161,-1.10521782740329,2.1171077986627607,-0.6585159856109898
2,26,0.08031434413322884,-0.8994563384588483,-0.10896366643959889,-2.5316610404680335,-1.1716094841621314,2.149925332749128,-0.7452535048522736
2,27,0.08487748282272735,-0.9059366661897565,-0.11515454463758727,-2.541630345614168,-1.238175632760632,2.182829118514929,-0.8322189893235086
2,28,0.08944967010995497,-0.9124298442596046,-0.12135769920283412,-2.551619419660186,-1.3048737804812343,2.2157981517214544,-0.9193569243247063
2,29,0.09400816966927815,-0.9189035837437012,-0.1275422834238443,-2.5615785894789775,-1.3713722543826388,2.2486684857436603,-1.0062339950459604
2,30,0.09857244147060161,-0.9253855206599709,-0.13373469893151588,-2.571550370188166,-1.4379549325883352,2.2815804421286936,-1.0932210746571904
2,31,0.1031359960726711,-0.9318664390478699,-0.1399261414042816,-2.5815205839981865,-1.504527148435694,2.31448722694823,-1.1801944856984237
2,32,0.10770018419846579,-0.9383482571325883,-0.1461184433881175,-2.591492181897485,-1.5711086059996215,2.3473985799674972,-1.2671799705996545
2,33,0.11226455515049766,-0.9448303348574393,-0.15231099341503135,-2.6014641792259208,-1.6376927305958922,2.380311251306401,-1.3541689398508843
2,34,0.11683766122515986,-0.9513248177405084,-0.15851539451286997,-2.6114552605903487,-1.7044042814026295,2.4132869096862923,-1.4413243853420783
2,35,0.12139861873602212,-0.9578020478771149,-0.16470331347332826,-2.6214198004122444,-1.7709386114062768,2.4461749674544477,-1.5282483003433223
2,36,0.12595923688852056,-0.9642787960749584,-0.17089077202124187,-2.6313835988218552,-1.8374679909184288,2.479060578184356,-1.6151657477645673
2,37,0.13052427984680395,-0.9707618281474729,-0.17708423376904225,-2.6413570643141657,-1.9040619186066152,2.5119780952119926,-1.7021675242857945
2,38,0.1350899286652171,-0.9772457206304346,-0.183278517496301,-2.651331853457787,-1.9706646844604092,2.5448999809632795,-1.7891808474470192
2,39,0.1396540369500408,-0.9837274253292373,-0.18947071115870284,-2.6613032769247362,-2.037244977320325,2.5778107582669296,-1.87616481071825
2,40,0.1442191626252135,-0.9902105748718943,-0.19566428512973855,-2.6712769231325515,-2.103840111665841,2.6107288717477957,-1.963168163679477
2,41,0.14878384664149868,-0.9966930971940062,-0.20185725989558587,-2.6812496044272836,-2.1704288031804158,2.6436438005239205,-2.0501630993907054
2,42,0.15325994741048643,-1.0030498182830159,-0.20793005245095983,-2.691028753707489,-2.2357252601160797,2.6759199750587546,-2.1354697925256163
2,43,0.15753664491704022,-1.0091233574266338,-0.21373231163138923,-2.7003722572390974,-2.2981128624011604,2.706758296686942,-2.2169762064004157
2,44,0.161534299432879,-1.0148006145034787,-0.21915598903180505,-2.709106122337026,-2.35642984171174,2.7355845009085153,-2.293164546351299
2,45,0.165303982914937,-1.0201541192000918,-0.22427037473656095,-2.717341928323697,-2.4114212254742973,2.7627668563306655,-2.3650081550224202
2,46,0.16885648606583112,-1.025199195900447,-0.22909010865255391,-2.7251032501580243,-2.463244426286335,2.78838317232789,-2.43271268443199
2,47,0.17217137080829314,-1.029906819530379,-0.23358746213606327,-2.7323454358049175,-2.5116012975910462,2.8122860744367624,-2.49588862038545
2,48,0.17524151342215472,-1.0342668733600462,-0.2377527703298757,-2.739052921735638,-2.556387919992689,2.834424195083729,-2.554400197170244
2,49,0.17803491232592694,-1.0382339104394285,-0.24154261621193213,-2.745155792579926,-2.5971374608627316,2.8545667779291004,-2.607637520319558
2,50,0.1805682173053833,-1.0418315759118806,-0.24497958879448042,-2.7506904239130794,-2.6340928039242737,2.872833880902608,-2.65591790578293
2,51,0.18291480838989005,-1.0451640802061346,-0.24816324385587488,-2.7558171325595833,-2.6683244022736017,2.88975463119719,-2.7006398492534753
2,52,0.18487831668133825,-1.0479525506201992,-0.2508271647884276,-2.7601069020902487,-2.696967665956059,2.903913056037502,-2.7380609011759285
2,53,0.18664120378049873,-1.0504561094494413,-0.25321889996247,-2.7639583650033006,-2.7226843080724072,2.9166248457478527,-2.771658462214212
2,54,0.18798438971522868,-1.0523636309281612,-0.2550412203180405,-2.766892886910806,-2.7422784340919426,2.926310263011567,-2.797257249254713
2,55,0.18932971843810936,-1.05427419548105,-0.2568664478261978,-2.769832090269039,-2.7619038186736558,2.9360111314476107,-2.8228968741093414
2,56,0.19022232020333385,-1.055541821202169,-0.2580774539305118,-2.7717821996075913,-2.7749249135353917,2.942447485732593,-2.839908310805595
2,57,0.19092928604155673,-1.05654581661804,-0.2590366050088363,-2.773326741347109,-2.785237988864334,2.9475452603275576,-2.8533818497026613
2,58,0.19163792648785763,-1.0575521902235532,-0.25999802805287253,-2.774874941682182,-2.7955754930388035,2.952655110151699,-2.8668873037162106
2,59,0.19234419061019525,-1.0585551890997134,-0.260956227102808,-2.7764179503497806,-2.805878331877673,2.95774782482832,-2.8803474691293496
2,60,0.19304984724755125,-1.059557325257898,-0.26191360196882446,-2.777959631816177,-2.816172308847924,2.9628361590648433,-2.893796056935641
2,61,0.19323370151785604,-1.0598184253487288,-0.2621630397946474,-2.7783613069454707,-2.8188543379314894,2.964161891621725,-2.8972999994579136
2,62,0.19323370151785604,-1.0598184253487288,-0.2621630397946474,-2.7783613069454707,-2.8188543379314894,2.964161891621725,-2.8972999994579136
2,63,0.19323370151785604,-1.0598184253487288,-0.2621630397946474,-2.7783613069454707,-2.8188543379314894,2.964161891621725,-2.8972999994579136
2,64,0.19323370151785604,-1.0598184253487288,-0.2621630397946474,-2.7783613069454707,-2.8188543379314894,2.964161891621725,-2.8972999994579136
2,65,0.19323370151785604,-1.0598184253487288,-0.2621630397946474,-2.7783613069454707,-2.8188543379314894,2.964161891621725,-2.8972999994579136
2,66,0.19323370151785604,-1.0598184253487288,-0.2621630397946474,-2.7783613069454707,-2.8188543379314894,2.964161891621725,-2.8972999994579136
2,67,0.19323370151785604,-1.0598184253487288,-0.2621630397946474,-2.7783613069454707,-2.8188543379314894,2.964161891621725,-2.8972999994579136
2,68,0.19323370151785604,-1.0598184253487288,-0.2621630397946474,-2.7783613069454707,-2.8188543379314894,2.964161891621725,-2.8972999994579136
2,69,0.19323370151785604,-1.0598184253487288,-0.2621630397946474,-2.7783613069454707,-2.8188543379314894,2.964161891621725,-2.8972999994579136
2,70,0.19323370151785604,-1.0598184253487288,-0.2621630397946474,-2.7783613069454707,-2.8188543379314894,2.964161891621725,-2.8972999994579136
2,71,0.19323370151785604,-1.0598184253487288,-0.2621630397946474,-2.7783613069454707,-2.8188543379314894,2.964161891621725,-2.8972999994579136
2,72,0.19323370151785604,-1.0598184253487288,-0.2621630397946474,-2.7783613069454707,-2.8188543379314894,2.964161891621725,-2.8972999994579136
2,73,0.19323370151785604,-1.0598184253487288,-0.2621630397946474,-2.7783613069454707,-2.8188543379314894,2.964161891621725,-2.8972999994579136
2,74,0.19323370151785604,-1.0598184253487288,-0.2621630397946474,-2.7783613069454707,-2.8188543379314894,2.964161891621725,-2.8972999994579136
2,75,0.19323370151785604,-1.0598184253487288,-0.2621630397946474,-2.7783613069454707,-2.8188543379314894,2.964161891621725,-2.8972999994579136
2,76,0.19323515560353052,-1.0598160896946507,-0.2621639368796045,-2.778360189485068,-2.8188546988444645,2.9641603455532977,-2.897299999457902
2,77,0.19726958788241358,-1.0533357024857313,-0.26465294325000965,-2.7752597405920287,-2.8198560696595023,2.9598707025987436,-2.8972999994260578
2,78,0.20129703228724738,-1.0468665396886934,-0.2671376385149552,-2.772164661858869,-2.8208557060413786,2.9555884895581426,-2.897299999394268
2,79,0.20533102195003744,-1.0403868634406899,-0.2696263718173798,-2.7690645531149465,-2.8218569669963895,2.9512993172187514,-2.8972999993624273
2,80,0.20935051158693319,-1.0339304781481018,-0.27210615946045824,-2.765975587596669,-2.8228546289561156,2.9470255621499004,-2.8972999993307007
2,81,0.21337689922168462,-1.0274630128090583,-0.2745902027606947,-2.7628813209880922,-2.8238540030411814,2.9427444727286898,-2.89729999929892
2,82,0.21740441127526625,-1.0209937413498718,-0.27707493976092107,-2.7597861902670764,-2.8248536562138913,2.9384621877600074,-2.8972999992671298
2,83,0.22401219838695163,-1.0106587278706112,-0.28129913550565905,-2.7546082514872072,-2.8264651367195963,2.9318308619203366,-2.897299999213512
2,84,0.23426439071240068,-0.9948634019910914,-0.28797999998116064,-2.7464886425667334,-2.8289407989292146,2.921881302026095,-2.897299999129065
2,85,0.24451618352545582,-0.9790686916314774,-0.2946606041135009,-2.738369350055111,-2.8314163646660298,2.9119321298511203,-2.8972999990446215
2,86,0.2575340788570563,-0.9597722502595487,-0.3034834587921139,-2.7278670579729853,-2.8344652886807298,2.900287587885262,-2.8972999989440944
2,87,0.271334353390382,-0.939482907799504,-0.31291114258757335,-2.716691366179286,-2.8376766897113774,2.888160326110834,-2.8972999988389967
2,88,0.2876713176158132,-0.9164567677420495,-0.32445320245128817,-2.703299065153668,-2.841338897801524,2.875000609423596,-2.8972999987415204
2,89,0.30503775804223093,-0.8924053025872746,-0.3368768213561025,-2.689008195261057,-2.8451698210235596,2.861508752322547,-2.8972999986540833
2,90,0.3246272156522181,-0.8665716025563935,-0.3513254375227114,-2.672777832008609,-2.849293673755588,2.8477436621028738,-2.8972999986221417
2,91,0.3435366896644617,-0.8425743189106776,-0.36555111783588856,-2.6570974603288766,-2.853123278362472,2.835438888301947,-2.897299999092111
2,92,0.36202749842198223,-0.8196771975200644,-0.37962970554722264,-2.6417577958427323,-2.85677644008455,2.8239995958239525,-2.897299999829886
2,93,0.3789483459041033,-0.800053231270365,-0.3928665074037913,-2.6277865390998456,-2.8598963127649295,2.814831979963925,-2.897299999923168
2,94,0.39514450796472483,-0.7805062616202508,-0.40545128496966276,-2.6138248439329135,-2.863417959361371,2.8060453139878083,-2.8963784025250523
2,95,0.4080102933196296,-0.7612376524595477,-0.4150311924750086,-2.5998488730035505,-2.868838941536091,2.7990081929131545,-2.8911303735998075
2,96,0.4199518817153123,-0.7429787186529799,-0.4239151675852219,-2.586537484866321,-2.8741073650825713,2.7925448367745815,-2.8857994219575542
2,97,0.4287591572842202,-0.7281381277319874,-0.43043884251216574,-2.5754746452595887,-2.878862109616253,2.7880284099692703,-2.880180049116407
2,98,0.43757004699439983,-0.7132914468468823,-0.4369651944852191,-2.564407265921484,-2.883618805300245,2.7835101298093785,-2.874558370317289
2,99,0.4429177083398351,-0.7042409095397498,-0.44097852983783,-2.5575482707986716,-2.8865304465851174,2.7809284217724617,-2.871005686936197
2,100,0.4466130053106847,-0.6979555203220996,-0.4437932451627894,-2.5526961287218013,-2.8885619616629112,2.7792718602368214,-2.8684391264300877
2,101,0.45028881383926844,-0.6917032793049466,-0.4465931161010763,-2.5478695761148646,-2.8905827628347276,2.777624035158386,-2.8658861015793367
2,102,0.453973372700317,-0.6854361547085416,-0.44939965218565087,-2.543031533807188,-2.8926083745623603,2.7759722874008537,-2.8633269992041277
2,103,0.45766364340892096,-0.6791593147400513,-0.45221053899629016,-2.5381859915080147,-2.8946371264177078,2.7743179790840395,-2.8607639296775726
2,104,0.46134311122975036,-0.6729008495746887,-0.4550131972250286,-2.533354634035321,-2.896659939310755,2.7726685135845965,-2.8582083632733197
2,105,0.46250480281645145,-0.670924909932791,-0.45589806010283196,-2.5318292647151703,-2.897298587298385,2.7721477398513925,-2.8574015128983086
2,106,0.46250480281645145,-0.670924909932791,-0.45589806010283196,-2.5318292647151703,-2.897298587298385,2.7721477398513925,-2.8574015128983086
2,107,0.46250480281645145,-0.670924909932791,-0.45589806010283196,-2.5318292647151703,-2.897298587298385,2.7721477398513925,-2.8574015128983086
2,108,0.46250480281645145,-0.670924909932791,-0.45589806010283196,-2.5318292647151703,-2.897298587298385,2.7721477398513925,-2.8574015128983086
2,109,0.46250480281645145,-0.670924909932791,-0.45589806010283196,-2.5318292647151703,-2.897298587298385,2.7721477398513925,-2.8574015128983086
2,110,0.46250480281645145,-0.670924909932791,-0.45589806010283196,-2.5318292647151703,-2.897298587298385,2.7721477398513925,-2.8574015128983086
2,111,0.46250480281645145,-0.670924909932791,-0.45589806010283196,-2.5318292647151703,-2.897298587298385,2.7721477398513925,-2.8574015128983086
2,112,0.46250480281645145,-0.670924909932791,-0.45589806010283196,-2.5318292647151703,-2.897298587298385,2.7721477398513925,-2.8574015128983086
2,113,0.46250480281645145,-0.670924909932791,-0.45589806010283196,-2.5318292647151703,-2.897298587298385,2.7721477398513925,-2.8574015128983086
2,114,0.46250480281645145,-0.670924909932791,-0.45589806010283196,-2.5318292647151703,-2.897298587298385,2.7721477398513925,-2.8574015128983086
2,115,0.46250480281645145,-0.670924909932791,-0.45589806010283196,-2.5318292647151703,-2.897298587298385,2.7721477398513925,-2.8574015128983086
2,116,0.46250480281645145,-0.670924909932791,-0.45589806010283196,-2.5318292647151703,-2.897298587298385,2.7721477398513925,-2.8574015128983086
2,117,0.46250480281645145,-0.670924909932791,-0.45589806010283196,-2.5318292647151703,-2.897298587298385,2.7721477398513925,-2.8574015128983086
2,118,0.46250480281645145,-0.670924909932791,-0.45589806010283196,-2.5318292647151703,-2.897298587298385,2.7721477398513925,-2.8574015128983086
2,119,0.46250480281645145,-0.670924909932791,-0.45589806010283196,-2.5318292647151703,-2.897298587298385,2.7721477398513925,-2.8574015128983086
2,120,0.4625039917106421,-0.6709250028908943,-0.455897147707196,-2.531827539195245,-2.8972971234327836,2.7721497423295496,-2.857402569513157
2,121,0.4585929562230926,-0.6713732334874765,-0.4514977072524242,-2.5235073304341586,-2.890238574164037,2.781805403828959,-2.862497414256942
2,122,0.45468440849353153,-0.6718211789704998,-0.447101065223586,-2.515192414047911,-2.8831845147451998,2.791454923489691,-2.8675890182373145
2,123,0.4507865777102144,-0.6722678962204313,-0.442716478459142,-2.5069002965419895,-2.876149797030961,2.801077984887497,-2.872666661419476
2,124,0.4468747736156155,-0.6727162149044772,-0.43831617341468343,-2.4985784526714476,-2.869089860597423,2.81073554394307,-2.8777625074156394
2,125,0.4424248573298582,-0.6730361154409392,-0.4334061091506581,-2.4895845863601505,-2.8616528854604675,2.8211113825795047,-2.882938177622774
2,126,0.4290803985213786,-0.6713521342360331,-0.42001045520666946,-2.4691873993511066,-2.8476125793455083,2.843741030476389,-2.8898213617098185
2,127,0.4157330829053224,-0.6696677925211706,-0.4066119334951505,-2.4487858456727793,-2.8335692674546347,2.866375522972106,-2.8967060193622376
2,128,0.39606618940277066,-0.6652770698510129,-0.38814026209481844,-2.4251751106973374,-2.8222735074972083,2.8917450248912826,-2.8973
2,129,0.3757515854732128,-0.6606191102177708,-0.3691418754067865,-2.401201169352608,-2.811209400875452,2.9174372746525057,-2.8973
2,130,0.3518272677236937,-0.6541083565608443,-0.3480063279568951,-2.371887639269292,-2.7986195909303317,2.947385592163734,-2.897299999825011
2,131,0.3268819405978212,-0.6469623699371673,-0.32642326589313625,-2.3410059140854274,-2.785657457699896,2.978428556490626,-2.8972999994469744
2,132,0.2995635178156787,-0.6383771693588262,-0.3037603534941917,-2.3065323120461705,-2.771816631152164,3.0120093540320174,-2.8972999985719667
2,133,0.2700657651027848,-0.6282893504594125,-0.2804247092116959,-2.268805716734254,-2.757294796682562,3.047555330729113,-2.8972999986162846
2,134,0.23863320712387207,-0.6169561429369533,-0.2564321228587675,-2.228378348239665,-2.7421529423351476,3.084742670521236,-2.8972999988003427
2,135,0.20522414524773003,-0.6043039999743169,-0.23189737622189247,-2.185294375780891,-2.7264330742317537,3.123386254045211,-2.897299998850309
2,136,0.1691903871186205,-0.5899884149762893,-0.20669184914040506,-2.139067658811913,-2.709985940820202,3.163578857052695,-2.8972999992112194
2,137,0.13428846441364836,-0.5757657001462889,-0.18322619133733842,-2.0949363975371416,-2.694470997934009,3.200988848154771,-2.897299999610006
2,138,0.1007954297856786,-0.561990582381168,-0.16128072169282184,-2.05323989004143,-2.6798568513088283,3.2357423718260026,-2.89729999988385
2,139,0.06878339584047534,-0.5487537607067489,-0.14082167717811073,-2.0141036642552206,-2.6661474778403056,3.267816357526401,-2.897299999980414
2,140,0.039616443368743995,-0.5368188926719923,-0.12265696789172947,-1.9796534882286025,-2.6539522134009528,3.2955171038526023,-2.8973
2,141,0.011184936404664544,-0.5252200023843184,-0.1050831625801155,-1.9464091238247647,-2.6421469907544655,3.322094337836045,-2.8973
2,142,-0.012703918531191523,-0.5156631804668338,-0.09041066672724356,-1.9193879955337785,-2.6333923340578016,3.3432319201021836,-2.8962816755770473
2,143,-0.035349872820369034,-0.5066641673050933,-0.07653153615137592,-1.8940651698646793,-2.625466690886149,3.3628869586052677,-2.8949896650555833
2,144,-0.05800081621807544,-0.49766317157937057,-0.06264934787752632,-1.8687367653480778,-2.6175393016236304,3.3825463272910845,-2.893697369892517
2,145,-0.06821645441316365,-0.4936356152734433,-0.056289935747031124,-1.857453709340674,-2.6151321960520657,3.3909308253495842,-2.891980162506154
2,146,-0.07838932421559709,-0.4896251748827684,-0.04995636282819712,-1.8462190069817939,-2.6127444753907225,3.3992763813925473,-2.890261106122097
2,147,-0.08855886717320757,-0.4856160460308344,-0.04362486118469496,-1.8349879787200079,-2.610357535588299,3.4076192081791197,-2.8885426119229445
2,148,-0.09873507938500722,-0.4816042879654242,-0.03728920730012989,-1.823749585074881,-2.6079690304148118,3.415967506247217,-2.8868229907238185
2,149,-0.10891328202722017,-0.4775917452146028,-0.030952314184511318,-1.8125089932404828,-2.6055800580583255,3.424317437212312,-2.885103033172987
2,150,-0.11908468632109112,-0.4735818825699176,-0.02461965368326685,-1.8012759093582786,-2.60319268137318,3.43266179099042,-2.8833842244370276
2,151,-0.1267007682986215,-0.47057940211213445,-0.019877922834714408,-1.7928648694236167,-2.6014050760416065,3.438909825242866,-2.8820972253306554
2,152,-0.11304637581808039,-0.4716541562615669,-0.02160920741799646,-1.7960594407122379,-2.60250949720326,3.4362742742421224,-2.8822036134363036
2,153,-0.09947861860014587,-0.4727220912421417,-0.02332950723613915,-1.7992337428806546,-2.603606910962899,3.433655445453912,-2.8823093265238957
2,154,-0.07226681922419836,-0.47486396568543915,-0.02677977928669581,-1.8056001947840994,-2.605807908709249,3.4284030634691764,-2.882521347072669
