zelongjiang123/UMAP-research/panda_RRT_combined_interpolate_1.csv
horse_idx,layer_idx,panda-panda_joint1,panda-panda_joint2,panda-panda_joint3,panda-panda_joint4,panda-panda_joint5,panda-panda_joint6,panda-panda_joint7
1,0,-7.648307921734367e-06,-0.7853916017932514,4.6836076219021764e-06,-2.356189155387191,-2.214769289676083e-06,1.5707935934084252,0.7853975490710634
1,1,-0.0034585940227070387,-0.7824309809452277,0.002117945235936932,-2.3537820709480837,-0.001001527122774602,1.5695602790038803,0.7851203626623816
1,2,-0.006909539737492343,-0.779470360097204,0.004231206864251961,-2.351374986508976,-0.002000839476259528,1.5683269645993354,0.7848431762536998
1,3,-0.010353326827017442,-0.7765158807468857,0.006340084752768052,-2.348972895314299,-0.00299807886098524,1.5670962085762836,0.7845665648391764
1,4,-0.013797113916542541,-0.7735614013965674,0.008448962641284143,-2.346570804119622,-0.003995318245710952,1.5658654525532316,0.784289953424653
1,5,-0.017242382557027973,-0.7706056510002741,0.010558747789738126,-2.3441676795217683,-0.004992986652594455,1.5646341670468753,0.7840132230091879
1,6,-0.020687651197513403,-0.7676499006039808,0.012668532938192109,-2.3417645549239148,-0.005990655059477957,1.563402881540519,0.7837364925937227
1,7,-0.024131023725561807,-0.7646957769125027,0.014777156960975823,-2.3393627528918506,-0.006987774396993664,1.5621722736753005,0.7834599144775518
1,8,-0.027574396253610214,-0.7617416532210245,0.01688578098375954,-2.336960950859786,-0.007984893734509372,1.5609416658100823,0.7831833363613809
1,9,-0.031018894876118495,-0.7587865634353188,0.018995094594965845,-2.334558363360584,-0.00898233916237768,1.5597106554961924,0.7829066677951986
1,10,-0.034463393498626774,-0.7558314736496131,0.021104408206172154,-2.3321557758613825,-0.00997978459024599,1.5584796451823026,0.7826299992290163
1,11,-0.038085141329393946,-0.7527243189678939,0.023322264223263868,-2.329629554481411,-0.011028557201471497,1.557185288754099,0.7823390936751966
1,12,-0.04170688916016112,-0.7496171642861748,0.025540120240355582,-2.32710333310144,-0.012077329812697006,1.5558909323258951,0.7820481881213769
1,13,-0.05015467636000641,-0.7423696741861789,0.0307133063780328,-2.3212108796135404,-0.014523609414328596,1.5528718243765987,0.78136964606689
1,14,-0.0586024635598517,-0.735122184086183,0.035886492515710015,-2.315318426125641,-0.016969889015960183,1.549852716427302,0.7806911040124029
1,15,-0.06704928980327052,-0.7278755184058869,0.0410590901908293,-2.3094266429187167,-0.0194158903473124,1.5468339519089085,0.7800126391437319
1,16,-0.07549611604668932,-0.7206288527255909,0.0462316878659486,-2.303534859711793,-0.021861891678664615,1.5438151873905148,0.7793341742750609
1,17,-0.08544018596271197,-0.7120976780445618,0.052321155252461775,-2.296598727435443,-0.02474145940655554,1.5402613312360445,0.7785354479966689
1,18,-0.0953842558787346,-0.7035665033635329,0.05841062263897495,-2.2896625951590925,-0.027621027134446464,1.5367074750815743,0.7777367217182769
1,19,-0.10632856215247088,-0.6941772101091197,0.06511260650320193,-2.2820287835881166,-0.030790239681838756,1.5327961499867402,0.7768576545864663
1,20,-0.11727286842620718,-0.6847879168547064,0.0718145903674289,-2.274394972017141,-0.03395945222923105,1.5288848248919058,0.7759785874546555
1,21,-0.12961669531818848,-0.6741979527517593,0.07937360110631853,-2.265784974617465,-0.03753393288523979,1.524473332862963,0.7749871082114674
1,22,-0.14196052221016975,-0.6636079886488122,0.08693261184520815,-2.2571749772177894,-0.041108413541248535,1.5200618408340203,0.7739956289682794
1,23,-0.15505208792488573,-0.6523765275967882,0.09494951670724104,-2.2480434211981066,-0.04489942169565797,1.515383118562375,0.7729440899455307
1,24,-0.16814365363960174,-0.6411450665447642,0.10296642156927394,-2.238911865178424,-0.04869042985006741,1.5107043962907294,0.771892550922782
1,25,-0.1826516479813742,-0.6286984289963282,0.11185070729272723,-2.2287923297498837,-0.05289160227300847,1.5055194644252112,0.7707272417057918
1,26,-0.19715964232314667,-0.6162517914478921,0.1207349930161805,-2.218672794321343,-0.05709277469594953,1.5003345325596928,0.7695619324888017
1,27,-0.21264537441348136,-0.6029663372383041,0.13021801770493802,-2.2078712727027536,-0.06157707687269129,1.4948001724073132,0.7683180895487236
1,28,-0.22813110650381604,-0.5896808830287159,0.13970104239369552,-2.197069751084164,-0.06606137904943304,1.4892658122549336,0.7670742466086454
1,29,-0.24461983752743605,-0.5755349401885164,0.14979827528337358,-2.1855686232346194,-0.07083612602229836,1.483372995860584,0.7657498409199162
1,30,-0.2611085685510561,-0.5613889973483169,0.15989550817305165,-2.1740674953850743,-0.07561087299516366,1.4774801794662344,0.7644254352311868
1,31,-0.278715105265699,-0.5462840713462835,0.1706772536775269,-2.1617866819341947,-0.08070931008898596,1.471187876677673,0.7630112453004825
1,32,-0.2963216419803419,-0.5311791453442501,0.18145899918200217,-2.1495058684833146,-0.08580774718280829,1.4648955738891114,0.7615970553697783
1,33,-0.3148890030858126,-0.5152499129178685,0.1928291263894947,-2.136554866153494,-0.09118441632159442,1.4582598873850747,0.7601056902284857
1,34,-0.3334563641912833,-0.4993206804914868,0.20419925359698723,-2.123603863823674,-0.09656108546038056,1.451624200881038,0.7586143250871931
1,35,-0.35284929711612545,-0.4826831769585792,0.21607493765511962,-2.11007701323543,-0.10217682069465822,1.4446934678300636,0.7570566484746015
1,36,-0.3722422300409676,-0.46604567342567166,0.227950621713252,-2.0965501626471856,-0.10779255592893587,1.4377627347790891,0.7554989718620099
1,37,-0.3925550898129603,-0.44861895011725106,0.24038964297446203,-2.082381649806937,-0.11367468024569642,1.4305032341596022,0.7538674050059644
1,38,-0.41286794958495293,-0.4311922268088305,0.2528286642356721,-2.0682131369666887,-0.11955680456245697,1.4232437335401154,0.7522358381499188
1,39,-0.43223240809026797,-0.4145791519302846,0.26468691136400363,-2.054706147696999,-0.12516429427752235,1.4163231768044662,0.7506804486559144
1,40,-0.45159686659558307,-0.3979660770517387,0.2765451584923352,-2.0411991584273097,-0.13077178399258774,1.409402620068817,0.7491250591619102
1,41,-0.4700375478100781,-0.38214552530516055,0.2878377105147035,-2.0283365171496524,-0.13611176962764687,1.4028122069904494,0.7476438691861906
1,42,-0.48847822902457316,-0.3663249735585824,0.2991302625370719,-2.015473875871995,-0.14145175526270598,1.3962217939120818,0.7461626792104711
1,43,-0.5059756939671018,-0.3513136219530017,0.3098452155707895,-2.003269141556257,-0.14651860774804742,1.389968471680966,0.7447572501283283
1,44,-0.5234731589096306,-0.336302270347421,0.32056016860450703,-1.9910644072405186,-0.1515854602333889,1.3837151494498503,0.7433518210461855
1,45,-0.539967550634043,-0.3221514711025819,0.33066086794737287,-1.9795593309704775,-0.15636184641147466,1.3778203100089494,0.7420269606793901
1,46,-0.5564619423584554,-0.30800067185774277,0.3407615672902387,-1.9680542547004365,-0.1611382325895604,1.3719254705680486,0.7407021003125949
1,47,-0.5719209231715514,-0.2947381679915243,0.35022821025283496,-1.9572713924837877,-0.1656147882283889,1.366400670906701,0.7394604060850953
1,48,-0.5873799039846473,-0.28147566412530584,0.3596948532154312,-1.946488530267139,-0.17009134386721741,1.3608758712453535,0.7382187118575958
1,49,-0.6020336302014415,-0.2689040008989628,0.36866838102060906,-1.9362673447526109,-0.17433471679837914,1.3556388570709492,0.737041697184071
1,50,-0.6166873564182358,-0.25633233767261976,0.37764190882578685,-1.9260461592380826,-0.17857808972954084,1.3504018428965452,0.7358646825105463
1,51,-0.6297374019251474,-0.24513649746282276,0.3856333878859658,-1.9169435641625512,-0.182357074612648,1.3457379593023515,0.7348164784684783
1,52,-0.6427874474320588,-0.23394065725302576,0.39362486694614474,-1.9078409690870197,-0.18613605949575512,1.3410740757081576,0.7337682744264103
1,53,-0.6549894300993007,-0.22347238355138987,0.40109701629047356,-1.899329910081154,-0.18966946541522273,1.3367132766022658,0.7327881883764213
1,54,-0.6671914127665426,-0.21300410984975396,0.40856916563480244,-1.8908188510752884,-0.19320287133469036,1.332352477496374,0.7318081023264322
1,55,-0.6783507634652657,-0.20343032658579357,0.41540283662750577,-1.8830350429144258,-0.19643435566732598,1.3283642988637352,0.7309117624245476
1,56,-0.6895101141639889,-0.19385654332183316,0.42223650762020903,-1.875251234753563,-0.19966583999996157,1.3243761202310962,0.7300154225226629
1,57,-0.6993111600930785,-0.1854480711787396,0.42823839115913537,-1.8684148637721791,-0.2025039913600509,1.320873378628363,0.729228184198174
1,58,-0.7091122060221681,-0.17703959903564603,0.4342402746980617,-1.8615784927907952,-0.20534214272014023,1.3173706370256297,0.728440945873685
1,59,-0.7179487792989536,-0.16945856321805775,0.4396515424417464,-1.8554148554033822,-0.20790100558492913,1.3142125829703648,0.7277311757949638
1,60,-0.7267853525757392,-0.16187752740046943,0.4450628101854312,-1.8492512180159693,-0.21045986844971806,1.3110545289151,0.7270214057162426
1,61,-0.7346925550651138,-0.15509381346394235,0.4499049575239187,-1.8437358301651843,-0.21274960749002936,1.3082286175459306,0.726386284435905
1,62,-0.7425997575544885,-0.14831009952741525,0.4547471048624062,-1.838220442314399,-0.21503934653034062,1.3054027061767608,0.7257511631555675
1,63,-0.7478458999781064,-0.1438093510617064,0.4579596942210299,-1.8345611822631243,-0.21655850544078117,1.3035278163482649,0.7253297831925024
1,64,-0.7530920424017242,-0.1393086025959975,0.46117228357965356,-1.8309019222118494,-0.21807766435122172,1.3016529265197692,0.7249084032294373
1,65,-0.7583182860628397,-0.13482492559300738,0.46437268749848115,-1.827256541834593,-0.2195910610501321,1.2997851481999598,0.7244886215721618
1,66,-0.7635445297239551,-0.13034124859001725,0.4675730914173087,-1.8236111614573367,-0.22110445774904247,1.2979173698801503,0.7240688399148861
1,67,-0.7687837868702796,-0.12584640711247455,0.4707814644267032,-1.8199567039863402,-0.22262162284583736,1.2960449407428294,0.7236480129901599
1,68,-0.774023044016604,-0.12135156563493184,0.4739898374360977,-1.816302246515344,-0.22413878794263226,1.2941725116055085,0.7232271860654337
1,69,-0.776941986957717,-0.11725226432940133,0.4756750495933302,-1.813127823364122,-0.22294647401483736,1.2947392579421546,0.7226512504100835
1,70,-0.77986092989883,-0.11315296302387085,0.47736026175056273,-1.8099534002128999,-0.2217541600870425,1.2953060042788007,0.7220753147547333
1,71,-0.7781848489820875,-0.10983967610213953,0.47602926275577984,-1.8077315437025396,-0.2151996009087761,1.3007004274911247,0.7211927899892663
1,72,-0.7765087680653451,-0.10652638918040822,0.47469826376099694,-1.8055096871921794,-0.20864504173050968,1.3060948507034484,0.7203102652237993
1,73,-0.7748314948941936,-0.1032107454029299,0.47336631798052836,-1.803286250198327,-0.20208582006727496,1.3114931111558454,0.7194271126878994
1,74,-0.773154221723042,-0.0998951016254516,0.4720343722000598,-1.8010628132044744,-0.19552659840404024,1.3168913716082422,0.7185439601519995
1,75,-0.7714774460581606,-0.09658044132138528,0.4707028214961885,-1.7988400357178889,-0.1889693223117239,1.3222880308495375,0.7176610695733833
1,76,-0.769800670393279,-0.09326578101731897,0.4693712707923171,-1.7966172582313036,-0.18241204621940754,1.3276846900908326,0.716778178994767
1,77,-0.7674307079914275,-0.08858082496739816,0.46748925093096805,-1.7934755743547897,-0.17314396216807607,1.3353123529710529,0.7155302974086414
1,78,-0.7650607455895762,-0.08389586891747734,0.46560723106961893,-1.7903338904782757,-0.1638758781167446,1.3429400158512734,0.7142824158225157
1,79,-0.7618395388080101,-0.07752816781489691,0.4630492262946555,-1.786063774884603,-0.15127887861373554,1.3533073868180325,0.7125863194520927
1,80,-0.758618332026444,-0.07116046671231646,0.46049122151969213,-1.7817936592909307,-0.1386818791107265,1.3636747577847916,0.7108902230816697
1,81,-0.7550203162975453,-0.06404788739728344,0.45763398755769175,-1.777024035944124,-0.12461131319483024,1.375254878632418,0.7089957214764224
1,82,-0.7514223005686465,-0.05693530808225041,0.45477675359569136,-1.7722544125973172,-0.11054074727893397,1.3868349994800444,0.7071012198711751
1,83,-0.7473250390257145,-0.04883581661408552,0.4515230616405295,-1.7668229759984775,-0.09451780770380963,1.400021930106945,0.7049438450415274
1,84,-0.7432277774827825,-0.04073632514592063,0.4482693696853677,-1.7613915393996376,-0.0784948681286853,1.4132088607338453,0.7027864702118797
1,85,-0.7385458626090747,-0.03148108742752657,0.44455139644892305,-1.7551850711204584,-0.06018555632829403,1.428277483030399,0.7003212516269167
1,86,-0.733863947735367,-0.022225849709132505,0.44083342321247837,-1.748978602841279,-0.04187624452790277,1.4433461053269527,0.6978560330419538
1,87,-0.7287849533396067,-0.012185662783237808,0.43680012364577037,-1.7422457556072473,-0.02201409527212815,1.4596927178264267,0.6951817359402135
1,88,-0.7237059589438465,-0.0021454758573431123,0.4327668240790624,-1.7355129083732155,-0.002151946016353528,1.4760393303259005,0.6925074388384733
1,89,-0.7181919271867506,0.00875469556296321,0.42838805533789714,-1.7282033642841106,0.019411480368196607,1.4937860993552738,0.6896040768739051
1,90,-0.7126778954296548,0.019654866983269532,0.42400928659673187,-1.720893820195006,0.040974906752746745,1.5115328683846474,0.686700714909337
1,91,-0.706706657091555,0.031458847145885364,0.4192674437977179,-1.7129781911559228,0.0643263062368939,1.5307511450057836,0.6835566150862086
1,92,-0.7007354187534551,0.0432628273085012,0.41452560099870395,-1.7050625621168398,0.08767770572104105,1.5499694216269198,0.6804125152630801
1,93,-0.6942425018830225,0.05609806475783903,0.40936948607523654,-1.6964553824301714,0.113069205285113,1.5708667071527431,0.6769937304770735
1,94,-0.6877495850125899,0.06893330220717686,0.40421337115176914,-1.6878482027435031,0.13846070484918493,1.5917639926785667,0.6735749456910667
1,95,-0.6808493687079561,0.082573691648335,0.3987338141247122,-1.6787010963202995,0.16544500832748224,1.6139721609310378,0.6699417011889135
1,96,-0.6739491524033223,0.09621408108949316,0.3932542570976553,-1.6695539898970957,0.19242931180577955,1.6361803291835086,0.6663084566867603
1,97,-0.6666631313552648,0.11061713168737647,0.38746832719769586,-1.6598954506591983,0.22092236107120838,1.6596302000546064,0.6624720702973003
1,98,-0.6593771103072072,0.1250201822852598,0.38168239729773645,-1.650236911421301,0.24941541033663725,1.683080070925704,0.6586356839078402
1,99,-0.6517021129984941,0.1401921635143676,0.37558757597925696,-1.6400627351228774,0.2794296080704605,1.707781851861861,0.6545944856982716
1,100,-0.6440271156897811,0.15536414474347543,0.36949275466077747,-1.6298885588244538,0.30944380580428377,1.732483632798018,0.650553287488703
1,101,-0.6363106532946377,0.17061809440692663,0.3633650053447257,-1.6196594153276584,0.339620158813622,1.7573188680456624,0.646490256224828
1,102,-0.6285941908994941,0.18587204407037783,0.357237256028674,-1.6094302718308628,0.36979651182296025,1.7821541032933068,0.6424272249609531
1,103,-0.6212472006134662,0.20039561902766262,0.3514029096151437,-1.599690910183401,0.39852799019663754,1.8058002020847037,0.6385587357882067
1,104,-0.6139002103274381,0.2149191939849474,0.3455685632016134,-1.589951548535939,0.42725946857031477,1.8294463008761006,0.6346902466154603
1,105,-0.6069456961393549,0.2286669198114279,0.34004588747571074,-1.5807324634244537,0.4544561118508073,1.8518292254663677,0.6310284120694865
1,106,-0.5999911819512715,0.24241464563790838,0.3345232117498081,-1.5715133783129684,0.48165275513129985,1.8742121500566347,0.6273665775235127
1,107,-0.5934508957763112,0.25534352301573404,0.3293294802076677,-1.5628434046426651,0.507229499277933,1.8952618924676505,0.6239228508722587
1,108,-0.5869106096013507,0.26827240039355965,0.32413574866552736,-1.554173430972362,0.5328062434245663,1.9163116348786662,0.6204791242210049
1,109,-0.5807985436938354,0.2803547693495222,0.31928207274947396,-1.5460711172399457,0.5567083696835633,1.935983161400688,0.6172608729554083
1,110,-0.5746864777863202,0.2924371383054848,0.3144283968334205,-1.5379688035075294,0.5806104959425603,1.9556546879227097,0.6140426216898117
1,111,-0.5690933108240073,0.30349374467942336,0.3099867857333071,-1.5305543557296146,0.6024833921030018,1.9736561515695512,0.611097591821429
1,112,-0.5635001438616942,0.31455035105336193,0.30554517463319375,-1.5231399079516998,0.6243562882634434,1.991657615216393,0.6081525619530462
1,113,-0.558381999231327,0.3246679304004756,0.3014807853247038,-1.5163551621471547,0.644371540228646,2.008130231736449,0.6054576506606251
1,114,-0.55326385460096,0.3347855097475893,0.29741639601621384,-1.5095704163426098,0.6643867921938486,2.0246028482565057,0.6027627393682039
1,115,-0.5485672685397434,0.3440697495584323,0.29368677218722833,-1.5033444995552139,0.6827534778153849,2.039718689391756,0.6002897958063702
1,116,-0.5438706824785269,0.3533539893692752,0.2899571483582428,-1.497118582767818,0.7011201634369212,2.054834530527006,0.5978168522445364
1,117,-0.5396661264727669,0.36166558118230463,0.28661825238891725,-1.491544913834979,0.7175626936768404,2.0683667856159005,0.5956029825167621
1,118,-0.535461570467007,0.36997717299533406,0.2832793564195917,-1.4859712449021398,0.7340052239167596,2.081899040704795,0.593389112788988
1,119,-0.5319142097579381,0.37698961715994206,0.28046234830814587,-1.4812687711687362,0.7478776959806019,2.0933161296772527,0.5915212831117178
1,120,-0.5283668490488692,0.38400206132455006,0.27764534019670006,-1.4765662974353326,0.7617501680444444,2.1047332186497103,0.5896534534344476
1,121,-0.5250332267864822,0.39059198603142287,0.27499806473648747,-1.472147160952852,0.7747867847009178,2.1154623959428274,0.5878981657416633
1,122,-0.5216996045240953,0.3971819107382956,0.27235078927627493,-1.4677280244703714,0.787823401357391,2.1261915732359444,0.5861428780488791
1,123,-0.519445298638129,0.4016382362861519,0.27056061385086305,-1.4647396578831473,0.7966391937143602,2.1334469986020235,0.5849558943218823
1,124,-0.5171909927521628,0.40609456183400827,0.2687704384254511,-1.461751291295923,0.8054549860713293,2.1407024239681025,0.5837689105948856
1,125,-0.5152089266224829,0.41001272218049034,0.2671964523488572,-1.4591238128190764,0.8132061451069414,2.1470816526983523,0.5827252721710106
1,126,-0.5132268604928028,0.4139308825269724,0.26562246627226327,-1.4564963343422297,0.8209573041425536,2.1534608814286025,0.5816816337471357
1,127,-0.5112438808377427,0.4178508487359661,0.26404775475255365,-1.4538676448723502,0.8287120356525637,2.1598430503167325,0.580637514314997
1,128,-0.5092609011826827,0.4217708149449599,0.26247304323284404,-1.4512389554024707,0.8364667671625737,2.166225219204862,0.5795933948828583
1,129,-0.5061606261416205,0.4243390834466578,0.2584313664206981,-1.450173310606365,0.8427601773003941,2.170944546659591,0.5780383046875698
1,130,-0.5030603511005582,0.42690735194835583,0.25438968960855207,-1.449107665810259,0.8490535874382146,2.1756638741143193,0.5764832144922812
1,131,-0.49890100854356567,0.42819261058323055,0.24800883436486648,-1.449525108909328,0.8539589574163604,2.1788044255910712,0.5744438209228593
1,132,-0.49474166598657315,0.42947786921810527,0.24162797912118092,-1.4499425520083968,0.8588643273945062,2.1819449770678228,0.5724044273534372
1,133,-0.4905833435061495,0.4307628126439775,0.23524868877887933,-1.4503598927297658,0.8637684943332515,2.1850847583259805,0.5703655339442129
1,134,-0.4864250210257259,0.4320477560698497,0.22886939843657772,-1.4507772334511346,0.8686726612719967,2.188224539584138,0.5683266405349885
1,135,-0.48226587761762674,0.43333295316667325,0.22248884870758437,-1.451194656563071,0.873577796381533,2.1913649406916083,0.5662873446115206
1,136,-0.47810673420952765,0.4346181502634968,0.21610829897859102,-1.4516120796750072,0.8784829314910692,2.1945053417990787,0.5642480486880528
1,137,-0.47169845298109725,0.4365983427267742,0.20627734268702566,-1.4522552324663547,0.8860406139658176,2.1993439759821545,0.5611059637673633
1,138,-0.4652901717526669,0.43857853519005163,0.1964463863954603,-1.4528983852577022,0.893598296440566,2.20418261016523,0.5579638788466739
1,139,-0.4585514453777031,0.4406608369343308,0.1861084935827701,-1.4535747024360055,0.9015456933182562,2.2092707501244497,0.554659771275132
1,140,-0.45181271900273934,0.4427431386786099,0.17577060077007992,-1.4542510196143086,0.9094930901959465,2.2143588900836697,0.5513556637035901
1,141,-0.444042897723366,0.44514405414876257,0.16385090332423252,-1.4550308203231057,0.9186565210788682,2.2202255681364327,0.5475459934647029
1,142,-0.43627307644399277,0.4475449696189152,0.15193120587838516,-1.4558106210319026,0.9278199519617899,2.2260922461891957,0.5437363232258156
1,143,-0.4278903621687329,0.4501352722348545,0.13907126813421303,-1.4566519333733905,0.9377062054688746,2.2324216949748203,0.5396261415437307
1,144,-0.41950764789347295,0.45272557485079373,0.1262113303900409,-1.4574932457148781,0.9475924589759593,2.2387511437604455,0.5355159598616459
1,145,-0.4100076643509878,0.45566111952205907,0.11163738776055399,-1.4584466902837585,0.958796377245168,2.245924197418483,0.5308579628150725
1,146,-0.40050768080850263,0.4585966641933244,0.09706344513106709,-1.459400134852639,0.9700002955143767,2.253097251076521,0.5261999657684989
1,147,-0.3904645309493483,0.4617000501013011,0.08165623003305392,-1.4604080930922338,0.9818448034215919,2.260680427669749,0.5212756454080452
1,148,-0.380421381090194,0.46480343600927787,0.06624901493504076,-1.4614160513318286,0.993689311328807,2.268263604262977,0.5163513250475913
1,149,-0.3695506425366093,0.4681625511583707,0.04957219446355496,-1.4625070686569939,1.0065098457787474,2.2764716596347196,0.5110212244373934
1,150,-0.35867990398302463,0.4715216663074635,0.03289537399206916,-1.463598085982159,1.019330380228688,2.284679715006462,0.5056911238271955
1,151,-0.3469181945571769,0.4751560961225899,0.014851713428825814,-1.4647785236032003,1.0332016917445506,2.2935605064777898,0.49992416565055825
1,152,-0.3351564851313291,0.47879052593771637,-0.003191947134417533,-1.4659589612242416,1.0470730032604132,2.3024412979491173,0.494157207473921
1,153,-0.32274655886669573,0.4826252581510956,-0.02223003836984895,-1.4672044556763433,1.0617087969935342,2.3118115317595667,0.4880724179971452
1,154,-0.31033663260206235,0.4864599903644748,-0.04126812960528037,-1.468449950128445,1.0763445907266553,2.321181765570016,0.4819876285203694
1,155,-0.2972695483708324,0.49049778783142994,-0.06131436811389993,-1.4697613987678717,1.0917554115021688,2.331048192803867,0.47558062376249866
1,156,-0.2842024641396025,0.49453558529838515,-0.0813606066225195,-1.4710728474072985,1.1071662322776823,2.3409146200377178,0.46917361900462795
1,157,-0.2703751280394512,0.49880830457469405,-0.10257314895388459,-1.4724605970226337,1.1234736651120816,2.3513550827343677,0.4623938503420356
1,158,-0.2565477919392999,0.503081023851003,-0.12378569128524966,-1.4738483466379688,1.1397810979464806,2.361795545431018,0.4556140816794433
1,159,-0.24185432966974804,0.5076213806500356,-0.14632695940295842,-1.475323023066228,1.1571100069518003,2.37288998499615,0.44840963721388927
1,160,-0.2271608674001962,0.5121617374490683,-0.1688682275206672,-1.4767976994944874,1.17443891595712,2.3839844245612816,0.4412051927483353
1,161,-0.21175677948353333,0.5169216812949956,-0.19249966778085625,-1.4783436962740626,1.1926059097480217,2.3956154288346267,0.43365231692491
1,162,-0.19635269156687044,0.5216816251409229,-0.21613110804104527,-1.4798896930536376,1.2107729035389232,2.4072464331079715,0.4260994411014848
1,163,-0.18028498662879028,0.5266466301221953,-0.24078060442257748,-1.4815022922691072,1.2297225419351303,2.419378507775989,0.41822118301692257
1,164,-0.1642172816907101,0.5316116351034678,-0.26543010080410967,-1.4831148914845769,1.2486721803313372,2.431510582444006,0.41034292493236035
1,165,-0.14751008232098559,0.5367742472135022,-0.2910606467966208,-1.4847916721262515,1.268376014070485,2.4441255135140043,0.4021511122863004
1,166,-0.13080288295126108,0.5419368593235366,-0.3166911927891319,-1.4864684527679262,1.2880798478096327,2.4567404445840024,0.3939592996402405
1,167,-0.113532833656902,0.5472733950082378,-0.3431852079101894,-1.4882017225815387,1.3084474852833063,2.4697803608861086,0.38549151248592095
1,168,-0.09626278436254293,0.5526099306929388,-0.36967922303124695,-1.489934992395151,1.32881512275698,2.482820277188215,0.3770237253316014
1,169,-0.07838834900998007,0.5581332248351271,-0.3971004279415218,-1.4917289200617085,1.3498955500969605,2.4963165409783223,0.3682595978245313
1,170,-0.060513913657417207,0.5636565189773153,-0.42452163285179656,-1.493522847728266,1.3709759774369412,2.50981280476843,0.3594954703174613
1,171,-0.04187871041148716,0.5694148943831137,-0.45310993321889026,-1.4953931281603694,1.392953625415358,2.5238834936505423,0.35035832589045834
1,172,-0.023243507165557127,0.5751732697889121,-0.4816982335859839,-1.497263408592473,1.4149312733937747,2.5379541825326544,0.3412211814634553
1,173,-0.0045128264388417435,0.5809611482363413,-0.5104330061360188,-1.499143271408072,1.4370215238716049,2.5520969626020555,0.3320372228686673
1,174,0.01421785428787364,0.5867490266837705,-0.5391677786860537,-1.5010231342236708,1.4591117743494348,2.566239742671457,0.3228532642738793
1,175,0.03244923293250208,0.5923826181727152,-0.5671365709723781,-1.5028528857042063,1.4806131669945826,2.5800055199165524,0.3139141216425409
1,176,0.05068061157713052,0.5980162096616599,-0.5951053632587024,-1.5046826371847417,1.5021145596397303,2.593771297161648,0.3049749790112025
1,177,0.06829096086147482,0.6034578998256046,-0.6221214332347689,-1.5064500604445985,1.522883533942858,2.6070681602339327,0.29634033721537634
1,178,0.08590131014581912,0.6088995899895494,-0.6491375032108354,-1.5082174837044553,1.5436525082459855,2.620365023306218,0.28770569541955016
1,179,0.1029354724615642,0.6141632353623889,-0.6752696436741118,-1.509927079249831,1.5637419496135985,2.6332268308834763,0.2793535675024067
1,180,0.11996963477730929,0.6194268807352286,-0.7014017841373882,-1.5116366747952068,1.5838313909812114,2.6460886384607343,0.2710014395852632
1,181,0.1364524707479406,0.6245201633798287,-0.7266881338171459,-1.5132909377068913,1.603270619084486,2.6585341617950875,0.2629196359771834
1,182,0.1529353067185719,0.6296134460244289,-0.7519744834969037,-1.5149452006185755,1.622709847187761,2.6709796851294407,0.2548378323691035
1,183,0.16876609443013427,0.6345052423418416,-0.7762605247154069,-1.5165340221672854,1.641380074442822,2.6829328731740523,0.2470757386690865
1,184,0.18459688214169664,0.6393970386592542,-0.8005465659339099,-1.5181228437159953,1.660050301697883,2.6948860612186643,0.23931364496906946
1,185,0.1997867761309685,0.6440907954597663,-0.8238494108870207,-1.5196473434018287,1.6779646833399826,2.7063553363134765,0.23186579192560158
1,186,0.21497667012024038,0.6487845522602783,-0.8471522558401314,-1.521171843087662,1.6958790649820825,2.7178246114082887,0.22441793888213374
1,187,0.2294536143998471,0.6532580038663942,-0.8693613633020243,-1.522624789172847,1.7129526209278618,2.7287555669891734,0.2173196567223547
1,188,0.24393055867945382,0.6577314554725101,-0.8915704707639172,-1.524077735258032,1.7300261768736411,2.7396865225700577,0.21022137456257567
1,189,0.25763639965416035,0.6619666321187199,-0.9125966271947092,-1.5254532912872432,1.7461903229908051,2.7500352492073654,0.20350117694376083
1,190,0.2713422406288669,0.6662018087649296,-0.9336227836255014,-1.5268288473164544,1.762354469107969,2.760383975844673,0.19678097932494598
1,191,0.2843508076309613,0.670221524101595,-0.9535792507427872,-1.528134423005254,1.777696276895234,2.7702062190836116,0.1904026665199895
1,192,0.2973593746330557,0.6742412394382604,-0.9735357178600728,-1.5294399986940534,1.7930380846824994,2.78002846232255,0.184024353715033
1,193,0.30963132129374227,0.678033335231345,-0.992362134325441,-1.5306716451322704,1.8075111505331432,2.7892945133101135,0.17800721789100277
1,194,0.3219032679544288,0.6818254310244295,-1.0111885507908092,-1.5319032915704873,1.8219842163837872,2.798560564297677,0.1719900820669725
1,195,0.3334776186693651,0.6854019660165838,-1.0289447840030737,-1.53306492535418,1.8356345641816931,2.8072998887779663,0.16631498892548735
1,196,0.3450519693843014,0.6889785010087379,-1.0467010172153384,-1.5342265591378723,1.8492849119795989,2.8160392132582555,0.16063989578400223
1,197,0.35581428719389935,0.6923041135800798,-1.0632115092194492,-1.5353066950579228,1.8619775791391509,2.8241654045077302,0.1553629556348745
1,198,0.3665766050034973,0.6956297261514216,-1.0797220012235602,-1.5363868309779734,1.8746702462987026,2.8322915957572055,0.15008601548574677
1,199,0.37645552986835074,0.6986823656760228,-1.0948772784487797,-1.5373783071438687,1.8863210735110323,2.8397507726939244,0.14524221732146375
1,200,0.38633445473320416,0.7017350052006239,-1.1100325556739992,-1.538369783309764,1.897971900723362,2.8472099496306438,0.14039841915718074
1,201,0.39566052131027274,0.7046168086186768,-1.1243396919595656,-1.5393057730919733,1.9089707079565943,2.8542516856164566,0.13582569643846648
1,202,0.4049865878873414,0.7074986120367296,-1.1386468282451319,-1.5402417628741827,1.9199695151898268,2.861293421602269,0.13125297371975225
1,203,0.4132386483049746,0.710048541926356,-1.1513063296604558,-1.5410699624339061,1.929701680520247,2.867524218940005,0.12720685375737745
1,204,0.42149070872260774,0.7125984718159826,-1.1639658310757799,-1.5418981619936296,1.939433845850667,2.873755016277741,0.12316073379500264
1,205,0.42938648004150193,0.7150383065080168,-1.1760787487142677,-1.542690603396023,1.9487458174065788,2.8797167941154327,0.11928930819522655
1,206,0.43728225136039606,0.717478141200051,-1.1881916663527554,-1.5434830447984165,1.9580577889624906,2.8856785719531244,0.11541788259545047
1,207,0.44457000053871265,0.7197300938661005,-1.199371816081214,-1.5442144634206019,1.966652682395221,2.8911812568439563,0.11184458017898262
1,208,0.4518577497170293,0.72198204653215,-1.2105519658096726,-1.5449458820427873,1.9752475758279513,2.8966839417347883,0.10827127776251477
1,209,0.458473562231858,0.7240263672498799,-1.2207012962382318,-1.5456098632468374,1.9830500127868218,2.901679274405435,0.10502743686353416
1,210,0.4650893747466867,0.7260706879676099,-1.2308506266667907,-1.5462738444508872,1.9908524497456923,2.906674607076082,0.10178359596455354
1,211,0.4702179520797868,0.7276554452247173,-1.2387183868043976,-1.5467885626272357,1.9969008982530396,2.9105469885633974,0.09926897075874455
1,212,0.47534652941288685,0.7292402024818246,-1.2465861469420045,-1.547303280803584,2.002949346760387,2.914419370050713,0.09675434555293555
1,213,0.48047110137307003,0.7308237220577224,-1.2544477624294825,-1.5478175969896515,2.008993071483678,2.9182887272428046,0.09424168424686741
1,214,0.48559567333325315,0.7324072416336201,-1.2623093779169605,-1.548331913175719,2.015036796206968,2.9221580844348964,0.09172902294079928
1,215,0.4921375115949291,0.734354522539876,-1.271097042907642,-1.5503543188300024,2.019630256050692,2.924661363915201,0.08764169732484707
1,216,0.498679349856605,0.7363018034461317,-1.2798847078983235,-1.5523767244842859,2.024223715894416,2.9271646433955056,0.08355437170889486
1,217,0.5077311774011766,0.7388931927638374,-1.290310467735457,-1.5570720971556689,2.0262438792505466,2.9272447911791004,0.07667693230144912
1,218,0.5167830049457482,0.7414845820815431,-1.3007362275725907,-1.5617674698270518,2.0282640426066774,2.927324938962695,0.06979949289400339
1,219,0.5262334666275377,0.7441900937949499,-1.311621128258028,-1.5666696223806802,2.0303731720939617,2.927408616380765,0.06261917739761817
1,220,0.535683928309327,0.7468956055083567,-1.3225060289434654,-1.5715717749343086,2.032482301581246,2.9274922937988346,0.055438861901232955
1,221,0.5469715623253952,0.7501270694384171,-1.3355069572976033,-1.5774269072843945,2.035001446417401,2.9275922381298507,0.046862691109569116
1,222,0.5582591963414636,0.7533585333684776,-1.3485078856517412,-1.5832820396344804,2.0375205912535566,2.927692182460867,0.03828652031790528
1,223,0.5703245750791622,0.7568126528179469,-1.3624046087658201,-1.5895406044730085,2.040213311136223,2.9277990131930363,0.029119431043632772
1,224,0.5823899538168609,0.760266772267416,-1.376301331879899,-1.5957991693115368,2.04290603101889,2.9279058439252053,0.01995234176936026
1,225,0.5955077365501169,0.7640221776681,-1.3914101982054223,-1.6026036381606816,2.0458336236913004,2.92802199297981,0.009985652118704143
1,226,0.6086255192833728,0.7677775830687839,-1.406519064530946,-1.6094081070098265,2.0487612163637103,2.928138142034415,1.896246804802479e-05
1,227,0.6231193651234557,0.7719269326998413,-1.423212859800583,-1.6169263686344169,2.0519959152255,2.928266475193009,-0.010993238775866223
1,228,0.6376132109635384,0.7760762823308988,-1.43990665507022,-1.6244446302590072,2.05523061408729,2.9283948083516034,-0.02200544001978047
1,229,0.6528402459233187,0.7804355319454995,-1.4574449266226326,-1.6323432124474428,2.0586289441921,2.928529633401764,-0.033574707084943395
1,230,0.668067280883099,0.7847947815601003,-1.4749831981750452,-1.6402417946358785,2.0620272742969106,2.9286644584519252,-0.04514397415010631
1,231,0.683344663914178,0.7891684449992562,-1.4925794598843671,-1.64816649342418,2.0654368409534767,2.928799729300054,-0.05675149490580128
1,232,0.6986220469452572,0.7935421084384121,-1.5101757215936888,-1.6560911922124812,2.068846407610043,2.928935000148182,-0.06835901566149626
1,233,0.7129629923638672,0.7976476851941108,-1.5266934084404222,-1.6635301411836996,2.0720469825529806,2.9290619794774164,-0.0792550455158349
1,234,0.7273039377824773,0.8017532619498094,-1.5432110952871556,-1.670969090154918,2.075247557495918,2.929188958806651,-0.09015107537017356
1,235,0.7402662121097277,0.8054641478520659,-1.5581408493521232,-1.6776928935344508,2.078140444206263,2.929303730939964,-0.09999961212470065
1,236,0.7532284864369782,0.8091750337543224,-1.573070603417091,-1.684416696913984,2.081033330916608,2.9294185030732773,-0.10984814887922775
1,237,0.7653846699375233,0.8126551491135987,-1.5870719141014527,-1.6907223640862454,2.08374631637035,2.929526137819934,-0.11908423021629748
1,238,0.7775408534380686,0.8161352644728749,-1.6010732247858144,-1.6970280312585069,2.0864593018240916,2.9296337725665906,-0.1283203115533672
1,239,0.7885822853820836,0.8192962447998868,-1.613790581268748,-1.7027554534334857,2.0889234999214015,2.929731536945515,-0.13670942179574463
1,240,0.7996237173260988,0.8224572251268988,-1.626507937751682,-1.7084828756084645,2.0913876980187114,2.929829301324439,-0.1450985320381221
1,241,0.8113578914475106,0.8252970308730896,-1.6378358072528125,-1.7146806970077022,2.0940852874893814,2.9297988944030644,-0.1536997686709311
1,242,0.8230920655689223,0.8281368366192804,-1.6491636767539428,-1.7208785184069397,2.096782876960051,2.9297684874816903,-0.16230100530374014
1,243,0.8353210914858245,0.8307595872237773,-1.6595510765078074,-1.72740971875367,2.099645310331481,2.9296497214963626,-0.17106125476967324
1,244,0.8475501174027267,0.8333823378282742,-1.669938476261672,-1.7339409191004005,2.102507743702911,2.9295309555110345,-0.17982150423560633
1,245,0.8617385674471438,0.8364253247500237,-1.6819902213066635,-1.7415185962170696,2.10582881712053,2.9293931599694063,-0.18998538505233045
1,246,0.8759270174915611,0.8394683116717732,-1.6940419663516553,-1.7490962733337387,2.10914989053815,2.929255364427778,-0.20014926586905457
1,247,0.8910623586703696,0.8427143776704658,-1.7068980057699803,-1.7571796600422656,2.112692601623447,2.9291083728586544,-0.21099145112398288
1,248,0.9061976998491781,0.8459604436691583,-1.7197540451883053,-1.7652630467507924,2.1162353127087443,2.928961381289531,-0.22183363637891115
1,249,0.922401523976961,0.849435666455919,-1.7335176597149506,-1.773917082033804,2.120028122311351,2.9288040128162205,-0.2334412282366805
1,250,0.9386053481047439,0.8529108892426795,-1.7472812742415962,-1.7825711173168155,2.123820931913957,2.92864664434291,-0.24504882009444987
1,251,0.9527450087572835,0.8559434123377998,-1.7592915773172417,-1.7901227373055244,2.127130585257367,2.9285093226346226,-0.2551777506831638
1,252,0.9668846694098232,0.85897593543292,-1.7713018803928875,-1.797674357294233,2.130440238600777,2.928372000926335,-0.2653066812718777
1,253,0.979913978625001,0.8617703222346564,-1.7823690450431564,-1.8046329678525943,2.133489993320215,2.92824546274107,-0.2746402128114569
1,254,0.9929432878401787,0.8645647090363928,-1.7934362096934255,-1.8115915784109553,2.136539748039653,2.928118924555805,-0.28397374435103606
1,255,1.0044931051507655,0.8670417902478491,-1.8032466860391625,-1.8177600313471223,2.1392431998704358,2.928006754915919,-0.29224744346772946
1,256,1.0160429224613525,0.8695188714593053,-1.8130571623848994,-1.8239284842832892,2.1419466517012187,2.9278945852760336,-0.30052114258442286
1,257,1.0278838973552986,0.8720583970332928,-1.8231149495328434,-1.8302524368089008,2.1447182544369565,2.927779587968801,-0.3090034121204983
1,258,1.0397248722492445,0.8745979226072803,-1.833172736680787,-1.8365763893345126,2.1474898571726944,2.927664590661568,-0.31748568165657376
1,259,1.051840035053036,0.8771962530698322,-1.8434634204998637,-1.8430467783943194,2.1503256387423404,2.9275469304932455,-0.3261643654047961
1,260,1.0639551978568276,0.879794583532384,-1.8537541043189405,-1.8495171674541264,2.153161420311987,2.9274292703249234,-0.3348430491530184
1,261,1.0783807888882941,0.8820189206093303,-1.8625521714823663,-1.8573015228544794,2.156907729927158,2.927250734725443,-0.34458264665709926
1,262,1.0928063799197607,0.8842432576862767,-1.871350238645792,-1.8650858782548325,2.1606540395423295,2.9270721991259623,-0.35432224416118013
1,263,1.1084759078007986,0.8863749701703486,-1.8797767472825764,-1.873567666838682,2.1648443430488147,2.9268656947536806,-0.3647073394137149
1,264,1.1241454356818366,0.8885066826544206,-1.8882032559193607,-1.8820494554225315,2.1690346465552994,2.926659190381399,-0.3750924346662497
1,265,1.1414544447592083,0.8908614332900027,-1.8975114185897337,-1.8914186819049617,2.173663375766628,2.926431079740065,-0.38656410818189024
1,266,1.15876345383658,0.8932161839255849,-1.906819581260107,-1.900787908387392,2.1782921049779564,2.9262029690987315,-0.39803578169753084
1,267,1.1780617507677404,0.895841561078094,-1.9171975114058157,-1.9112339202801008,2.183452804260906,2.925948642183197,-0.410825870420263
1,268,1.1973600476989008,0.8984669382306031,-1.9275754415515247,-1.9216799321728093,2.1886135035438548,2.925694315267662,-0.4236159591429951
1,269,1.2184001538456792,0.9013292744336971,-1.9388900540599994,-1.933068771292505,2.1942399928186433,2.9254170335304224,-0.4375604447788485
1,270,1.2394402599924579,0.9041916106367911,-1.9502046665684742,-1.9444576104122007,2.199866482093432,2.925139751793183,-0.4515049304147018
1,271,1.2622591573090935,0.9071528596042315,-1.9619073126852165,-1.9568224632876206,2.2060294897060126,2.92483270306923,-0.46653055441888114
1,272,1.2850780546257294,0.9101141085716721,-1.9736099588019587,-1.9691873161630407,2.212192497318593,2.924525654345277,-0.4815561784230605
1,273,1.309531767276472,0.9131685784298379,-1.9856784265625111,-1.9824489709892996,2.218847613316881,2.9241913502804966,-0.49757701448737146
1,274,1.3339854799272144,0.9162230482880037,-1.9977468943230636,-1.9957106258155586,2.2255027293151692,2.9238570462157165,-0.5135978505516824
1,275,1.3602106055919205,0.9194987822026666,-2.010689595013191,-2.0099329473627137,2.2326399381251782,2.9234985253549253,-0.5307792268539615
1,276,1.3864357312566264,0.9227745161173294,-2.0236322957033184,-2.024155268909869,2.2397771469351873,2.9231400044941336,-0.5479606031562405
1,277,1.414182015823387,0.9262402552914049,-2.0373257231820654,-2.0392025402134504,2.2473283415104497,2.9227606880342694,-0.5661385658560801
1,278,1.4419283003901477,0.9297059944654803,-2.051019150660813,-2.0542498115170313,2.2548795360857117,2.922381371574405,-0.5843165285559198
1,279,1.4712111844546452,0.9333636675563783,-2.065470925216103,-2.0701304062687216,2.2628489186083995,2.9219810484287514,-0.6035011935508807
1,280,1.5004940685191426,0.9370213406472763,-2.0799226997713935,-2.086011001020412,2.2708183011310874,2.921580725283098,-0.6226858585458418
1,281,1.5312577994517653,0.9408639836929558,-2.0951053062024623,-2.1026946836424845,2.279190698436186,2.921160157639834,-0.6428406995320491
1,282,1.5620215303843883,0.9447066267386354,-2.110287912633531,-2.119378366264557,2.2875630957412847,2.9207395899965696,-0.6629955405182565
1,283,1.5942391493200447,0.9487308723550918,-2.1261880461224605,-2.136850516516378,2.296331170931656,2.920299146407428,-0.6841028954104357
1,284,1.6264567682557012,0.9527551179715482,-2.1420881796113904,-2.1543226667681985,2.305099246122027,2.9198587028182863,-0.7052102503026149
1,285,1.6600785689639896,0.9569547574417375,-2.1586813089940318,-2.1725563281348315,2.314249471569622,2.9193990628117747,-0.7272375540919258
1,286,1.6937003696722779,0.9611543969119268,-2.1752744383766727,-2.1907899895014644,2.3233996970172166,2.9189394228052636,-0.7492648578812368
1,287,1.7286271189337075,0.9655170351904753,-2.1925115897844227,-2.2097313461585815,2.3329050662467385,2.918461942988009,-0.7721470979798448
1,288,1.763553868195137,0.9698796734690237,-2.209748741192173,-2.228672702815699,2.3424104354762605,2.917984463170755,-0.7950293380784528
1,289,1.7995689257539345,0.9743782504059746,-2.2275229976926307,-2.2482042671517233,2.3522119895045623,2.917492105208299,-0.818624582744857
1,290,1.8355839833127319,0.9788768273429256,-2.2452972541930887,-2.267735831487747,2.3620135435328646,2.9169997472458435,-0.8422198274112614
1,291,1.871833743977655,0.9834047206284211,-2.2631873420566624,-2.287394679219325,2.3718789723771807,2.91650418068257,-0.8659688376853969
1,292,1.908083504642578,0.9879326139139166,-2.281077429920236,-2.307053526950903,2.3817444012214968,2.916008614119297,-0.8897178479595323
1,293,1.944333927595006,0.9924605899245693,-2.2989678446378754,-2.3267127338520033,2.3916100103083893,2.915513038501963,-0.9134672921309535
1,294,1.980584350547434,0.996988565935222,-2.3168582593555147,-2.3463719407531034,2.4014756193952818,2.915017462884629,-0.9372167363023747
1,295,2.0163616822803103,1.001457448961062,-2.334515192711346,-2.3657745824223864,2.411212475969668,2.914528354846266,-0.9606562350278771
1,296,2.052139014013187,1.0059263319869018,-2.3521721260671775,-2.3851772240916693,2.420949332544054,2.9140392468079033,-0.9840957337533796
1,297,2.0862729445175408,1.0101899406812287,-2.3690180032440415,-2.40368862195904,2.4302389349135773,2.913572605530257,-1.0064585590900155
1,298,2.1204068750218945,1.0144535493755555,-2.3858638804209056,-2.422200019826411,2.439528537283101,2.9131059642526105,-1.0288213844266514
1,299,2.153267328030992,1.0185580902555236,-2.402081267261157,-2.4400207896810824,2.4484715607681338,2.9126567325482737,-1.0503498916998306
1,300,2.1861277810400894,1.0226626311354916,-2.418298654101408,-2.457841559535754,2.457414584253167,2.9122075008439365,-1.0718783989730096
1,301,2.2174811974759807,1.0265789307510857,-2.4337722838460616,-2.4748450384076675,2.465947465386747,2.9117788716738398,-1.0924195720844159
1,302,2.248834613911872,1.03049523036668,-2.4492459135907145,-2.491848517279581,2.4744803465203264,2.911350242503743,-1.112960745195822
1,303,2.278638452158237,1.0342179749200886,-2.4639547909769077,-2.508011634143103,2.482591507535288,2.9109427974497297,-1.1324867130294938
1,304,2.3084422904046016,1.0379407194734973,-2.478663668363101,-2.5241747510066257,2.4907026685502496,2.910535352395716,-1.1520126808631654
1,305,2.3364943109621024,1.0414446475876984,-2.4925079835618518,-2.539387828019756,2.4983370696517473,2.9101518562521402,-1.170390946325067
1,306,2.364546331519603,1.0449485757018997,-2.5063522987606026,-2.554600905032886,2.505971470753245,2.909768360108564,-1.1887692117869684
1,307,2.3910134602648863,1.0482545377919632,-2.5194144335185795,-2.568954468873076,2.5131745410786888,2.909406530849793,-1.206109136271127
1,308,2.4174805890101694,1.0515604998820267,-2.532476568276556,-2.583308032713266,2.520377611404132,2.9090447015910224,-1.2234490607552855
1,309,2.4421478936058096,1.0546416491310464,-2.5446504485582144,-2.5966855220014473,2.5270908567830137,2.90870747753383,-1.2396098314619448
1,310,2.46681519820145,1.0577227983800663,-2.5568243288398724,-2.610063011289629,2.5338041021618958,2.908370253476638,-1.255770602168604
1,311,2.4915684169254404,1.0608146790104178,-2.5690406097133334,-2.623487093237631,2.5405407292046673,2.9080318548966755,-1.271987659468042
1,312,2.516321635649431,1.0639065596407695,-2.5812568905867947,-2.6369111751856322,2.547277356247439,2.9076934563167125,-1.28820471676748
1,313,2.5395896058467553,1.0668129205129813,-2.592740167265086,-2.649529782170663,2.5536097705895697,2.907375362408959,-1.3034487143315587
1,314,2.5628575760440793,1.069719281385193,-2.604223443943377,-2.662148389155694,2.5599421849317,2.9070572685012057,-1.3186927118956377
1,315,2.5843881070703056,1.0724086218133393,-2.6148492545623503,-2.673824753999509,2.5658017524963794,2.906762926936726,-1.3327984271657587
1,316,2.605918638096532,1.0750979622414856,-2.625475065181324,-2.685501118843323,2.5716613200610587,2.906468585372247,-1.3469041424358799
1,317,2.6256259450565826,1.0775595669865332,-2.6352010729287594,-2.696188718971453,2.5770246943554334,2.906199168907078,-1.35981537348637
1,318,2.6453332520166333,1.0800211717315809,-2.644927080676195,-2.7068763190995826,2.5823880686498075,2.905929752441909,-1.37272660453686
1,319,2.6636973977998997,1.0823150045972518,-2.6539902075927824,-2.716835500596278,2.5873858995371926,2.905678698188134,-1.3847578642992047
1,320,2.6820615435831665,1.084608837462923,-2.66305333450937,-2.726794682092973,2.5923837304245776,2.905427643934359,-1.3967891240615495
1,321,2.6974442023158263,1.0865302580712548,-2.670645029220032,-2.7351369536055357,2.5965701449657996,2.905217349268068,-1.4068670642626544
1,322,2.712826861048486,1.0884516786795866,-2.6782367239306937,-2.7434792251180977,2.6007565595070217,2.9050070546017777,-1.4169450044637593
1,323,2.7271572624266294,1.090241663688821,-2.685309105515363,-2.75125083997728,2.6046566005697303,2.9048111452321423,-1.4263335588519634
1,324,2.7414876638047727,1.0920316486980557,-2.6923814871000316,-2.759022454836462,2.6085566416324393,2.9046152358625075,-1.4357221132401674
1,325,2.752798007463559,1.0934444036561546,-2.6979634009695674,-2.765156242196748,2.6116347692813893,2.9044606133758037,-1.4431320785152328
1,326,2.7641083511223448,1.0948571586142533,-2.7035453148391038,-2.771290029557034,2.614712896930339,2.9043059908891,-1.4505420437902983
1,327,2.7753712042117265,1.0962639816095918,-2.709103791023983,-2.7773980619921708,2.617778099946832,2.904152017640842,-1.4579208956455778
1,328,2.786634057301108,1.0976708046049304,-2.7146622672088627,-2.7835060944273073,2.6208433029633253,2.903998044392584,-1.4652997475008573
1,329,2.792334561959921,1.0983828445272672,-2.7174755969341415,-2.7865975728543413,2.6223947041879585,2.9039201134090167,-1.4690344299160412
1,330,2.798035066618734,1.0990948844496038,-2.720288926659421,-2.7896890512813752,2.623946105412591,2.9038421824254494,-1.4727691123312248
1,331,2.803206764845285,1.0997408720987656,-2.722841278288225,-2.7924937491906725,2.625353591142771,2.9037714806975097,-1.4761573475102763
1,332,2.8083784630718367,1.1003868597479274,-2.72539362991703,-2.79529844709997,2.626761076872951,2.90370077896957,-1.479545582689328
1,333,2.8135319787039546,1.1010305762414805,-2.727937008018671,-2.7980932842860855,2.6281636141817257,2.903630325813915,-1.4829219055518816
1,334,2.818685494336072,1.1016742927350334,-2.7304803861203113,-2.800888121472201,2.629566151490501,2.90355987265826,-1.4862982284144355
1,335,2.8238455879362268,1.1023188308709024,-2.733027010599969,-2.803686525999718,2.6309704790035267,2.903489329575914,-1.489678860829042
1,336,2.8290056815363815,1.1029633690067715,-2.735573635079627,-2.806484930527235,2.632374806516552,2.9034187864935683,-1.4930594932436487
1,337,2.834169046389974,1.1036083157491032,-2.7381218739978452,-2.8092851091098643,2.633780024306297,2.9033481986902703,-1.496442268818102
1,338,2.839332411243566,1.1042532624914347,-2.7406701129160638,-2.8120852876924936,2.6351852420960427,2.9032776108869722,-1.4998250443925552
1,339,2.840337848989237,1.1043788499362648,-2.7411663194918168,-2.8126305532937876,2.635458873545061,2.903263865656133,-1.5004837563651021
1,340,2.841343286734908,1.1045044373810948,-2.7416625260675698,-2.8131758188950817,2.635732504994079,2.9032501204252936,-1.5011424683376489
1,341,2.841343286734908,1.1045044373810948,-2.7416625260675698,-2.8131758188950817,2.635732504994079,2.9032501204252936,-1.5011424683376489
1,342,2.841343286734908,1.1045044373810948,-2.7416625260675698,-2.8131758188950817,2.635732504994079,2.9032501204252936,-1.5011424683376489
1,343,2.841343286734908,1.1045044373810948,-2.7416625260675698,-2.8131758188950817,2.635732504994079,2.9032501204252936,-1.5011424683376489
1,344,2.841343286734908,1.1045044373810948,-2.7416625260675698,-2.8131758188950817,2.635732504994079,2.9032501204252936,-1.5011424683376489
1,345,2.841343286734908,1.1045044373810948,-2.7416625260675698,-2.8131758188950817,2.635732504994079,2.9032501204252936,-1.5011424683376489
1,346,2.841343286734908,1.1045044373810948,-2.7416625260675698,-2.8131758188950817,2.635732504994079,2.9032501204252936,-1.5011424683376489
1,347,2.841343286734908,1.1045044373810948,-2.7416625260675698,-2.8131758188950817,2.635732504994079,2.9032501204252936,-1.5011424683376489
1,348,2.841343286734908,1.1045044373810948,-2.7416625260675698,-2.8131758188950817,2.635732504994079,2.9032501204252936,-1.5011424683376489
1,349,2.841343286734908,1.1045044373810948,-2.7416625260675698,-2.8131758188950817,2.635732504994079,2.9032501204252936,-1.5011424683376489
1,350,2.841343286734908,1.1045044373810948,-2.7416625260675698,-2.8131758188950817,2.635732504994079,2.9032501204252936,-1.5011424683376489
1,351,2.841343286734908,1.1045044373810948,-2.7416625260675698,-2.8131758188950817,2.635732504994079,2.9032501204252936,-1.5011424683376489
1,352,2.841343286734908,1.1045044373810948,-2.7416625260675698,-2.8131758188950817,2.635732504994079,2.9032501204252936,-1.5011424683376489
1,353,2.841343286734908,1.1045044373810948,-2.7416625260675698,-2.8131758188950817,2.635732504994079,2.9032501204252936,-1.5011424683376489
1,354,2.841343286734908,1.1045044373810948,-2.7416625260675698,-2.8131758188950817,2.635732504994079,2.9032501204252936,-1.5011424683376489
1,355,2.841343286734908,1.1045044373810948,-2.7416625260675698,-2.8131758188950817,2.635732504994079,2.9032501204252936,-1.5011424683376489
1,356,2.841343286734908,1.1045044373810948,-2.7416625260675698,-2.8131758188950817,2.635732504994079,2.9032501204252936,-1.5011424683376489
1,357,2.841343286734908,1.1045044373810948,-2.7416625260675698,-2.8131758188950817,2.635732504994079,2.9032501204252936,-1.5011424683376489
1,358,2.841343286734908,1.1045044373810948,-2.7416625260675698,-2.8131758188950817,2.635732504994079,2.9032501204252936,-1.5011424683376489
1,359,2.841343286734908,1.1045044373810948,-2.7416625260675698,-2.8131758188950817,2.635732504994079,2.9032501204252936,-1.5011424683376489
1,360,2.841343286734908,1.1045044373810948,-2.7416625260675698,-2.8131758188950817,2.635732504994079,2.9032501204252936,-1.5011424683376489
1,361,2.841343286734908,1.1045044373810948,-2.7416625260675698,-2.8131758188950817,2.635732504994079,2.9032501204252936,-1.5011424683376489
1,362,2.841343286734908,1.1045044373810948,-2.7416625260675698,-2.8131758188950817,2.635732504994079,2.9032501204252936,-1.5011424683376489
1,363,2.841343286734908,1.1045044373810948,-2.7416625260675698,-2.8131758188950817,2.635732504994079,2.9032501204252936,-1.5011424683376489
1,364,2.841343286734908,1.1045044373810948,-2.7416625260675698,-2.8131758188950817,2.635732504994079,2.9032501204252936,-1.5011424683376489
1,365,2.841343286734908,1.1045044373810948,-2.7416625260675698,-2.8131758188950817,2.635732504994079,2.9032501204252936,-1.5011424683376489
1,366,2.841343286734908,1.1045044373810948,-2.7416625260675698,-2.8131758188950817,2.635732504994079,2.9032501204252936,-1.5011424683376489
1,367,2.841343286734908,1.1045044373810948,-2.7416625260675698,-2.8131758188950817,2.635732504994079,2.9032501204252936,-1.5011424683376489
1,368,2.841343286734908,1.1045044373810948,-2.7416625260675698,-2.8131758188950817,2.635732504994079,2.9032501204252936,-1.5011424683376489
1,369,2.841342647880475,1.104503704790896,-2.7416621909208194,-2.8131754083421274,2.6357328262404236,2.903249596871031,-1.5011426865027206
1,370,2.841342009026042,1.1045029722006972,-2.7416618557740695,-2.813174997789173,2.6357331474867687,2.9032490733167684,-1.5011429046677924
1,371,2.838612163761706,1.1013725910330598,-2.7402297630746544,-2.8114206919867275,2.637105843312951,2.901011909336849,-1.502075130942972
1,372,2.8358823184973696,1.0982422098654225,-2.738797670375239,-2.8096663861842814,2.638478539139133,2.8987747453569295,-1.503007357218152
1,373,2.8331574154240045,1.0951174960305625,-2.7373681703779447,-2.807915256427896,2.6398487497970136,2.8965416316035073,-1.5039378957638692
1,374,2.830432512350639,1.0919927821957023,-2.735938670380651,-2.806164126671511,2.6412189604548946,2.894308517850085,-1.5048684343095864
1,375,2.827706872326191,1.0888672232807854,-2.734508783774534,-2.8044125233214103,2.6425895416867737,2.8920748001501906,-1.5057992245198109
1,376,2.8249812323017434,1.0857416643658684,-2.733078897168417,-2.80266091997131,2.6439601229186533,2.889841082450296,-1.5067300147300353
1,377,2.8222569720884243,1.082617687714543,-2.7316497344192414,-2.8009102033420437,2.645330010315977,2.8876084955338186,-1.5076603337427872
1,378,2.819532711875105,1.0794937110632175,-2.730220571670066,-2.799159486712777,2.6466998977133,2.885375908617341,-1.508590652755539
1,379,2.816806160941515,1.0763671075862296,-2.728790207195716,-2.7974072979766795,2.648070936993551,2.88314144440879,-1.5095217540359356
1,380,2.814079610007925,1.0732405041092414,-2.7273598427213663,-2.7956551092405815,2.6494419762738013,2.8809069802002387,-1.510452855316332
1,381,2.8113560978633085,1.070117385286823,-2.725931072413382,-2.79390487334965,2.650811487506658,2.878675006341351,-1.5113829188679744
1,382,2.8086325857186925,1.0669942664644048,-2.7245023021053982,-2.792154637458718,2.6521809987395155,2.8764430324824626,-1.5123129824196164
1,383,2.8035809179125932,1.06110252572009,-2.7217313336277438,-2.7886938700840442,2.6547645632914403,2.872510762863124,-1.5141592185898785
1,384,2.798529250106494,1.055210784975775,-2.7189603651500893,-2.78523310270937,2.657348127843365,2.8685784932437857,-1.5160054547601403
1,385,2.7919744417636343,1.047531391309402,-2.7153226646832733,-2.78066766967191,2.6607155863305922,2.8635487283579173,-1.518443365973386
1,386,2.7854196334207746,1.0398519976430292,-2.711684964216457,-2.77610223663445,2.6640830448178194,2.858518963472049,-1.5208812771866318
1,387,2.778770379086483,1.0320533494930237,-2.70798320629149,-2.771449786450007,2.667501716522182,2.8534387398246546,-1.523365979021085
1,388,2.772121124752191,1.0242547013430185,-2.704281448366523,-2.766797336265564,2.670920388226545,2.8483585161772598,-1.525850680855538
1,389,2.763817730093084,1.014349274061397,-2.699433234682057,-2.760576089823232,2.6752416917152484,2.8424409565833013,-1.52917946789769
1,390,2.7555143354339777,1.0044438467797756,-2.6945850209975912,-2.7543548433809,2.6795629952039515,2.8365233969893433,-1.5325082549398419
1,391,2.7470687387538093,0.9943519582294871,-2.689627968082932,-2.7479790438752936,2.6839613023705566,2.830557609770981,-1.5359204128791908
1,392,2.738623142073641,0.9842600696791987,-2.684670915168272,-2.7416032443696876,2.688359609537162,2.8245918225526183,-1.5393325708185395
1,393,2.728906659596095,0.9724945509261653,-2.6787301131223176,-2.73382565321762,2.693447394383999,2.8182177209247277,-1.5435010990753972
1,394,2.719190177118549,0.9607290321731321,-2.6727893110763636,-2.7260480620655527,2.6985351792308365,2.8118436192968366,-1.547669627332255
1,395,2.7089880299529705,0.9482997466127361,-2.666416808888242,-2.7176283429043697,2.7038793041606834,2.8054492619063875,-1.5521895557654366
1,396,2.6987858827873925,0.93587046105234,-2.6600443067001205,-2.7092086237431867,2.7092234290905304,2.799054904515938,-1.5567094841986182
1,397,2.6880967978867267,0.9227634390920367,-2.6532151256519088,-2.7001002374441265,2.714823805919874,2.7926948521287933,-1.561607839558708
1,398,2.677407712986061,0.9096564171317334,-2.6463859446036966,-2.690991851145067,2.7204241827492175,2.7863347997416485,-1.566506194918798
1,399,2.6672051077402097,0.8970306962961696,-2.6396241148456863,-2.6818399196183815,2.7257526452473875,2.780836807671492,-1.5714546906321492
1,400,2.657002502494359,0.8844049754606058,-2.6328622850876764,-2.6726879880916963,2.7310811077455575,2.775338815601336,-1.5764031863455004
1,401,2.6474827245239734,0.8725742159931205,-2.626425061046297,-2.6639103835108484,2.7360354231560513,2.7705242118877926,-1.5811741486453887
1,402,2.6379629465535883,0.8607434565256351,-2.6199878370049174,-2.65513277893,2.740989738566545,2.76570960817425,-1.5859451109452771
1,403,2.6289255917402676,0.8494745346423052,-2.6137804373577236,-2.6466205474759112,2.7456797827745643,2.76137662152915,-1.590590058637193
1,404,2.619888236926947,0.8382056127589752,-2.6075730377105297,-2.638108316021822,2.750369826982583,2.7570436348840506,-1.595235006329109
1,405,2.612209157011054,0.8285754376850887,-2.602126516237673,-2.630562495737302,2.7543232995725306,2.753800347255255,-1.599405203165778
1,406,2.6045300770951605,0.8189452626112022,-2.5966799947648163,-2.623016675452782,2.758276772162479,2.7505570596264595,-1.6035754000024467
1,407,2.597041595383806,0.8095491238543358,-2.5913510442822734,-2.6156268393873257,2.762128596916967,2.7474396775647545,-1.6076661954029934
1,408,2.589553113672452,0.8001529850974693,-2.58602209379973,-2.608237003321869,2.765980421671455,2.7443222955030495,-1.6117569908035403
1,409,2.583721794940232,0.7928038181166186,-2.5817486204946505,-2.6022656026285915,2.7689539200359734,2.7422161191147385,-1.615117237928899
1,410,2.577890476208012,0.7854546511357678,-2.577475147189571,-2.596294201935314,2.771927418400492,2.7401099427264275,-1.6184774850542576
1,411,2.572059891811123,0.778106409632192,-2.5732022120410525,-2.590323553217826,2.7749005423137056,2.7380040315679564,-1.621837309025215
1,412,2.5662293074142344,0.7707581681286162,-2.5689292768925336,-2.584352904500338,2.7778736662269194,2.7358981204094857,-1.6251971329961725
1,413,2.5626338793351,0.7662192609862857,-2.5662599237549504,-2.580613818200017,2.77969972711649,2.7346892621729344,-1.6273219850580682
1,414,2.5590384512559656,0.7616803538439552,-2.5635905706173676,-2.576874731899696,2.7815257880060607,2.733480403936383,-1.6294468371199642
1,415,2.55665182664202,0.7586607493718565,-2.5617883472447076,-2.574342323212157,2.782731478072333,2.73275696981484,-1.6309039679240414
1,416,2.5542652020280747,0.7556411448997578,-2.559986123872047,-2.5718099145246183,2.7839371681386047,2.7320335356932968,-1.6323610987281185
1,417,2.5518840359835027,0.7526284467171499,-2.558188022455244,-2.5692832978365505,2.7851401006103935,2.7313117561743736,-1.6338148968549355
1,418,2.54950286993893,0.749615748534542,-2.5563899210384404,-2.566756681148483,2.7863430330821823,2.7305899766554504,-1.6352686949817525
1,419,2.5471190537784514,0.7465996973730885,-2.5545898184268117,-2.564227252465389,2.7875473043562295,2.7298673938328735,-1.6367241111114592
1,420,2.544735237617972,0.743583646211635,-2.5527897158151833,-2.561697823782295,2.7887515756302768,2.7291448110102965,-1.6381795272411657
1,421,2.5423509227013312,0.7405669640140613,-2.550989236575405,-2.559167865877123,2.7899560988691054,2.7284220770046534,-1.639635247881671
1,422,2.5399666077846907,0.7375502818164876,-2.5491887573356267,-2.556637907971951,2.791160622107934,2.727699342999011,-1.641090968522176
1,423,2.53758224016038,0.7345335329321315,-2.547388238294451,-2.5541078941395243,2.792365171973956,2.7269765930166088,-1.6425467213428444
1,424,2.5351978725360693,0.7315167840477754,-2.5455877192532754,-2.551577880307098,2.7935697218399778,2.726253843034207,-1.6440024741635129
1,425,2.534622650632459,0.7307890019648953,-2.5451533491587517,-2.5509675216702794,2.793860316067085,2.7260794816578517,-1.6443536703885213
1,426,2.534047428728849,0.7300612198820152,-2.544718979064228,-2.5503571630334614,2.7941509102941926,2.725905120281497,-1.64470486661353
1,427,2.534047428728849,0.7300612198820152,-2.544718979064228,-2.5503571630334614,2.7941509102941926,2.725905120281497,-1.64470486661353
1,428,2.534047428728849,0.7300612198820152,-2.544718979064228,-2.5503571630334614,2.7941509102941926,2.725905120281497,-1.64470486661353
1,429,2.534047428728849,0.7300612198820152,-2.544718979064228,-2.5503571630334614,2.7941509102941926,2.725905120281497,-1.64470486661353
1,430,2.534047428728849,0.7300612198820152,-2.544718979064228,-2.5503571630334614,2.7941509102941926,2.725905120281497,-1.64470486661353
1,431,2.534047428728849,0.7300612198820152,-2.544718979064228,-2.5503571630334614,2.7941509102941926,2.725905120281497,-1.64470486661353
1,432,2.534047428728849,0.7300612198820152,-2.544718979064228,-2.5503571630334614,2.7941509102941926,2.725905120281497,-1.64470486661353
1,433,2.534047428728849,0.7300612198820152,-2.544718979064228,-2.5503571630334614,2.7941509102941926,2.725905120281497,-1.64470486661353
1,434,2.534047428728849,0.7300612198820152,-2.544718979064228,-2.5503571630334614,2.7941509102941926,2.725905120281497,-1.64470486661353
1,435,2.534047428728849,0.7300612198820152,-2.544718979064228,-2.5503571630334614,2.7941509102941926,2.725905120281497,-1.64470486661353
1,436,2.534047428728849,0.7300612198820152,-2.544718979064228,-2.5503571630334614,2.7941509102941926,2.725905120281497,-1.64470486661353
1,437,2.534047428728849,0.7300612198820152,-2.544718979064228,-2.5503571630334614,2.7941509102941926,2.725905120281497,-1.64470486661353
1,438,2.534047428728849,0.7300612198820152,-2.544718979064228,-2.5503571630334614,2.7941509102941926,2.725905120281497,-1.64470486661353
1,439,2.534047428728849,0.7300612198820152,-2.544718979064228,-2.5503571630334614,2.7941509102941926,2.725905120281497,-1.64470486661353
1,440,2.534047428728849,0.7300612198820152,-2.544718979064228,-2.5503571630334614,2.7941509102941926,2.725905120281497,-1.64470486661353
1,441,2.534047428728849,0.7300612198820152,-2.544718979064228,-2.5503571630334614,2.7941509102941926,2.725905120281497,-1.64470486661353
1,442,2.534047428728849,0.7300612198820152,-2.544718979064228,-2.5503571630334614,2.7941509102941926,2.725905120281497,-1.64470486661353
1,443,2.534047428728849,0.7300612198820152,-2.544718979064228,-2.5503571630334614,2.7941509102941926,2.725905120281497,-1.64470486661353
1,444,2.534047428728849,0.7300612198820152,-2.544718979064228,-2.5503571630334614,2.7941509102941926,2.725905120281497,-1.64470486661353
1,445,2.534047428728849,0.7300612198820152,-2.544718979064228,-2.5503571630334614,2.7941509102941926,2.725905120281497,-1.64470486661353
1,446,2.534047428728849,0.7300612198820152,-2.544718979064228,-2.5503571630334614,2.7941509102941926,2.725905120281497,-1.64470486661353
1,447,2.534047428728849,0.7300612198820152,-2.544718979064228,-2.5503571630334614,2.7941509102941926,2.725905120281497,-1.64470486661353
1,448,2.534047428728849,0.7300612198820152,-2.544718979064228,-2.5503571630334614,2.7941509102941926,2.725905120281497,-1.64470486661353
1,449,2.534047428728849,0.7300612198820152,-2.544718979064228,-2.5503571630334614,2.7941509102941926,2.725905120281497,-1.64470486661353
1,450,2.534047428728849,0.7300612198820152,-2.544718979064228,-2.5503571630334614,2.7941509102941926,2.725905120281497,-1.64470486661353
1,451,2.534047428728849,0.7300612198820152,-2.544718979064228,-2.5503571630334614,2.7941509102941926,2.725905120281497,-1.64470486661353
1,452,2.534047428728849,0.7300612198820152,-2.544718979064228,-2.5503571630334614,2.7941509102941926,2.725905120281497,-1.64470486661353
1,453,2.534047428728849,0.7300612198820152,-2.544718979064228,-2.5503571630334614,2.7941509102941926,2.725905120281497,-1.64470486661353
1,454,2.534047428728849,0.7300612198820152,-2.544718979064228,-2.5503571630334614,2.7941509102941926,2.725905120281497,-1.64470486661353
1,455,2.534049451433752,0.7300611279764797,-2.5447214184855005,-2.5503537238162854,2.794146861652103,2.7259091032473877,-1.6447020402343724
1,456,2.5340514741386557,0.7300610360709441,-2.544723857906773,-2.550350284599109,2.794142813010014,2.7259130862132785,-1.6446992138552148
1,457,2.5364389077423057,0.7299525583767204,-2.5476031490529265,-2.546290917044577,2.789364130683533,2.7306142497862282,-1.641363189620278
1,458,2.538826341345956,0.7298440806824967,-2.55048244019908,-2.5422315494900447,2.784585448357052,2.7353154133591775,-1.6380271653853413
1,459,2.5412076358790916,0.7297358819288949,-2.553354327507342,-2.5381826202336186,2.7798190539818357,2.740004488313356,-1.6346997194363038
1,460,2.5435889304122274,0.7296276831752931,-2.5562262148156036,-2.5341336909771925,2.775052659606619,2.744693563267534,-1.6313722734872662
1,461,2.5459728447365757,0.7295193653863767,-2.559101261642787,-2.5300803072741864,2.7702810214625497,2.7493877969272784,-1.628041166834549
1,462,2.5483567590609244,0.7294110475974604,-2.5619763084699705,-2.5260269235711803,2.7655093833184807,2.754082030587023,-1.6247100601818318
1,463,2.5507378540889167,0.7293028579087633,-2.5648479551711674,-2.521978333534536,2.76074338827236,2.758770712689936,-1.6213828930066172
1,464,2.553118949116909,0.7291946682200661,-2.567719601872364,-2.517929743497891,2.7559773932262397,2.763459394792849,-1.6180557258314028
1,465,2.556516148270217,0.7287985042455262,-2.571624941892802,-2.5122801174869864,2.7493807039065956,2.769848447633902,-1.6135029709347322
1,466,2.559913347423525,0.7284023402709863,-2.5755302819132395,-2.506630491476082,2.742784014586952,2.7762375004749553,-1.6089502160380615
1,467,2.5660029907307447,0.727244381730906,-2.5821756818003534,-2.4967378193021714,2.731335334775064,2.7871337280104607,-1.6011489117677256
1,468,2.572092634037965,0.7260864231908258,-2.588821081687467,-2.486845147128261,2.7198866549631764,2.7980299555459665,-1.5933476074973894
1,469,2.578776299272183,0.7245903613711748,-2.5958843398401914,-2.476204439177048,2.7076012706056938,2.809615357040161,-1.5850308178911712
1,470,2.585459964506401,0.7230942995515239,-2.6029475979929164,-2.4655637312258354,2.6953158862482116,2.8212007585343555,-1.576714028284953
1,471,2.5939099884435395,0.7205939080512515,-2.6112544461738882,-2.452697693222114,2.6805412185548327,2.834837185163132,-1.5668632790079768
1,472,2.6023600123806774,0.718093516550979,-2.61956129435486,-2.439831655218393,2.665766550861454,2.8484736117919085,-1.557012529731001
1,473,2.6123287266431863,0.7146574966778424,-2.6286904602367973,-2.4254862911316817,2.6492631942004885,2.863409827517735,-1.5461622796705115
1,474,2.6222974409056956,0.7112214768047058,-2.6378196261187346,-2.41114092704497,2.632759837539523,2.8783460432435617,-1.535312029610022
1,475,2.6336381035943837,0.7069505565988916,-2.6476240827445365,-2.395627313057595,2.6148369836753362,2.8943056349211433,-1.5236674123141736
1,476,2.6449787662830717,0.7026796363930775,-2.6574285393703385,-2.3801136990702205,2.596914129811149,2.910265226598725,-1.5120227950183254
1,477,2.6579909810863898,0.6973863094025516,-2.6678526462447056,-2.363630702354816,2.5776593134583337,2.927039604074752,-1.499717792486096
1,478,2.6710031958897074,0.6920929824120257,-2.678276753119073,-2.347147705639412,2.558404497105518,2.9438139815507793,-1.4874127899538667
1,479,2.6854925028859027,0.6860188504465397,-2.6889920818327493,-2.3306224456243765,2.538634942105169,2.9606299590801055,-1.4750352385310512
1,480,2.6999818098820985,0.6799447184810535,-2.699707410546426,-2.3140971856093406,2.5188653871048197,2.9774459366094317,-1.4626576871082357
1,481,2.7145786371170377,0.6738540807476385,-2.7099976004276103,-2.2987277567358833,2.500066187301039,2.9931962945437114,-1.451068968479408
1,482,2.729175464351977,0.6677634430142236,-2.7202877903087948,-2.283358327862426,2.4812669874972584,3.0089466524779915,-1.43948024985058
1,483,2.7436295545078515,0.6617926318894729,-2.730052519085312,-2.2692832113263837,2.463639727655255,3.0235028692365624,-1.4287827936155053
1,484,2.7580836446637256,0.6558218207647222,-2.7398172478618297,-2.2552080947903415,2.4460124678132518,3.0380590859951337,-1.4180853373804303
1,485,2.7716832987375577,0.6504854729584102,-2.7485727460588776,-2.2435755342958448,2.4307909919992463,3.0504234641640773,-1.4090969396557316
1,486,2.7852829528113903,0.6451491251520983,-2.7573282442559255,-2.231942973801348,2.4155695161852404,3.062787842333021,-1.4001085419310328
1,487,2.798666886394474,0.6399740336112719,-2.76582729485772,-2.22093322453902,2.4009606275832565,3.0745937718117875,-1.3915557345099088
1,488,2.8120508199775585,0.6347989420704455,-2.774326345459514,-2.209923475276692,2.3863517389812725,3.086399701290554,-1.3830029270887845
1,489,2.8231686848958772,0.6307412712342616,-2.781238868704812,-2.201633812045533,2.3749675208213135,3.095552003606733,-1.3764995316323172
1,490,2.834286549814196,0.6266836003980777,-2.7881513919501106,-2.1933441488143743,2.3635833026613544,3.1047043059229122,-1.3699961361758497
1,491,2.8438803559034453,0.6233784296893099,-2.793996291827605,-2.1868873451653816,2.35437088334224,3.112069256801867,-1.364873508187169
1,492,2.8534741619926947,0.6200732589805422,-2.7998411917050996,-2.180430541516389,2.3451584640231258,3.119434207680822,-1.359750880198488
1,493,2.863067188962937,0.6167683566867599,-2.8056856169146105,-2.1739742622284686,2.3359467928503603,3.126798560447498,-1.3546286682216377
1,494,2.8726602159331787,0.6134634543929776,-2.8115300421241214,-2.1675179829405478,2.3267351216775944,3.134162913214175,-1.3495064562447874
1,495,2.8823003863670484,0.6101423106624138,-2.8174031888673197,-2.161029975255665,2.3174781811559333,3.1415634569660194,-1.344359071940707
1,496,2.8919405568009178,0.6068211669318501,-2.8232763356105175,-2.1545419675707826,2.3082212406342717,3.1489640007178643,-1.3392116876366265
1,497,2.8942638157723684,0.6059520642626248,-2.8240122275472546,-2.1526986016632303,2.2980024904402607,3.151348224793068,-1.3296298168498057
1,498,2.896587074743819,0.6050829615933997,-2.824748119483992,-2.150855235755678,2.2877837402462498,3.1537324488682725,-1.320047946062985
1,499,2.8966242513680562,0.6049792403392824,-2.8238717201512733,-2.1504600618831082,2.2771796495130503,3.1545557630650896,-1.3089919835096167
1,500,2.8966614279922935,0.6048755190851651,-2.822995320818554,-2.150064888010539,2.266575558779851,3.155379077261907,-1.2979360209562485
1,501,2.896698591671541,0.6047718339470383,-2.8221192266501918,-2.149669851738463,2.2559751604165683,3.156202104778739,-1.2868839081156525
1,502,2.8967357553507886,0.6046681488089113,-2.82124313248183,-2.1492748154663874,2.2453747620532853,3.1570251322955714,-1.2758317952750562
1,503,2.8967729287769703,0.6045644364772387,-2.820366808539874,-2.1488796755879793,2.2347715835189765,3.157848375668183,-1.2647767837920842
1,504,2.8968101022031516,0.6044607241455662,-2.8194904845979187,-2.1484845357095708,2.2241684049846677,3.1586716190407955,-1.2537217723091123
1,505,2.896847422339592,0.6043566024982994,-2.8186107021178204,-2.148087836354951,2.2135233794852813,3.159498111461469,-1.242623130637517
1,506,2.8968847424760322,0.6042524808510327,-2.8177309196377225,-2.1476911370003307,2.202878353985895,3.1603246038821426,-1.2315244889659218
1,507,2.896921769970282,0.6041491756634527,-2.8168580358856694,-2.147297548324799,2.1923168004100995,3.1611446154435465,-1.2205128762046495
1,508,2.8969587974645323,0.6040458704758728,-2.8159851521336163,-2.146903959649267,2.181755246834304,3.1619646270049504,-1.2095012634433773
1,509,2.8969959572220354,0.6039421962792514,-2.8151091504162014,-2.1465089650638944,2.171155967091488,3.162787567670761,-1.1984503168909904
1,510,2.8970331169795385,0.60383852208263,-2.8142331486987864,-2.1461139704785217,2.160556687348672,3.1636105083365718,-1.1873993703386034
1,511,2.8970702848860626,0.6037348251505743,-2.813356954876873,-2.145718889272044,2.149955083216214,3.1644336294707545,-1.1763460003474242
1,512,2.897107452792587,0.6036311282185186,-2.8124807610549594,-2.1453238080655663,2.1393534790837565,3.165256750604937,-1.165292630356245
1,513,2.8971446145951507,0.6035274483162614,-2.8116047111274116,-2.144928791741947,2.128753616017103,3.1660797365607034,-1.1542410756228585
1,514,2.897181776397715,0.6034237684140042,-2.810728661199864,-2.144533775418328,2.1181537529504495,3.1669027225164696,-1.143189520889472
1,515,2.897218963871703,0.603320016889529,-2.80985200609583,-2.1441384862168924,2.1075465674839147,3.1677262769920578,-1.1321303317269837
1,516,2.8972561513456907,0.6032162653650537,-2.808975350991796,-2.1437431970154575,2.09693938201738,3.1685498314676463,-1.1210711425644955
1,517,2.8972780756728453,0.6031550973931141,-2.8084585083229734,-2.143510149463591,2.090685786937638,3.1690353680157424,-1.1145510632135056
1,518,2.8973,0.6030939294211747,-2.807941665654151,-2.1432771019117243,2.084432191857896,3.169520904563839,-1.108030983862516
1,519,2.895048446085749,0.6012397183227178,-2.803887966963288,-2.142835521402951,2.0836439626649153,3.16747533842031,-1.105811073001715
1,520,2.8927968921714977,0.599385507224261,-2.7998342682724253,-2.1423939408941775,2.0828557334719346,3.1654297722767812,-1.1035911621409138
1,521,2.890550430680912,0.5975354898643677,-2.795789737983445,-2.1419533591245496,2.0820692870463886,3.1633888326666755,-1.101376272135501
1,522,2.8883039691903263,0.5956854725044745,-2.7917452076944644,-2.1415127773549223,2.0812828406208426,3.1613478930565697,-1.099161382130088
1,523,2.8838125364856206,0.5919866650647214,-2.78365883021093,-2.140631906092497,2.079710469489177,3.1572673677719956,-1.094733071451572
1,524,2.879321103780915,0.5882878576249684,-2.7755724527273964,-2.1397510348300712,2.0781380983575115,3.1531868424874214,-1.0903047607730556
1,525,2.877075206542946,0.5864383049412518,-2.7715289383190838,-2.139310563723109,2.077351849466824,3.1511464155081894,-1.0880904270903247
1,526,2.8748293093049773,0.5845887522575353,-2.767485423910771,-2.1388700926161466,2.0765656005761373,3.149105988528957,-1.085876093407594
1,527,2.8673642723623383,0.5784411071748123,-2.7540453680053445,-2.137406030489862,2.073952223207013,3.1423239049495226,-1.0785159691483632
1,528,2.8598992354196993,0.5722934620920893,-2.740605312099918,-2.1359419683635776,2.0713388458378885,3.135541821370088,-1.0711558448891323
1,529,2.854442537863228,0.5677997348461677,-2.7307810713384173,-2.1348717868911473,2.069428552558188,3.130584340358266,-1.0657758350687827
1,530,2.8489858403067565,0.5633060076002462,-2.7209568305769167,-2.133801605418717,2.0675182592784878,3.1256268593464434,-1.0603958252484331
1,531,2.835752387761252,0.5524079276451239,-2.6971313165975417,-2.131206226879973,2.062885461656246,3.113604094838011,-1.0473483539683888
1,532,2.822518935215747,0.5415098476900015,-2.673305802618166,-2.128610848341229,2.058252664034004,3.1015813303295787,-1.0343008826883444
1,533,2.8148278809816474,0.5351760717011443,-2.6594588250784374,-2.1271024591260286,2.055560162009627,3.09459390708835,-1.0267179175560317
1,534,2.8071368267475476,0.5288422957122871,-2.6456118475387083,-2.1255940699108287,2.05286765998525,3.087606483847121,-1.0191349524237192
1,535,2.7895484853874084,0.5143578556342598,-2.613945789757561,-2.1221445994463943,2.0467102928316487,3.0716272459619405,-1.0017937953846983
1,536,2.7719601440272688,0.4998734155562326,-2.582279731976414,-2.11869512898196,2.040552925678048,3.05564800807676,-0.9844526383456773
1,537,2.7621457737959796,0.49179103560874926,-2.564609935350002,-2.1167703096060646,2.0371170882867875,3.046731524514846,-0.9747761980301859
1,538,2.752331403564691,0.4837086556612659,-2.54694013872359,-2.114845490230169,2.033681250895527,3.0378150409529328,-0.9650997577146946
1,539,2.7307232258966794,0.4659137795999565,-2.5080367658261737,-2.110607639194086,2.0261166101657464,3.0181837292702447,-0.9437952586379785
1,540,2.7091150482286674,0.44811890353864703,-2.4691333929287578,-2.1063697881580024,2.018551969435966,2.998552417587557,-0.9224907595612624
1,541,2.697321353934983,0.4384065006009493,-2.4479000203605303,-2.104056778687716,2.014423205706822,2.9878376922587107,-0.9108628123529776
1,542,2.6855276596412985,0.4286940976632516,-2.426666647792303,-2.1017437692174297,2.010294441977678,2.977122966929864,-0.899234865144693
1,543,2.6598685890448532,0.40756320971298843,-2.3804700454248398,-2.09671144670589,2.001311655298285,2.9538113661041905,-0.8739364038755311
1,544,2.634209518448408,0.38643232176272524,-2.334273443057376,-2.09167912419435,1.9923288686188916,2.930499765278517,-0.8486379426063692
1,545,2.620479109214032,0.3751249855148159,-2.309553208029422,-2.0889862812395323,1.9875220952515718,2.9180255091264162,-0.8351004988037976
1,546,2.6067486999796565,0.36381764926690646,-2.2848329730014676,-2.086293438284715,1.9827153218842521,2.9055512529743153,-0.821563055001226
1,547,2.577639753076098,0.33984570168379813,-2.2324252117622274,-2.080584517213728,1.9725247945417428,2.8791053944573086,-0.7928632015494881
1,548,2.548530806172539,0.31587375410068974,-2.180017450522987,-2.0748755961427405,1.9623342671992334,2.852659535940302,-0.7641633480977502
1,549,2.53323174346162,0.30327459238618637,-2.1524730110626926,-2.0718751048585284,1.956978336000935,2.8387601376131744,-0.7490792964758541
1,550,2.5179326807507016,0.290675430671683,-2.1249285716023985,-2.0688746135743163,1.9516224048026365,2.8248607392860468,-0.7339952448539582
1,551,2.4856897595567595,0.2641225766866777,-2.0668784016259245,-2.062551049454868,1.9403347285044235,2.795567624186588,-0.7022054615894551
1,552,2.4534468383628174,0.23756972270167248,-2.00882823164945,-2.0562274853354197,1.9290470522062102,2.7662745090871295,-0.670415678324952
1,553,2.4366466184974294,0.22373432043404387,-1.9785811081657643,-2.052932583273023,1.923165592445209,2.7510112898752954,-0.6538515666210462
1,554,2.4198463986320413,0.20989891816641526,-1.9483339846820784,-2.049637681210626,1.9172841326842074,2.7357480706634614,-0.6372874549171403
1,555,2.385020754671432,0.18121912723005346,-1.8856338794622887,-2.0428075869005804,1.905092290836514,2.7041085181919384,-0.6029512461445141
1,556,2.350195110710823,0.15253933629369168,-1.822933774242499,-2.0359774925905345,1.8929004489888206,2.6724689657204155,-0.5686150373718878
1,557,2.33204719333166,0.1375940713345295,-1.7902602555422966,-2.0324182766469385,1.8865471841704582,2.6559813457121155,-0.5507221685243192
1,558,2.313899275952497,0.1226488063753673,-1.7575867368420945,-2.0288590607033425,1.8801939193520958,2.639493725703815,-0.5328292996767506
1,559,2.2763476286712123,0.09172408335915028,-1.689978734004413,-2.0214943356542134,1.8670477519677506,2.605377563605214,-0.4958053984887467
1,560,2.238795981389928,0.060799360342933255,-1.6223707311667315,-2.0141296106050843,1.8539015845834055,2.5712614015066126,-0.45878149730074286
1,561,2.2195678721958823,0.04496453034207182,-1.5877524346319158,-2.0103585446817167,1.8471701637204017,2.5537924131237615,-0.4398236175172022
1,562,2.200339763001836,0.029129700341210384,-1.5531341380971,-2.0065874787583486,1.8404387428573978,2.5363234247409108,-0.42086573773366165
1,563,2.1610150635505447,-0.00325517559027152,-1.4823339313264388,-1.9988750181856076,1.826671861275524,2.5005964215841763,-0.3820937026262111
1,564,2.1216903640992535,-0.035640051521753424,-1.4115337245557775,-1.9911625576128664,1.8129049796936498,2.464869418427442,-0.3433216675187606
1,565,2.1015479528233905,-0.05222783221001201,-1.375269318137181,-1.9872121764282002,1.8058534778467843,2.4465697746595767,-0.32346233513902334
1,566,2.0814055415475274,-0.0688156128982706,-1.339004911718584,-1.983261795243534,1.798801975999919,2.428270130891711,-0.30360300275928614
1,567,2.0411353268008154,-0.10197914438111785,-1.2665023987801787,-1.9753638977942596,1.7847040862402959,2.39168411473766,-0.26389874050858436
1,568,2.000865112054103,-0.1351426758639651,-1.193999885841773,-1.9674660003449849,1.7706061964806725,2.3550980985836083,-0.22419447825788258
1,569,1.980739091440478,-0.15171695843093025,-1.1577649891789221,-1.9635188337388925,1.7635604327146883,2.3368133459465,-0.20435130618809313
1,570,1.9606130708268534,-0.16829124099789539,-1.1215300925160712,-1.9595716671328,1.7565146689487041,2.3185285933093924,-0.1845081341183037
1,571,1.9203445425382908,-0.20145338364017445,-1.0490306158776845,-1.9516741004360085,1.7424173695882437,2.2819441093246002,-0.14480553462448215
1,572,1.880076014249728,-0.23461552628245355,-0.9765311392392981,-1.9437765337392168,1.728320070227783,2.2453596253398085,-0.10510293513066057
1,573,1.8599357837765171,-0.2512015110250517,-0.9402706591387882,-1.9398265802591412,1.7212693318413455,2.227061962859641,-0.08524575290485145
1,574,1.8397955533033066,-0.2677874957676499,-0.9040101790382782,-1.9358766267790655,1.714218593454908,2.2087643003794732,-0.06538857067904234
1,575,1.7997183173755134,-0.3007921043548286,-0.8318551052531902,-1.9280165768290232,1.7001882621657862,2.172353608003325,-0.025874575147387988
1,576,1.75964108144772,-0.3337967129420073,-0.7597000314681022,-1.9201565268789806,1.6861579308766648,2.1359429156271768,0.013639420384266365
1,577,1.74007093121633,-0.3499132223126392,-0.7244659240941472,-1.916318378993091,1.6793067674975588,2.1181631784937585,0.03293453420374685
1,578,1.72050078098494,-0.3660297316832712,-0.6892318167201923,-1.9124802311072013,1.672455604118453,2.10038344136034,0.052229648023227326
1,579,1.6821861683469115,-0.3975827757995332,-0.6202501707073547,-1.9049658713421214,1.6590423360603856,2.065574115268391,0.09000579194951565
1,580,1.643871555708883,-0.42913581991579525,-0.551268524694517,-1.8974515115770412,1.6456290680023182,2.0307647891764415,0.12778193587580397
1,581,1.6251509401169997,-0.4445527162115964,-0.5175639198717615,-1.8937799765961145,1.6390753116713266,2.0137568653606306,0.14623945430796964
1,582,1.6064303245251164,-0.45996961250739754,-0.4838593150490061,-1.8901084416151877,1.632521555340335,1.9967489415448194,0.16469697274013528
1,583,1.570395181912609,-0.4896454559076702,-0.41898162790645344,-1.8830411373379787,1.6199062894119378,1.9640105437481605,0.20022568202384342
1,584,1.5343600393001013,-0.5193212993079429,-0.3541039407639008,-1.8759738330607696,1.6072910234835407,1.9312721459515017,0.23575439130755155
1,585,1.5170493133274416,-0.5335771161541173,-0.32293770185258686,-1.8725788092357298,1.6012308445657828,1.9155451252723832,0.25282183453057605
1,586,1.499738587354782,-0.5478329330002917,-0.2917714629412729,-1.8691837854106899,1.5951706656480251,1.8998181045932647,0.2698892777536005
1,587,1.4663618963302358,-0.5753194748662294,-0.23168005324632246,-1.8626378634540777,1.5834860765897192,1.869494944792074,0.30279689699115164
1,588,1.4329852053056895,-0.6028060167321669,-0.17158864355137202,-1.8560919414974655,1.5718014875314135,1.839171784990883,0.33570451622870273
1,589,1.416972464946741,-0.6159929098828674,-0.14275929852909885,-1.8529514819287178,1.5661957104142612,1.8246240011976278,0.35149221556338295
1,590,1.4009597245877923,-0.6291798030335678,-0.11392995350682569,-1.8498110223599702,1.5605899332971087,1.8100762174043725,0.36727991489806316
1,591,1.370556015127737,-0.6542180200437266,-0.059191101172219214,-1.8438481691469102,1.5499461324893051,1.7824540501910855,0.3972563344773684
1,592,1.3401523056676818,-0.6792562370538855,-0.004452248837612729,-1.83788531593385,1.5393023316815018,1.7548318829777985,0.4272327540566736
1,593,1.3259712112193587,-0.6909347238748825,0.021079400054431964,-1.835104083442894,1.5343377813938828,1.7419481734214486,0.44121454920029557
1,594,1.3117901167710355,-0.7026132106958796,0.046611048946476656,-1.832322850951938,1.529373231106264,1.7290644638650985,0.45519634434391754
1,595,1.2850689152654495,-0.7246187900791472,0.09471991228564394,-1.8270822206116255,1.520018611185813,1.7047879032336741,0.48154200946898995
1,596,1.2583477137598633,-0.7466243694624147,0.14282877562481122,-1.821841590271313,1.510663991265362,1.68051134260225,0.5078876745940624
1,597,1.245864337517372,-0.7569047427763883,0.16530385188722674,-1.819393318614357,1.5062937820871527,1.66917003221348,0.5201956110484247
1,598,1.2333809612748805,-0.7671851160903619,0.18777892814964225,-1.8169450469574009,1.5019235729089435,1.6578287218247099,0.5325035475027872
1,599,1.2102816918066472,-0.786207943633219,0.22936686340208667,-1.8124147591861353,1.4938369273189154,1.6368427337631348,0.5552781827644786
1,600,1.187182422338414,-0.8052307711760761,0.2709547986545311,-1.8078844714148699,1.4857502817288872,1.6158567457015596,0.5780528180261701
1,601,1.1765661522016742,-0.8139735358006159,0.29006833623529144,-1.805802381379812,1.4820337133671964,1.6062117256001895,0.5885198884474376
1,602,1.1659498820649346,-0.8227163004251556,0.3091818738160518,-1.8037202913447543,1.4783171450055053,1.5965667054988195,0.5989869588687051
1,603,1.146562273483327,-0.8386824821705796,0.3440873331207479,-1.7999179439938078,1.471529886228631,1.578952809838801,0.6181020964556222
1,604,1.1271746649017196,-0.8546486639160037,0.3789927924254441,-1.7961155966428612,1.4647426274517568,1.5613389141787828,0.6372172340425393
1,605,1.1186151738478962,-0.8616976193990086,0.39440330401022916,-1.794436887378799,1.4617461010603714,1.5535625047422972,0.645656431093538
1,606,1.110055682794073,-0.8687465748820135,0.4098138155950143,-1.7927581781147368,1.458749574668986,1.5457860953058113,0.6540956281445366
1,607,1.0948368947915625,-0.881279628361527,0.43721372843379436,-1.789773430511525,1.4534217462259558,1.5319596275999148,0.6691005332286062
1,608,1.0796181067890518,-0.8938126818410405,0.4646136412725745,-1.7867886829083128,1.4480939177829253,1.5181331598940184,0.6841054383126757
1,609,1.0728472950802175,-0.8993886150383843,0.4768038137514373,-1.7854607740093646,1.4457235763865683,1.5119817890082776,0.6907810938915828
1,610,1.0660764833713832,-0.9049645482357281,0.4889939862303002,-1.7841328651104162,1.4433532349902116,1.5058304181225368,0.6974567494704901
1,611,1.0551829066616576,-0.9139356817756429,0.508606786691139,-1.7819963890014519,1.4395395865031682,1.495933461377106,0.7081972292333003
1,612,1.0442893299519318,-0.9229068153155576,0.5282195871519777,-1.7798599128924875,1.4357259380161247,1.4860365046316752,0.7189377089961105
1,613,1.0401199009971491,-0.9263404445940981,0.5357262289377547,-1.779042193828558,1.4342662947007163,1.4822485239602958,0.7230485413246088
1,614,1.0359504720423667,-0.9297740738726387,0.5432328707235317,-1.778224474764629,1.4328066513853077,1.4784605432889164,0.7271593736531071
1,615,1.0288711185524864,-0.9356040989623116,0.5559785419652651,-1.77683605386293,1.4303282949698408,1.4720288581645615,0.7341392348059603
1,616,1.021791765062606,-0.9414341240519846,0.5687242132069985,-1.7754476329612312,1.4278499385543741,1.4655971730402066,0.7411190959588135
1,617,1.018251008140726,-0.9443500261496128,0.5750989935789188,-1.7747532106633193,1.4266103821958036,1.4623803491231688,0.74461009153151
1,618,1.014710251218846,-0.9472659282472411,0.5814737739508391,-1.7740587883654073,1.425370825837233,1.459163525206131,0.7481010871042065
1,619,1.0065475674475193,-0.953115565607582,0.5847425973639692,-1.7797005054067716,1.4318102638926522,1.4629839097923334,0.7410101372929332
1,620,0.9983848836761925,-0.9589652029679229,0.5880114207770992,-1.785342222448136,1.4382497019480711,1.4668042943785355,0.7339191874816599
1,621,0.9942476503547321,-0.9618911022182791,0.5891578007960152,-1.7885252110370256,1.4419287776450824,1.469242528836517,0.7296489604036054
1,622,0.9901104170332716,-0.9648170014686354,0.5903041808149312,-1.7917081996259154,1.445607853342094,1.4716807632944984,0.7253787333255508
1,623,0.9776961570867804,-0.9735965096686572,0.5937440302134327,-1.8012591349198535,1.4566473569225677,1.4789969753666736,0.7125654098171726
1,624,0.965281897140289,-0.9823760178686791,0.5971838796119343,-1.8108100702137915,1.4676868605030413,1.4863131874388487,0.6997520863087945
1,625,0.9567536201473357,-0.9884073139841478,0.599546967593893,-1.8173713168833119,1.4752707152640003,1.4913392367852967,0.6909496629222394
1,626,0.9482253431543822,-0.9944386100996165,0.6019100555758518,-1.8239325635528323,1.4828545700249594,1.4963652861317447,0.6821472395356842
1,627,0.9255397492633571,-1.010482124449009,0.6081959740951227,-1.841385769808512,1.5030279590199214,1.5097347996271413,0.6587324041159098
1,628,0.902854155372332,-1.0265256387984016,0.6144818926143937,-1.858838976064192,1.5232013480148834,1.5231043131225381,0.6353175686961354
1,629,0.8896921573089438,-1.03583395604198,0.6181289316901479,-1.8689651851482774,1.5349057851197332,1.530861196701613,0.6217324705968721
1,630,0.8765301592455554,-1.0451422732855584,0.6217759707659022,-1.879091394232363,1.546610222224583,1.5386180802806881,0.6081473724976086
1,631,0.8464323336128263,-1.066427803642127,0.6301157338967853,-1.902247215549579,1.5733750116900151,1.5563559137229972,0.5770820348622459
1,632,0.8163345079800973,-1.0877133339986955,0.6384554970276685,-1.925403036866795,1.600139801155447,1.5740937471653065,0.5460166972268832
1,633,0.7993795330163764,-1.099704088370423,0.643153526606713,-1.938447380185432,1.6152171805260749,1.5840859813417836,0.5285166947923434
1,634,0.7824245580526556,-1.1116948427421507,0.6478515561857575,-1.951491723504069,1.6302945598967025,1.5940782155182607,0.5110166923578037
1,635,0.7447225175019818,-1.1383581618283403,0.6582983602698924,-1.980497862516865,1.663821472773049,1.6162975121506333,0.4721026979204379
1,636,0.7070204769513079,-1.1650214809145296,0.6687451643540272,-2.009504001529661,1.6973483856493954,1.6385168087830062,0.43318870348307215
1,637,0.6864551416105558,-1.1795655238972418,0.6744435834870873,-2.025325982701658,1.71563631373423,1.6506367704510283,0.4119622835502581
1,638,0.6658898062698037,-1.1941095668799542,0.6801420026201475,-2.0411479638736547,1.7339242418190646,1.6627567321190506,0.39073586361744406
1,639,0.621489147609066,-1.2255102261603725,0.6924449171430851,-2.075307697897654,1.7734079671779122,1.6889237880939036,0.34490792011881466
1,640,0.5770884889483285,-1.256910885440791,0.7047478316660228,-2.1094674319216535,1.8128916925367597,1.7150908440687567,0.29907997662018526
1,641,0.5546333087158686,-1.2727914485862062,0.7109699051966889,-2.1267433689761663,1.8328601839043412,1.7283245657249577,0.27590296163921835
1,642,0.5321781284834087,-1.288672011731621,0.7171919787273549,-2.1440193060306787,1.8528286752719227,1.7415582873811586,0.25272594665825143
1,643,0.4903091466067262,-1.318282239912544,0.728793394578574,-2.1762312895440643,1.8900610819824866,1.7662333265680448,0.20951106215730447
1,644,0.4484401647300437,-1.3478924680934672,0.740394810429793,-2.20844327305745,1.9272934886930504,1.790908365754931,0.16629617765635754
1,645,0.42905924450049954,-1.3615988790122546,0.745765041686538,-2.223354022135301,1.9445281639124459,1.8023303049735735,0.14629224654313747
1,646,0.40967832427095535,-1.375305289931042,0.7511352729432829,-2.238264771213152,1.9617628391318414,1.8137522441922163,0.1262883154299174
1,647,0.37448837647526856,-1.4001920279695743,0.7608860048660913,-2.265338226726596,1.9930558486516694,1.8344910656758748,0.08996716642123133
1,648,0.3392984286795817,-1.4250787660081068,0.7706367367888997,-2.29241168224004,2.0243488581714972,1.8552298871595332,0.053646017412545266
1,649,0.32353061586656373,-1.4362299455778103,0.775005817318414,-2.3045426800242956,2.0383705418446145,1.8645224799481195,0.03737133914226692
1,650,0.30776280305354575,-1.4473811251475137,0.7793748978479283,-2.3166736778085513,2.052392225517732,1.8738150727367056,0.021096660871988568
1,651,0.27710386827672906,-1.46906347837978,0.7878701379029377,-2.340261189548807,2.0796559868455136,1.8918835898856132,-0.010547823085240618
1,652,0.24644493349991234,-1.490745831612046,0.796365377957947,-2.363848701289062,2.106919748173295,1.9099521070345207,-0.042192307042469804
1,653,0.2322086971248669,-1.5008138626127572,0.8003100761794038,-2.3748013777299715,2.119579462333639,1.9183420815379049,-0.05688617546486854
1,654,0.21797246074982143,-1.5108818936134685,0.8042547744008606,-2.3857540541708815,2.1322391764939823,1.9267320560412888,-0.07158004388726727
1,655,0.19361331703013485,-1.528108961755613,0.8110044144304186,-2.4044948092771268,2.153900786245175,1.9410878583297846,-0.09672222636231986
1,656,0.16925417331044823,-1.5453360298977574,0.8177540544599766,-2.4232355643833716,2.1755623959963675,1.9554436606182801,-0.12186440883737246
1,657,0.15749248015534006,-1.5536540353162438,0.8210130850666616,-2.432284446133535,2.1860215980960422,1.9623752893920874,-0.13400418841765044
1,658,0.14573078700023187,-1.5619720407347302,0.8242721156733466,-2.4413333278836986,2.196480800195717,1.9693069181658946,-0.1461439679979284
1,659,0.1239805202654083,-1.577354080902579,0.8302988657387966,-2.458066938353077,2.2158224402556392,1.9821252065491115,-0.16859340962941108
1,660,0.10223025353058474,-1.592736121070428,0.8363256158042468,-2.4748005488224556,2.2351640803155615,1.9949434949323281,-0.19104285126089376
1,661,0.09387979196325652,-1.5986416640605317,0.8386394331661672,-2.48122499284472,2.242589810948597,1.9998647506487746,-0.19966174324218305
1,662,0.0855293303959283,-1.6045472070506352,0.8409532505280876,-2.487649436866984,2.2500155415816327,2.004786006365221,-0.20828063522347234
1,663,0.07293870925586658,-1.6134514399262956,0.844441967595563,-2.4973360559918882,2.2612118760997757,2.012206155031202,-0.22127598915793156
1,664,0.06034808811580485,-1.622355672801956,0.8479306846630386,-2.5070226751167928,2.2724082106179186,2.0196263036971835,-0.23427134309239078
1,665,0.05693952160014174,-1.6247662504605171,0.8488751594468109,-2.5096450624662205,2.275439312142789,2.021635106122636,-0.23778947994897892
1,666,0.05353095508447863,-1.6271768281190784,0.8498196342305833,-2.512267449815648,2.2784704136676592,2.023643908548088,-0.24130761680556703
1,667,0.04671353828595197,-1.631998184119647,0.8517086624267727,-2.517512442831356,2.2845328690601923,2.027661680634174,-0.2483441834078044
1,668,0.0398961214874253,-1.6368195401202152,0.8535976906229621,-2.522757435847064,2.2905953244527257,2.0316794527202604,-0.2553807500100418
1,669,0.03648866917984001,-1.6392293297979386,0.8545418566724239,-2.525378965978317,2.29362543515703,2.0336875984990317,-0.2588977368416894
1,670,0.03308121687225472,-1.6416391194756619,0.8554860227218856,-2.528000496109569,2.2966555458613347,2.035695744277803,-0.26241472367333696
1,671,0.03461799330815883,-1.6433617546762156,0.8580943234815863,-2.5305331771970576,2.29935625157575,2.0365041063372997,-0.2635345202167244
1,672,0.03615476974406294,-1.6450843898767693,0.8607026242412871,-2.5330658582845462,2.3020569572901657,2.037312468396796,-0.2646543167601118
1,673,0.03783537857515133,-1.6468365788347796,0.8634128418723204,-2.535661467286822,2.304819805521425,2.03811615409625,-0.2657520955002979
1,674,0.039515987406239725,-1.64858876779279,0.8661230595033538,-2.538257076289097,2.3075826537526836,2.038919839795704,-0.266849874240484
1,675,0.042883138115942854,-1.6520993314554109,0.8715530626373216,-2.5434574575631044,2.313118103888728,2.0405300484434488,-0.2690493072053345
1,676,0.04625028882564598,-1.6556098951180316,0.8769830657712894,-2.5486578388371117,2.3186535540247726,2.0421402570911935,-0.2712487401701849
1,677,0.049610450484865495,-1.6589697782844577,0.8825389330883555,-2.5536322572792556,2.3242779746030564,2.043768060622277,-0.2733796754524893
1,678,0.05297061214408501,-1.6623296614508838,0.8880948004054215,-2.5586066757213994,2.32990239518134,2.0453958641533605,-0.2755106107347937
1,679,0.06218202612400001,-1.6712207676379502,0.9036183502647376,-2.571777190104312,2.3455360770788403,2.0499087425479092,-0.28122393354271574
1,680,0.07139344010391502,-1.6801118738250167,0.9191419001240536,-2.5849477044872238,2.3611697589763407,2.054421620942458,-0.28693725635063777
1,681,0.0769921981486417,-1.685214635625885,0.9288432185407534,-2.5925253128314987,2.3708688015712998,2.057215945372643,-0.2903023263702147
1,682,0.08259095619336838,-1.6903173974267534,0.9385445369574531,-2.6001029211757736,2.3805678441662588,2.060010269802828,-0.2936673963897916
1,683,0.09544617906065297,-1.7012097020239034,0.9615135292725778,-2.6163808544478404,2.403362451758924,2.066583530938223,-0.3011582799009837
1,684,0.10830140192793757,-1.7121020066210533,0.9844825215877027,-2.6326587877199072,2.4261570593515893,2.0731567920736174,-0.3086491634121758
1,685,0.11493858267648069,-1.7172414309866924,0.9967360616738121,-2.640430885417448,2.438234667308551,2.076653267316555,-0.3124134227568932
1,686,0.1215757634250238,-1.7223808553523314,1.0089896017599216,-2.648202983114989,2.4503122752655124,2.080149742559492,-0.31617768210161057
1,687,0.13222302619657034,-1.7298896838672095,1.0292373280039666,-2.659762280199168,2.470181966893172,2.0859382980539607,-0.32213891817060064
1,688,0.14287028896811688,-1.7373985123820876,1.0494850542480116,-2.671321577283347,2.490051658520832,2.0917268535484292,-0.3281001542395907
1,689,0.14731621556157976,-1.7403239429892745,1.0581097380045654,-2.675896302406798,2.4984972167773014,2.094199025465704,-0.3305800943017841
1,690,0.15176214215504266,-1.7432493735964614,1.066734421761119,-2.6804710275302486,2.5069427750337705,2.096671197382979,-0.33306003436397746
1,691,0.15992740661648036,-1.7482009333977433,1.0829267718291946,-2.688385723102111,2.5227827593054313,2.1013334323432735,-0.33763399970288543
1,692,0.16809267107791803,-1.7531524931990254,1.0991191218972702,-2.696300418673973,2.5386227435770925,2.105995667303568,-0.3422079650417934
1,693,0.17019855639065629,-1.7543389135785064,1.1033748847982872,-2.6982396146107295,2.5427864332238475,2.1072265067300515,-0.34339889871698903
1,694,0.17230444170339457,-1.7555253339579873,1.107630647699304,-2.700178810547486,2.5469501228706024,2.1084573461565355,-0.3445898323921846
1,695,0.17549931445030506,-1.7572498316801668,1.1141540828078158,-2.703036311939519,2.5533335474254777,2.110348705590124,-0.3464072417123002
1,696,0.17869418719721555,-1.758974329402346,1.1206775179163275,-2.705893813331552,2.5597169719803534,2.1122400650237134,-0.3482246510324158
1,697,0.18029197817490408,-1.7598367696683028,1.1239399595174824,-2.7073228811863945,2.562909392764686,2.1131859546656333,-0.349133557409753
1,698,0.1818897691525926,-1.7606992099342593,1.127202401118637,-2.7087519490412375,2.566101813549019,2.114131844307553,-0.3500424637870902
1,699,0.1838357725719339,-1.7617496049671297,1.1311758385706578,-2.710492458889414,2.5699899702910702,2.115283875144627,-0.35114945146123394
1,700,0.1857817759912752,-1.7628,1.1351492760226787,-2.7122329687375903,2.573878127033121,2.116435905981701,-0.3522564391353777
1,701,0.1857817759912752,-1.7628,1.1351492760226787,-2.7122329687375903,2.573878127033121,2.116435905981701,-0.3522564391353777
1,702,0.1857817759912752,-1.7628,1.1351492760226787,-2.7122329687375903,2.573878127033121,2.116435905981701,-0.3522564391353777
1,703,0.1857817759912752,-1.7628,1.1351492760226787,-2.7122329687375903,2.573878127033121,2.116435905981701,-0.3522564391353777
1,704,0.1857817759912752,-1.7628,1.1351492760226787,-2.7122329687375903,2.573878127033121,2.116435905981701,-0.3522564391353777
